; generated by PrusaSlicer 2.2.0+ on 2020-09-08 at 17:26:43 UTC

; 

; external perimeters extrusion width = 0.45mm
; perimeters extrusion width = 0.45mm
; infill extrusion width = 0.45mm
; solid infill extrusion width = 0.45mm
; top infill extrusion width = 0.40mm
; first layer extrusion width = 0.42mm

M73 P0 R308
M73 Q0 S310
M201 X1000 Y1000 Z1000 E5000 ; sets maximum accelerations, mm/sec^2
M203 X200 Y200 Z12 E120 ; sets maximum feedrates, mm/sec
M204 P1250 R1250 T1250 ; sets acceleration (P, T) and retract acceleration (R), mm/sec^2
M205 X8.00 Y8.00 Z0.40 E4.50 ; sets the jerk limits, mm/sec
M205 S0 T0 ; sets the minimum extruding and travel feed rate, mm/sec
M107
M862.3 P "MK3SMMU2S" ; printer model check
M862.1 P0.4 ; nozzle diameter check
M115 U3.8.1 ; tell printer latest fw version
G90 ; use absolute coordinates
M83 ; extruder relative mode
M104 S215 ; set extruder temp
M140 S60 ; set bed temp
Tx
M190 S60 ; wait for bed temp
M109 S215 ; wait for extruder temp
G28 W ; home all without mesh bed level
G80 ; mesh bed leveling

;go outside print area
G1 Y-3.0 F1000.0
G1 Z0.4 F1000.0
; select extruder
Tc
; purge line
G1 X55.0 F2000.0
G1 Z0.3 F1000.0
G92 E0.0
G1 X240.0 E25.0 F2200.0
M73 Q0 S310
M73 P0 R308
G1 Y-2.0 F1000.0
G1 X55.0 E25 F1400.0
G1 Z0.20 F1000.0
G1 X5.0 E4.0 F1000.0

M221 S95
G92 E0.0
G21 ; set units to millimeters
G90 ; use absolute coordinates
M83 ; use relative distances for extrusion
M900 K0.06 ; Filament gcode LA 1.5
M900 K30 ; Filament gcode LA 1.0
;BEFORE_LAYER_CHANGE
G92 E0.0
;0.2


G1 E-0.80000 F2100.00000
G1 Z0.600 F10800.000
;AFTER_LAYER_CHANGE
;0.2
G1 X72.883 Y68.610
G1 Z0.200
G1 E0.80000 F2100.00000
M204 S1000
G1 F1200.000
G1 X73.424 Y68.270 E0.02000
G1 X73.896 Y68.113 E0.01562
G1 X74.395 Y68.057 E0.01574
G1 X110.411 Y68.057 E1.12927
G1 X206.655 Y77.054 E3.03082
G1 X207.154 Y77.157 E0.01597
G1 X207.617 Y77.361 E0.01585
G1 X208.100 Y77.730 E0.01906
G1 X208.476 Y78.212 E0.01917
G1 X208.717 Y78.774 E0.01917
G1 X208.806 Y79.379 E0.01917
G1 X208.807 Y123.436 E1.38139
G1 X208.724 Y124.042 E0.01917
G1 X208.490 Y124.607 E0.01917
G1 X195.250 Y140.949 E0.65945
G1 X194.766 Y141.387 E0.02048
G1 X194.177 Y141.678 E0.02060
G1 X193.430 Y141.798 E0.02372
G1 X157.422 Y141.798 E1.12899
G1 X156.772 Y141.705 E0.02060
G1 X156.121 Y141.405 E0.02249
G1 X73.088 Y86.412 E3.12265
G1 X72.598 Y85.975 E0.02060
G1 X72.243 Y85.418 E0.02071
G1 X72.087 Y84.952 E0.01538
G1 X72.030 Y84.465 E0.01538
G1 X72.036 Y70.270 E0.44507
G1 X72.165 Y69.645 E0.02000
G1 X72.455 Y69.077 E0.02000
G1 X72.843 Y68.654 E0.01800
G1 F8640.000
G1 X73.424 Y68.270 E-0.16071
G1 X73.896 Y68.113 E-0.11500
G1 X74.395 Y68.057 E-0.11588
G1 X75.990 Y68.057 E-0.36840
G1 E-0.04000 F2100.00000
G1 Z0.800 F10800.000
G1 X75.194 Y71.221
G1 Z0.200
G1 E0.80000 F2100.00000
G1 F1200.000
G1 X109.620 Y71.221 E1.07940
G1 X109.620 Y74.647 E0.10741
G1 X79.620 Y74.647 E0.94063
G1 X79.620 Y81.221 E0.20613
G1 X162.620 Y81.221 E2.60241
G1 X162.620 Y113.647 E1.01669
G1 X158.194 Y113.647 E0.13877
G1 X158.194 Y88.108 E0.80076
G1 X153.733 Y83.647 E0.19781
G1 X75.194 Y83.647 E2.46253
G1 X75.194 Y71.281 E0.38772
G1 F8640.000
G1 X78.486 Y71.275 E-0.76000
G1 E-0.04000 F2100.00000
G1 Z0.800 F10800.000
G1 X79.997 Y75.024
G1 Z0.200
G1 E0.80000 F2100.00000
G1 F1200.000
G1 X79.997 Y80.844 E0.18248
G1 X162.997 Y80.844 E2.60241
G1 X162.997 Y114.024 E1.04034
G1 X157.817 Y114.024 E0.16242
G1 X157.817 Y88.264 E0.80768
G1 X153.577 Y84.024 E0.18802
G1 X74.817 Y84.024 E2.46946
G1 X74.817 Y70.844 E0.41325
G1 X109.997 Y70.844 E1.10304
M73 Q0 S309
M73 P0 R307
G1 X109.997 Y75.024 E0.13106
G1 X80.057 Y75.024 E0.93875
G1 X79.598 Y75.042 F10800.000
G1 F8640.000
G1 X80.023 Y78.315 E-0.76000
G1 E-0.04000 F2100.00000
G1 Z0.800 F10800.000
G1 X80.895 Y83.534
G1 Z0.200
G1 E0.80000 F2100.00000
G1 F1200.000
G1 X75.477 Y78.116 E0.24138
G1 X75.477 Y78.651 E0.01688
G1 X80.190 Y83.364 E0.20995
G1 X79.654 Y83.364 E0.01688
G1 X75.477 Y79.187 E0.18608
G1 X75.477 Y79.723 E0.01688
G1 X79.118 Y83.364 E0.16222
G1 X78.583 Y83.364 E0.01688
G1 X75.477 Y80.259 E0.13835
G1 X75.477 Y80.794 E0.01688
G1 X78.047 Y83.364 E0.11448
G1 X77.511 Y83.364 E0.01688
G1 X75.477 Y81.330 E0.09061
G1 X75.477 Y81.866 E0.01688
G1 X76.975 Y83.364 E0.06674
G1 X76.440 Y83.364 E0.01688
G1 X75.477 Y82.402 E0.04287
G1 X75.477 Y82.938 E0.01688
G1 X76.073 Y83.534 E0.02656
G1 F8640.000
G1 X75.477 Y82.938 E-0.19469
G1 X75.477 Y82.402 E-0.12371
G1 X76.440 Y83.364 E-0.31424
G1 X76.975 Y83.364 E-0.12371
G1 X76.964 Y83.353 E-0.00364
G1 E-0.04000 F2100.00000
G1 Z0.800 F10800.000
G1 X108.879 Y71.334
G1 Z0.200
G1 E0.80000 F2100.00000
G1 F1200.000
G1 X109.337 Y71.793 E0.02042
G1 X109.337 Y72.328 E0.01688
G1 X108.513 Y71.504 E0.03673
G1 X107.977 Y71.504 E0.01688
G1 X109.337 Y72.864 E0.06060
G1 X109.337 Y73.400 E0.01688
G1 X107.441 Y71.504 E0.08447
G1 X106.906 Y71.504 E0.01688
G1 X109.337 Y73.936 E0.10834
G1 X109.337 Y74.364 E0.01349
G1 X109.230 Y74.364 E0.00338
G1 X106.370 Y71.504 E0.12742
G1 X105.834 Y71.504 E0.01688
G1 X108.694 Y74.364 E0.12742
G1 X108.158 Y74.364 E0.01688
G1 X105.298 Y71.504 E0.12742
G1 X104.762 Y71.504 E0.01688
G1 X107.623 Y74.364 E0.12742
G1 X107.087 Y74.364 E0.01688
G1 X104.227 Y71.504 E0.12742
G1 X103.691 Y71.504 E0.01688
G1 X106.551 Y74.364 E0.12742
G1 X106.015 Y74.364 E0.01688
G1 X103.155 Y71.504 E0.12742
G1 X102.619 Y71.504 E0.01688
G1 X105.480 Y74.364 E0.12742
G1 X104.944 Y74.364 E0.01688
G1 X102.084 Y71.504 E0.12742
G1 X101.548 Y71.504 E0.01688
G1 X104.408 Y74.364 E0.12742
G1 X103.872 Y74.364 E0.01688
G1 X101.012 Y71.504 E0.12742
G1 X100.476 Y71.504 E0.01688
G1 X103.337 Y74.364 E0.12742
G1 X102.801 Y74.364 E0.01688
G1 X99.940 Y71.504 E0.12742
G1 X99.405 Y71.504 E0.01688
G1 X102.265 Y74.364 E0.12742
G1 X101.729 Y74.364 E0.01688
G1 X98.869 Y71.504 E0.12742
G1 X98.333 Y71.504 E0.01688
G1 X101.193 Y74.364 E0.12742
G1 X100.658 Y74.364 E0.01688
G1 X97.797 Y71.504 E0.12742
G1 X97.262 Y71.504 E0.01688
G1 X100.122 Y74.364 E0.12742
G1 X99.586 Y74.364 E0.01688
G1 X96.726 Y71.504 E0.12742
G1 X96.190 Y71.504 E0.01688
G1 X99.050 Y74.364 E0.12742
G1 X98.515 Y74.364 E0.01688
G1 X95.654 Y71.504 E0.12742
G1 X95.118 Y71.504 E0.01688
G1 X97.979 Y74.364 E0.12742
G1 X97.443 Y74.364 E0.01688
G1 X94.583 Y71.504 E0.12742
G1 X94.047 Y71.504 E0.01688
G1 X96.907 Y74.364 E0.12742
G1 X96.371 Y74.364 E0.01688
G1 X93.511 Y71.504 E0.12742
G1 X92.975 Y71.504 E0.01688
G1 X95.836 Y74.364 E0.12742
G1 X95.300 Y74.364 E0.01688
G1 X92.440 Y71.504 E0.12742
G1 X91.904 Y71.504 E0.01688
G1 X94.764 Y74.364 E0.12742
G1 X94.228 Y74.364 E0.01688
G1 X91.368 Y71.504 E0.12742
G1 X90.832 Y71.504 E0.01688
G1 X93.693 Y74.364 E0.12742
G1 X93.157 Y74.364 E0.01688
G1 X90.297 Y71.504 E0.12742
G1 X89.761 Y71.504 E0.01688
G1 X92.621 Y74.364 E0.12742
G1 X92.085 Y74.364 E0.01688
G1 X89.225 Y71.504 E0.12742
G1 X88.689 Y71.504 E0.01688
G1 X91.549 Y74.364 E0.12742
G1 X91.014 Y74.364 E0.01688
G1 X88.153 Y71.504 E0.12742
G1 X87.618 Y71.504 E0.01688
G1 X90.478 Y74.364 E0.12742
G1 X89.942 Y74.364 E0.01688
G1 X87.082 Y71.504 E0.12742
G1 X86.546 Y71.504 E0.01688
G1 X89.406 Y74.364 E0.12742
G1 X88.871 Y74.364 E0.01688
G1 X86.010 Y71.504 E0.12742
G1 X85.475 Y71.504 E0.01688
G1 X88.335 Y74.364 E0.12742
G1 X87.799 Y74.364 E0.01688
G1 X84.939 Y71.504 E0.12742
G1 X84.403 Y71.504 E0.01688
G1 X87.263 Y74.364 E0.12742
G1 X86.727 Y74.364 E0.01688
G1 X83.867 Y71.504 E0.12742
G1 X83.331 Y71.504 E0.01688
G1 X86.192 Y74.364 E0.12742
G1 X85.656 Y74.364 E0.01688
G1 X82.796 Y71.504 E0.12742
G1 X82.260 Y71.504 E0.01688
G1 X85.120 Y74.364 E0.12742
G1 X84.584 Y74.364 E0.01688
G1 X81.724 Y71.504 E0.12742
G1 X81.188 Y71.504 E0.01688
G1 X84.049 Y74.364 E0.12742
G1 X83.513 Y74.364 E0.01688
G1 X80.653 Y71.504 E0.12742
G1 X80.117 Y71.504 E0.01688
G1 X82.977 Y74.364 E0.12742
G1 X82.441 Y74.364 E0.01688
G1 X79.581 Y71.504 E0.12742
G1 X79.045 Y71.504 E0.01688
G1 X81.905 Y74.364 E0.12742
G1 X81.370 Y74.364 E0.01688
G1 X78.509 Y71.504 E0.12742
G1 X77.974 Y71.504 E0.01688
G1 X80.834 Y74.364 E0.12742
G1 X80.298 Y74.364 E0.01688
G1 X77.438 Y71.504 E0.12742
G1 X76.902 Y71.504 E0.01688
G1 X79.762 Y74.364 E0.12742
G1 X79.337 Y74.364 E0.01339
G1 X79.337 Y74.475 E0.00349
G1 X76.366 Y71.504 E0.13236
G1 X75.831 Y71.504 E0.01688
G1 X79.337 Y75.011 E0.15623
G1 X79.337 Y75.546 E0.01688
G1 X75.477 Y71.686 E0.17197
G1 X75.477 Y72.222 E0.01688
G1 X79.337 Y76.082 E0.17197
G1 X79.337 Y76.618 E0.01688
G1 X75.477 Y72.758 E0.17197
G1 X75.477 Y73.294 E0.01688
G1 X79.337 Y77.154 E0.17197
G1 X79.337 Y77.690 E0.01688
G1 X75.477 Y73.829 E0.17197
G1 X75.477 Y74.365 E0.01688
G1 X79.337 Y78.225 E0.17197
G1 X79.337 Y78.761 E0.01688
G1 X75.477 Y74.901 E0.17197
G1 X75.477 Y75.437 E0.01688
G1 X79.337 Y79.297 E0.17197
G1 X79.337 Y79.833 E0.01688
G1 X75.477 Y75.972 E0.17197
G1 X75.477 Y76.508 E0.01688
G1 X79.337 Y80.368 E0.17197
G1 X79.337 Y80.904 E0.01688
G1 X75.477 Y77.044 E0.17197
G1 X75.477 Y77.580 E0.01688
G1 X81.261 Y83.364 E0.25769
G1 X81.797 Y83.364 E0.01688
G1 X79.937 Y81.504 E0.08287
G1 X80.473 Y81.504 E0.01688
G1 X82.333 Y83.364 E0.08287
G1 X82.869 Y83.364 E0.01688
G1 X81.009 Y81.504 E0.08287
G1 X81.544 Y81.504 E0.01688
G1 X83.405 Y83.364 E0.08287
G1 X83.940 Y83.364 E0.01688
G1 X82.080 Y81.504 E0.08287
G1 X82.616 Y81.504 E0.01688
G1 X84.476 Y83.364 E0.08287
G1 X85.012 Y83.364 E0.01688
G1 X83.152 Y81.504 E0.08287
G1 X83.687 Y81.504 E0.01688
G1 X85.548 Y83.364 E0.08287
G1 X86.083 Y83.364 E0.01688
G1 X84.223 Y81.504 E0.08287
G1 X84.759 Y81.504 E0.01688
G1 X86.619 Y83.364 E0.08287
G1 X87.155 Y83.364 E0.01688
G1 X85.295 Y81.504 E0.08287
G1 X85.831 Y81.504 E0.01688
G1 X87.691 Y83.364 E0.08287
G1 X88.227 Y83.364 E0.01688
G1 X86.366 Y81.504 E0.08287
G1 X86.902 Y81.504 E0.01688
G1 X88.762 Y83.364 E0.08287
G1 X89.298 Y83.364 E0.01688
G1 X87.438 Y81.504 E0.08287
G1 X87.974 Y81.504 E0.01688
G1 X89.834 Y83.364 E0.08287
G1 X90.370 Y83.364 E0.01688
G1 X88.509 Y81.504 E0.08287
G1 X89.045 Y81.504 E0.01688
G1 X90.905 Y83.364 E0.08287
G1 X91.441 Y83.364 E0.01688
G1 X89.581 Y81.504 E0.08287
G1 X90.117 Y81.504 E0.01688
G1 X91.977 Y83.364 E0.08287
G1 X92.513 Y83.364 E0.01688
G1 X90.653 Y81.504 E0.08287
G1 X91.188 Y81.504 E0.01688
G1 X93.049 Y83.364 E0.08287
G1 X93.584 Y83.364 E0.01688
G1 X91.724 Y81.504 E0.08287
G1 X92.260 Y81.504 E0.01688
G1 X94.120 Y83.364 E0.08287
G1 X94.656 Y83.364 E0.01688
G1 X92.796 Y81.504 E0.08287
G1 X93.331 Y81.504 E0.01688
G1 X95.192 Y83.364 E0.08287
G1 X95.727 Y83.364 E0.01688
G1 X93.867 Y81.504 E0.08287
G1 X94.403 Y81.504 E0.01688
G1 X96.263 Y83.364 E0.08287
G1 X96.799 Y83.364 E0.01688
G1 X94.939 Y81.504 E0.08287
G1 X95.475 Y81.504 E0.01688
G1 X97.335 Y83.364 E0.08287
G1 X97.871 Y83.364 E0.01688
G1 X96.010 Y81.504 E0.08287
G1 X96.546 Y81.504 E0.01688
G1 X98.406 Y83.364 E0.08287
G1 X98.942 Y83.364 E0.01688
G1 X97.082 Y81.504 E0.08287
G1 X97.618 Y81.504 E0.01688
G1 X99.478 Y83.364 E0.08287
G1 X100.014 Y83.364 E0.01688
G1 X98.153 Y81.504 E0.08287
G1 X98.689 Y81.504 E0.01688
G1 X100.549 Y83.364 E0.08287
G1 X101.085 Y83.364 E0.01688
G1 X99.225 Y81.504 E0.08287
G1 X99.761 Y81.504 E0.01688
G1 X101.621 Y83.364 E0.08287
G1 X102.157 Y83.364 E0.01688
G1 X100.297 Y81.504 E0.08287
G1 X100.832 Y81.504 E0.01688
G1 X102.693 Y83.364 E0.08287
G1 X103.228 Y83.364 E0.01688
G1 X101.368 Y81.504 E0.08287
G1 X101.904 Y81.504 E0.01688
G1 X103.764 Y83.364 E0.08287
G1 X104.300 Y83.364 E0.01688
G1 X102.440 Y81.504 E0.08287
G1 X102.975 Y81.504 E0.01688
G1 X104.836 Y83.364 E0.08287
G1 X105.371 Y83.364 E0.01688
G1 X103.511 Y81.504 E0.08287
G1 X104.047 Y81.504 E0.01688
G1 X105.907 Y83.364 E0.08287
G1 X106.443 Y83.364 E0.01688
G1 X104.583 Y81.504 E0.08287
G1 X105.118 Y81.504 E0.01688
G1 X106.979 Y83.364 E0.08287
G1 X107.515 Y83.364 E0.01688
G1 X105.654 Y81.504 E0.08287
G1 X106.190 Y81.504 E0.01688
G1 X108.050 Y83.364 E0.08287
G1 X108.586 Y83.364 E0.01688
G1 X106.726 Y81.504 E0.08287
G1 X107.262 Y81.504 E0.01688
G1 X109.122 Y83.364 E0.08287
G1 X109.658 Y83.364 E0.01688
G1 X107.797 Y81.504 E0.08287
G1 X108.333 Y81.504 E0.01688
G1 X110.193 Y83.364 E0.08287
G1 X110.729 Y83.364 E0.01688
G1 X108.869 Y81.504 E0.08287
G1 X109.405 Y81.504 E0.01688
G1 X111.265 Y83.364 E0.08287
G1 X111.801 Y83.364 E0.01688
G1 X109.940 Y81.504 E0.08287
G1 X110.476 Y81.504 E0.01688
G1 X112.337 Y83.364 E0.08287
G1 X112.872 Y83.364 E0.01688
G1 X111.012 Y81.504 E0.08287
G1 X111.548 Y81.504 E0.01688
G1 X113.408 Y83.364 E0.08287
G1 X113.944 Y83.364 E0.01688
G1 X112.084 Y81.504 E0.08287
G1 X112.619 Y81.504 E0.01688
G1 X114.480 Y83.364 E0.08287
G1 X115.015 Y83.364 E0.01688
G1 X113.155 Y81.504 E0.08287
G1 X113.691 Y81.504 E0.01688
G1 X115.551 Y83.364 E0.08287
G1 X116.087 Y83.364 E0.01688
G1 X114.227 Y81.504 E0.08287
G1 X114.762 Y81.504 E0.01688
G1 X116.623 Y83.364 E0.08287
G1 X117.158 Y83.364 E0.01688
G1 X115.298 Y81.504 E0.08287
G1 X115.834 Y81.504 E0.01688
G1 X117.694 Y83.364 E0.08287
G1 X118.230 Y83.364 E0.01688
G1 X116.370 Y81.504 E0.08287
G1 X116.906 Y81.504 E0.01688
G1 X118.766 Y83.364 E0.08287
G1 X119.302 Y83.364 E0.01688
G1 X117.441 Y81.504 E0.08287
G1 X117.977 Y81.504 E0.01688
G1 X119.837 Y83.364 E0.08287
G1 X120.373 Y83.364 E0.01688
G1 X118.513 Y81.504 E0.08287
G1 X119.049 Y81.504 E0.01688
G1 X120.909 Y83.364 E0.08287
G1 X121.445 Y83.364 E0.01688
G1 X119.584 Y81.504 E0.08287
G1 X120.120 Y81.504 E0.01688
G1 X121.980 Y83.364 E0.08287
G1 X122.516 Y83.364 E0.01688
G1 X120.656 Y81.504 E0.08287
G1 X121.192 Y81.504 E0.01688
G1 X123.052 Y83.364 E0.08287
G1 X123.588 Y83.364 E0.01688
G1 X121.728 Y81.504 E0.08287
G1 X122.263 Y81.504 E0.01688
G1 X124.124 Y83.364 E0.08287
G1 X124.659 Y83.364 E0.01688
G1 X122.799 Y81.504 E0.08287
G1 X123.335 Y81.504 E0.01688
G1 X125.195 Y83.364 E0.08287
G1 X125.731 Y83.364 E0.01688
G1 X123.871 Y81.504 E0.08287
G1 X124.406 Y81.504 E0.01688
G1 X126.267 Y83.364 E0.08287
G1 X126.802 Y83.364 E0.01688
G1 X124.942 Y81.504 E0.08287
G1 X125.478 Y81.504 E0.01688
G1 X127.338 Y83.364 E0.08287
G1 X127.874 Y83.364 E0.01688
G1 X126.014 Y81.504 E0.08287
G1 X126.550 Y81.504 E0.01688
G1 X128.410 Y83.364 E0.08287
G1 X128.946 Y83.364 E0.01688
G1 X127.085 Y81.504 E0.08287
G1 X127.621 Y81.504 E0.01688
G1 X129.481 Y83.364 E0.08287
G1 X130.017 Y83.364 E0.01688
G1 X128.157 Y81.504 E0.08287
G1 X128.693 Y81.504 E0.01688
G1 X130.553 Y83.364 E0.08287
G1 X131.089 Y83.364 E0.01688
G1 X129.228 Y81.504 E0.08287
G1 X129.764 Y81.504 E0.01688
G1 X131.624 Y83.364 E0.08287
G1 X132.160 Y83.364 E0.01688
G1 X130.300 Y81.504 E0.08287
G1 X130.836 Y81.504 E0.01688
G1 X132.696 Y83.364 E0.08287
G1 X133.232 Y83.364 E0.01688
G1 X131.372 Y81.504 E0.08287
G1 X131.907 Y81.504 E0.01688
G1 X133.768 Y83.364 E0.08287
G1 X134.303 Y83.364 E0.01688
G1 X132.443 Y81.504 E0.08287
G1 X132.979 Y81.504 E0.01688
G1 X134.839 Y83.364 E0.08287
G1 X135.375 Y83.364 E0.01688
G1 X133.515 Y81.504 E0.08287
G1 X134.050 Y81.504 E0.01688
G1 X135.911 Y83.364 E0.08287
G1 X136.446 Y83.364 E0.01688
G1 X134.586 Y81.504 E0.08287
G1 X135.122 Y81.504 E0.01688
G1 X136.982 Y83.364 E0.08287
G1 X137.518 Y83.364 E0.01688
G1 X135.658 Y81.504 E0.08287
G1 X136.194 Y81.504 E0.01688
G1 X138.054 Y83.364 E0.08287
G1 X138.590 Y83.364 E0.01688
G1 X136.729 Y81.504 E0.08287
G1 X137.265 Y81.504 E0.01688
G1 X139.125 Y83.364 E0.08287
G1 X139.661 Y83.364 E0.01688
G1 X137.801 Y81.504 E0.08287
G1 X138.337 Y81.504 E0.01688
G1 X140.197 Y83.364 E0.08287
G1 X140.733 Y83.364 E0.01688
G1 X138.872 Y81.504 E0.08287
G1 X139.408 Y81.504 E0.01688
G1 X141.268 Y83.364 E0.08287
G1 X141.804 Y83.364 E0.01688
G1 X139.944 Y81.504 E0.08287
G1 X140.480 Y81.504 E0.01688
G1 X142.340 Y83.364 E0.08287
G1 X142.876 Y83.364 E0.01688
G1 X141.016 Y81.504 E0.08287
G1 X141.551 Y81.504 E0.01688
G1 X143.412 Y83.364 E0.08287
G1 X143.947 Y83.364 E0.01688
G1 X142.087 Y81.504 E0.08287
G1 X142.623 Y81.504 E0.01688
G1 X144.483 Y83.364 E0.08287
G1 X145.019 Y83.364 E0.01688
G1 X143.159 Y81.504 E0.08287
G1 X143.694 Y81.504 E0.01688
G1 X145.555 Y83.364 E0.08287
G1 X146.090 Y83.364 E0.01688
G1 X144.230 Y81.504 E0.08287
G1 X144.766 Y81.504 E0.01688
G1 X146.626 Y83.364 E0.08287
G1 X147.162 Y83.364 E0.01688
G1 X145.302 Y81.504 E0.08287
G1 X145.837 Y81.504 E0.01688
G1 X147.698 Y83.364 E0.08287
