; generated by PrusaSlicer 2.2.0+ on 2020-04-15 at 23:56:43 UTC

; 

; external perimeters extrusion width = 0.45mm
; perimeters extrusion width = 0.45mm
; infill extrusion width = 0.45mm
; solid infill extrusion width = 0.45mm
; top infill extrusion width = 0.40mm
; first layer extrusion width = 0.42mm

M73 P0 R186
M73 Q0 S190
M201 X1000 Y1000 Z1000 E5000 ; sets maximum accelerations, mm/sec^2
M203 X200 Y200 Z12 E120 ; sets maximum feedrates, mm/sec
M204 P1250 R1250 T1250 ; sets acceleration (P, T) and retract acceleration (R), mm/sec^2
M205 X8.00 Y8.00 Z0.40 E1.50 ; sets the jerk limits, mm/sec
M205 S0 T0 ; sets the minimum extruding and travel feed rate, mm/sec
M107
M862.3 P "MK3SMMU2S" ; printer model check
M862.1 P0.4 ; nozzle diameter check
M115 U3.8.1 ; tell printer latest fw version
G90 ; use absolute coordinates
M83 ; extruder relative mode
M104 S215 ; set extruder temp
M140 S60 ; set bed temp
Tx
M190 S60 ; wait for bed temp
M109 S215 ; wait for extruder temp
G28 W ; home all without mesh bed level
G80 ; mesh bed leveling

;go outside print area
G1 Y-3.0 F1000.0
G1 Z0.4 F1000.0
; select extruder
Tc
; purge line
G1 X55.0 F2000.0
G1 Z0.3 F1000.0
G92 E0.0
G1 X240.0 E25.0 F2200.0
M73 Q0 S190
M73 P0 R186
G1 Y-2.0 F1000.0
G1 X55.0 E25 F1400.0
G1 Z0.20 F1000.0
G1 X5.0 E4.0 F1000.0

M221 S95
G92 E0.0
G21 ; set units to millimeters
G90 ; use absolute coordinates
M83 ; use relative distances for extrusion
M900 K30 ; Filament gcode
;BEFORE_LAYER_CHANGE
G92 E0.0
;0.2


G1 E-0.80000 F2100.00000
G1 Z0.600 F10800.000
;AFTER_LAYER_CHANGE
;0.2
G1 X70.630 Y79.215
G1 Z0.200
G1 E0.80000 F2100.00000
M204 S1000
G1 F1200.000
G1 X71.175 Y78.855 E0.02048
G1 X71.670 Y78.683 E0.01645
G1 X72.195 Y78.623 E0.01657
G1 X177.804 Y78.623 E3.31129
G1 X178.702 Y78.801 E0.02872
G1 X179.464 Y79.303 E0.02860
G1 X179.982 Y80.058 E0.02872
G1 X180.177 Y80.953 E0.02872
G1 X180.176 Y129.065 E1.50850
G1 X180.070 Y129.705 E0.02036
G1 X179.794 Y130.293 E0.02036
G1 X179.367 Y130.787 E0.02048
G1 X178.825 Y131.145 E0.02036
G1 X178.330 Y131.317 E0.01645
G1 X177.805 Y131.377 E0.01657
G1 X72.173 Y131.377 E3.31200
G1 X71.520 Y131.278 E0.02071
G1 X70.920 Y131.003 E0.02071
G1 X70.420 Y130.576 E0.02060
G1 X70.055 Y130.025 E0.02071
G1 X69.884 Y129.534 E0.01633
G1 X69.823 Y129.013 E0.01645
G1 X69.824 Y80.947 E1.50707
G1 X69.928 Y80.302 E0.02048
G1 X70.203 Y79.710 E0.02048
G1 X70.591 Y79.261 E0.01860
G1 F8640.000
G1 X71.175 Y78.855 E-0.16417
G1 X71.670 Y78.683 E-0.12113
G1 X72.195 Y78.623 E-0.12200
G1 X73.723 Y78.623 E-0.35270
G1 E-0.04000 F2100.00000
G1 Z0.800 F10800.000
G1 X72.987 Y81.787
G1 Z0.200
G1 E0.80000 F2100.00000
G1 F1200.000
G1 X177.013 Y81.787 E3.26166
G1 X177.013 Y128.213 E1.45565
G1 X72.987 Y128.213 E3.26166
G1 X72.987 Y81.847 E1.45377
G1 X72.610 Y81.410 F10800.000
G1 F1200.000
G1 X177.390 Y81.410 E3.28530
G1 X177.390 Y128.590 E1.47930
G1 X72.610 Y128.590 E3.28530
G1 X72.610 Y81.470 E1.47741
G1 X73.006 Y81.466 F10800.000
G1 F8640.000
G1 X75.901 Y81.468 E-0.76000
G1 E-0.04000 F2100.00000
G1 Z0.800 F10800.000
G1 X176.900 Y82.664
G1 Z0.200
G1 E0.80000 F2100.00000
M73 Q0 S189
G1 F1200.000
G1 X176.306 Y82.070 E0.02637
G1 X175.772 Y82.070 E0.01677
G1 X176.730 Y83.028 E0.04255
G1 X176.730 Y83.562 E0.01677
M73 P0 R185
G1 X175.238 Y82.070 E0.06627
G1 X174.704 Y82.070 E0.01677
G1 X176.730 Y84.096 E0.08999
G1 X176.730 Y84.630 E0.01677
G1 X174.170 Y82.070 E0.11370
G1 X173.636 Y82.070 E0.01677
G1 X176.730 Y85.164 E0.13742
G1 X176.730 Y85.698 E0.01677
G1 X173.102 Y82.070 E0.16114
G1 X172.568 Y82.070 E0.01677
G1 X176.730 Y86.232 E0.18485
G1 X176.730 Y86.767 E0.01677
G1 X172.033 Y82.070 E0.20857
G1 X171.499 Y82.070 E0.01677
G1 X176.730 Y87.301 E0.23229
G1 X176.730 Y87.835 E0.01677
G1 X170.965 Y82.070 E0.25601
G1 X170.431 Y82.070 E0.01677
G1 X176.730 Y88.369 E0.27972
G1 X176.730 Y88.903 E0.01677
G1 X169.897 Y82.070 E0.30344
G1 X169.363 Y82.070 E0.01677
G1 X176.730 Y89.437 E0.32716
G1 X176.730 Y89.971 E0.01677
G1 X168.829 Y82.070 E0.35087
G1 X168.295 Y82.070 E0.01677
G1 X176.730 Y90.505 E0.37459
G1 X176.730 Y91.039 E0.01677
G1 X167.761 Y82.070 E0.39831
G1 X167.227 Y82.070 E0.01677
G1 X176.730 Y91.573 E0.42203
G1 X176.730 Y92.107 E0.01677
G1 X166.693 Y82.070 E0.44574
G1 X166.159 Y82.070 E0.01677
G1 X176.730 Y92.641 E0.46946
G1 X176.730 Y93.175 E0.01677
G1 X165.625 Y82.070 E0.49318
G1 X165.091 Y82.070 E0.01677
G1 X176.730 Y93.709 E0.51690
G1 X176.730 Y94.244 E0.01677
G1 X164.556 Y82.070 E0.54061
G1 X164.022 Y82.070 E0.01677
G1 X176.730 Y94.778 E0.56433
G1 X176.730 Y95.312 E0.01677
G1 X163.488 Y82.070 E0.58805
G1 X162.954 Y82.070 E0.01677
G1 X176.730 Y95.846 E0.61176
G1 X176.730 Y96.380 E0.01677
G1 X162.420 Y82.070 E0.63548
G1 X161.886 Y82.070 E0.01677
G1 X176.730 Y96.914 E0.65920
G1 X176.730 Y97.448 E0.01677
G1 X161.352 Y82.070 E0.68292
G1 X160.818 Y82.070 E0.01677
G1 X176.730 Y97.982 E0.70663
G1 X176.730 Y98.516 E0.01677
G1 X160.284 Y82.070 E0.73035
G1 X159.750 Y82.070 E0.01677
G1 X176.730 Y99.050 E0.75407
G1 X176.730 Y99.584 E0.01677
G1 X159.216 Y82.070 E0.77778
G1 X158.682 Y82.070 E0.01677
G1 X176.730 Y100.118 E0.80150
G1 X176.730 Y100.652 E0.01677
G1 X158.148 Y82.070 E0.82522
G1 X157.613 Y82.070 E0.01677
G1 X176.730 Y101.187 E0.84894
G1 X176.730 Y101.721 E0.01677
G1 X157.079 Y82.070 E0.87265
G1 X156.545 Y82.070 E0.01677
G1 X176.730 Y102.255 E0.89637
G1 X176.730 Y102.789 E0.01677
G1 X156.011 Y82.070 E0.92009
G1 X155.477 Y82.070 E0.01677
G1 X176.730 Y103.323 E0.94381
G1 X176.730 Y103.857 E0.01677
G1 X154.943 Y82.070 E0.96752
G1 X154.409 Y82.070 E0.01677
G1 X176.730 Y104.391 E0.99124
G1 X176.730 Y104.925 E0.01677
G1 X153.875 Y82.070 E1.01496
G1 X153.341 Y82.070 E0.01677
G1 X176.730 Y105.459 E1.03867
G1 X176.730 Y105.993 E0.01677
G1 X152.807 Y82.070 E1.06239
G1 X152.273 Y82.070 E0.01677
G1 X176.730 Y106.527 E1.08611
G1 X176.730 Y107.061 E0.01677
G1 X151.739 Y82.070 E1.10983
G1 X151.205 Y82.070 E0.01677
G1 X176.730 Y107.595 E1.13354
G1 X176.730 Y108.129 E0.01677
G1 X150.671 Y82.070 E1.15726
G1 X150.136 Y82.070 E0.01677
G1 X176.730 Y108.664 E1.18098
G1 X176.730 Y109.198 E0.01677
G1 X149.602 Y82.070 E1.20469
G1 X149.068 Y82.070 E0.01677
G1 X176.730 Y109.732 E1.22841
G1 X176.730 Y110.266 E0.01677
G1 X148.534 Y82.070 E1.25213
G1 X148.000 Y82.070 E0.01677
G1 X176.730 Y110.800 E1.27585
G1 X176.730 Y111.334 E0.01677
G1 X147.466 Y82.070 E1.29956
G1 X146.932 Y82.070 E0.01677
G1 X176.730 Y111.868 E1.32328
M73 Q1 S188
M73 P1 R184
G1 X176.730 Y112.402 E0.01677
G1 X146.398 Y82.070 E1.34700
G1 X145.864 Y82.070 E0.01677
G1 X176.730 Y112.936 E1.37072
G1 X176.730 Y113.470 E0.01677
G1 X145.330 Y82.070 E1.39443
G1 X144.796 Y82.070 E0.01677
G1 X176.730 Y114.004 E1.41815
G1 X176.730 Y114.538 E0.01677
G1 X144.262 Y82.070 E1.44187
G1 X143.728 Y82.070 E0.01677
G1 X176.730 Y115.072 E1.46558
G1 X176.730 Y115.606 E0.01677
G1 X143.194 Y82.070 E1.48930
G1 X142.659 Y82.070 E0.01677
G1 X176.730 Y116.141 E1.51302
G1 X176.730 Y116.675 E0.01677
G1 X142.125 Y82.070 E1.53674
G1 X141.591 Y82.070 E0.01677
G1 X176.730 Y117.209 E1.56045
G1 X176.730 Y117.743 E0.01677
G1 X141.057 Y82.070 E1.58417
G1 X140.523 Y82.070 E0.01677
G1 X176.730 Y118.277 E1.60789
G1 X176.730 Y118.811 E0.01677
G1 X139.989 Y82.070 E1.63160
G1 X139.455 Y82.070 E0.01677
G1 X176.730 Y119.345 E1.65532
G1 X176.730 Y119.879 E0.01677
G1 X138.921 Y82.070 E1.67904
G1 X138.387 Y82.070 E0.01677
G1 X176.730 Y120.413 E1.70276
G1 X176.730 Y120.947 E0.01677
G1 X137.853 Y82.070 E1.72647
G1 X137.319 Y82.070 E0.01677
G1 X176.730 Y121.481 E1.75019
G1 X176.730 Y122.015 E0.01677
G1 X136.785 Y82.070 E1.77391
G1 X136.251 Y82.070 E0.01677
G1 X176.730 Y122.549 E1.79763
G1 X176.730 Y123.083 E0.01677
G1 X135.717 Y82.070 E1.82134
G1 X135.182 Y82.070 E0.01677
G1 X176.730 Y123.618 E1.84506
G1 X176.730 Y124.152 E0.01677
G1 X134.648 Y82.070 E1.86878
G1 X134.114 Y82.070 E0.01677
G1 X176.730 Y124.686 E1.89249
M73 Q1 S187
M73 P1 R183
G1 X176.730 Y125.220 E0.01677
G1 X133.580 Y82.070 E1.91621
G1 X133.046 Y82.070 E0.01677
G1 X176.730 Y125.754 E1.93993
G1 X176.730 Y126.288 E0.01677
G1 X132.512 Y82.070 E1.96365
G1 X131.978 Y82.070 E0.01677
G1 X176.730 Y126.822 E1.98736
G1 X176.730 Y127.356 E0.01677
G1 X131.444 Y82.070 E2.01108
G1 X130.910 Y82.070 E0.01677
G1 X176.730 Y127.890 E2.03480
G1 X176.730 Y127.930 E0.00126
G1 X176.236 Y127.930 E0.01551
G1 X130.376 Y82.070 E2.03657
G1 X129.842 Y82.070 E0.01677
G1 X175.702 Y127.930 E2.03657
G1 X175.168 Y127.930 E0.01677
G1 X129.308 Y82.070 E2.03657
G1 X128.774 Y82.070 E0.01677
G1 X174.634 Y127.930 E2.03657
G1 X174.100 Y127.930 E0.01677
G1 X128.240 Y82.070 E2.03657
G1 X127.705 Y82.070 E0.01677
G1 X173.566 Y127.930 E2.03657
G1 X173.032 Y127.930 E0.01677
G1 X127.171 Y82.070 E2.03657
G1 X126.637 Y82.070 E0.01677
G1 X172.498 Y127.930 E2.03657
G1 X171.963 Y127.930 E0.01677
G1 X126.103 Y82.070 E2.03657
G1 X125.569 Y82.070 E0.01677
G1 X171.429 Y127.930 E2.03657
G1 X170.895 Y127.930 E0.01677
G1 X125.035 Y82.070 E2.03657
G1 X124.501 Y82.070 E0.01677
G1 X170.361 Y127.930 E2.03657
G1 X169.827 Y127.930 E0.01677
G1 X123.967 Y82.070 E2.03657
M73 Q2 S186
M73 P2 R182
G1 X123.433 Y82.070 E0.01677
G1 X169.293 Y127.930 E2.03657
G1 X168.759 Y127.930 E0.01677
G1 X122.899 Y82.070 E2.03657
G1 X122.365 Y82.070 E0.01677
G1 X168.225 Y127.930 E2.03657
G1 X167.691 Y127.930 E0.01677
G1 X121.831 Y82.070 E2.03657
G1 X121.297 Y82.070 E0.01677
G1 X167.157 Y127.930 E2.03657
G1 X166.623 Y127.930 E0.01677
G1 X120.763 Y82.070 E2.03657
G1 X120.228 Y82.070 E0.01677
G1 X166.089 Y127.930 E2.03657
G1 X165.555 Y127.930 E0.01677
G1 X119.694 Y82.070 E2.03657
G1 X119.160 Y82.070 E0.01677
G1 X165.021 Y127.930 E2.03657
G1 X164.486 Y127.930 E0.01677
G1 X118.626 Y82.070 E2.03657
G1 X118.092 Y82.070 E0.01677
G1 X163.952 Y127.930 E2.03657
G1 X163.418 Y127.930 E0.01677
G1 X117.558 Y82.070 E2.03657
G1 X117.024 Y82.070 E0.01677
G1 X162.884 Y127.930 E2.03657
G1 X162.350 Y127.930 E0.01677
G1 X116.490 Y82.070 E2.03657
G1 X115.956 Y82.070 E0.01677
G1 X161.816 Y127.930 E2.03657
G1 X161.282 Y127.930 E0.01677
G1 X115.422 Y82.070 E2.03657
G1 X114.888 Y82.070 E0.01677
G1 X160.748 Y127.930 E2.03657
G1 X160.214 Y127.930 E0.01677
G1 X114.354 Y82.070 E2.03657
G1 X113.820 Y82.070 E0.01677
G1 X159.680 Y127.930 E2.03657
M73 Q2 S185
M73 P2 R181
G1 X159.146 Y127.930 E0.01677
G1 X113.286 Y82.070 E2.03657
G1 X112.751 Y82.070 E0.01677
G1 X158.612 Y127.930 E2.03657
G1 X158.078 Y127.930 E0.01677
G1 X112.217 Y82.070 E2.03657
G1 X111.683 Y82.070 E0.01677
G1 X157.544 Y127.930 E2.03657
G1 X157.009 Y127.930 E0.01677
G1 X111.149 Y82.070 E2.03657
G1 X110.615 Y82.070 E0.01677
G1 X156.475 Y127.930 E2.03657
G1 X155.941 Y127.930 E0.01677
G1 X110.081 Y82.070 E2.03657
G1 X109.547 Y82.070 E0.01677
G1 X155.407 Y127.930 E2.03657
G1 X154.873 Y127.930 E0.01677
G1 X109.013 Y82.070 E2.03657
G1 X108.479 Y82.070 E0.01677
G1 X154.339 Y127.930 E2.03657
G1 X153.805 Y127.930 E0.01677
G1 X107.945 Y82.070 E2.03657
G1 X107.411 Y82.070 E0.01677
G1 X153.271 Y127.930 E2.03657
G1 X152.737 Y127.930 E0.01677
G1 X106.877 Y82.070 E2.03657
G1 X106.343 Y82.070 E0.01677
G1 X152.203 Y127.930 E2.03657
G1 X151.669 Y127.930 E0.01677
G1 X105.809 Y82.070 E2.03657
G1 X105.274 Y82.070 E0.01677
G1 X151.135 Y127.930 E2.03657
G1 X150.601 Y127.930 E0.01677
G1 X104.740 Y82.070 E2.03657
G1 X104.206 Y82.070 E0.01677
G1 X150.067 Y127.930 E2.03657
G1 X149.532 Y127.930 E0.01677
G1 X103.672 Y82.070 E2.03657
M73 Q3 S184
M73 P3 R180
G1 X103.138 Y82.070 E0.01677
G1 X148.998 Y127.930 E2.03657
G1 X148.464 Y127.930 E0.01677
G1 X102.604 Y82.070 E2.03657
G1 X102.070 Y82.070 E0.01677
G1 X147.930 Y127.930 E2.03657
G1 X147.396 Y127.930 E0.01677
G1 X101.536 Y82.070 E2.03657
G1 X101.002 Y82.070 E0.01677
G1 X146.862 Y127.930 E2.03657
G1 X146.328 Y127.930 E0.01677
G1 X100.468 Y82.070 E2.03657
G1 X99.934 Y82.070 E0.01677
G1 X145.794 Y127.930 E2.03657
G1 X145.260 Y127.930 E0.01677
G1 X99.400 Y82.070 E2.03657
G1 X98.866 Y82.070 E0.01677
G1 X144.726 Y127.930 E2.03657
G1 X144.192 Y127.930 E0.01677
G1 X98.331 Y82.070 E2.03657
G1 X97.797 Y82.070 E0.01677
G1 X143.658 Y127.930 E2.03657
G1 X143.124 Y127.930 E0.01677
G1 X97.263 Y82.070 E2.03657
G1 X96.729 Y82.070 E0.01677
G1 X142.590 Y127.930 E2.03657
G1 X142.055 Y127.930 E0.01677
G1 X96.195 Y82.070 E2.03657
G1 X95.661 Y82.070 E0.01677
G1 X141.521 Y127.930 E2.03657
G1 X140.987 Y127.930 E0.01677
G1 X95.127 Y82.070 E2.03657
G1 X94.593 Y82.070 E0.01677
G1 X140.453 Y127.930 E2.03657
G1 X139.919 Y127.930 E0.01677
G1 X94.059 Y82.070 E2.03657
G1 X93.525 Y82.070 E0.01677
G1 X139.385 Y127.930 E2.03657
M73 Q3 S183
M73 P3 R179
G1 X138.851 Y127.930 E0.01677
G1 X92.991 Y82.070 E2.03657
G1 X92.457 Y82.070 E0.01677
G1 X138.317 Y127.930 E2.03657
G1 X137.783 Y127.930 E0.01677
G1 X91.923 Y82.070 E2.03657
G1 X91.389 Y82.070 E0.01677
G1 X137.249 Y127.930 E2.03657
G1 X136.715 Y127.930 E0.01677
G1 X90.854 Y82.070 E2.03657
G1 X90.320 Y82.070 E0.01677
G1 X136.181 Y127.930 E2.03657
G1 X135.647 Y127.930 E0.01677
G1 X89.786 Y82.070 E2.03657
G1 X89.252 Y82.070 E0.01677
G1 X135.113 Y127.930 E2.03657
G1 X134.578 Y127.930 E0.01677
G1 X88.718 Y82.070 E2.03657
G1 X88.184 Y82.070 E0.01677
G1 X134.044 Y127.930 E2.03657
G1 X133.510 Y127.930 E0.01677
G1 X87.650 Y82.070 E2.03657
G1 X87.116 Y82.070 E0.01677
G1 X132.976 Y127.930 E2.03657
G1 X132.442 Y127.930 E0.01677
G1 X86.582 Y82.070 E2.03657
G1 X86.048 Y82.070 E0.01677
G1 X131.908 Y127.930 E2.03657
G1 X131.374 Y127.930 E0.01677
G1 X85.514 Y82.070 E2.03657
G1 X84.980 Y82.070 E0.01677
G1 X130.840 Y127.930 E2.03657
G1 X130.306 Y127.930 E0.01677
G1 X84.446 Y82.070 E2.03657
G1 X83.912 Y82.070 E0.01677
G1 X129.772 Y127.930 E2.03657
G1 X129.238 Y127.930 E0.01677
G1 X83.377 Y82.070 E2.03657
M73 Q4 S182
M73 P4 R178
G1 X82.843 Y82.070 E0.01677
G1 X128.704 Y127.930 E2.03657
G1 X128.170 Y127.930 E0.01677
G1 X82.309 Y82.070 E2.03657
G1 X81.775 Y82.070 E0.01677
G1 X127.636 Y127.930 E2.03657
G1 X127.101 Y127.930 E0.01677
G1 X81.241 Y82.070 E2.03657
G1 X80.707 Y82.070 E0.01677
G1 X126.567 Y127.930 E2.03657
G1 X126.033 Y127.930 E0.01677
G1 X80.173 Y82.070 E2.03657
G1 X79.639 Y82.070 E0.01677
G1 X125.499 Y127.930 E2.03657
G1 X124.965 Y127.930 E0.01677
G1 X79.105 Y82.070 E2.03657
G1 X78.571 Y82.070 E0.01677
G1 X124.431 Y127.930 E2.03657
G1 X123.897 Y127.930 E0.01677
G1 X78.037 Y82.070 E2.03657
G1 X77.503 Y82.070 E0.01677
G1 X123.363 Y127.930 E2.03657
G1 X122.829 Y127.930 E0.01677
G1 X76.969 Y82.070 E2.03657
G1 X76.435 Y82.070 E0.01677
G1 X122.295 Y127.930 E2.03657
G1 X121.761 Y127.930 E0.01677
G1 X75.900 Y82.070 E2.03657
G1 X75.366 Y82.070 E0.01677
G1 X121.227 Y127.930 E2.03657
G1 X120.693 Y127.930 E0.01677
G1 X74.832 Y82.070 E2.03657
G1 X74.298 Y82.070 E0.01677
G1 X120.158 Y127.930 E2.03657
G1 X119.624 Y127.930 E0.01677
G1 X73.764 Y82.070 E2.03657
G1 X73.270 Y82.070 E0.01552
G1 X73.270 Y82.110 E0.00125
G1 X119.090 Y127.930 E2.03481
M73 Q4 S181
M73 P5 R177
G1 X118.556 Y127.930 E0.01677
G1 X73.270 Y82.644 E2.01109
G1 X73.270 Y83.178 E0.01677
G1 X118.022 Y127.930 E1.98737
G1 X117.488 Y127.930 E0.01677
G1 X73.270 Y83.712 E1.96366
G1 X73.270 Y84.246 E0.01677
G1 X116.954 Y127.930 E1.93994
G1 X116.420 Y127.930 E0.01677
G1 X73.270 Y84.780 E1.91622
G1 X73.270 Y85.314 E0.01677
G1 X115.886 Y127.930 E1.89251
G1 X115.352 Y127.930 E0.01677
G1 X73.270 Y85.848 E1.86879
G1 X73.270 Y86.382 E0.01677
G1 X114.818 Y127.930 E1.84507
G1 X114.284 Y127.930 E0.01677
G1 X73.270 Y86.916 E1.82135
G1 X73.270 Y87.450 E0.01677
G1 X113.750 Y127.930 E1.79764
G1 X113.216 Y127.930 E0.01677
G1 X73.270 Y87.984 E1.77392
G1 X73.270 Y88.519 E0.01677
G1 X112.681 Y127.930 E1.75020
G1 X112.147 Y127.930 E0.01677
G1 X73.270 Y89.053 E1.72648
G1 X73.270 Y89.587 E0.01677
G1 X111.613 Y127.930 E1.70277
G1 X111.079 Y127.930 E0.01677
G1 X73.270 Y90.121 E1.67905
G1 X73.270 Y90.655 E0.01677
G1 X110.545 Y127.930 E1.65533
G1 X110.011 Y127.930 E0.01677
G1 X73.270 Y91.189 E1.63162
G1 X73.270 Y91.723 E0.01677
G1 X109.477 Y127.930 E1.60790
G1 X108.943 Y127.930 E0.01677
G1 X73.270 Y92.257 E1.58418
G1 X73.270 Y92.791 E0.01677
G1 X108.409 Y127.930 E1.56046
G1 X107.875 Y127.930 E0.01677
G1 X73.270 Y93.325 E1.53675
M73 Q5 S180
M73 P5 R176
G1 X73.270 Y93.859 E0.01677
