; generated by PrusaSlicer 2.2.0+ on 2020-04-18 at 13:50:50 UTC

; 

; external perimeters extrusion width = 0.45mm
; perimeters extrusion width = 0.45mm
; infill extrusion width = 0.45mm
; solid infill extrusion width = 0.45mm
; top infill extrusion width = 0.40mm
; first layer extrusion width = 0.42mm

M73 P0 R398
M73 Q0 S408
M201 X1000 Y1000 Z1000 E5000 ; sets maximum accelerations, mm/sec^2
M203 X200 Y200 Z12 E120 ; sets maximum feedrates, mm/sec
M204 P1250 R1250 T1250 ; sets acceleration (P, T) and retract acceleration (R), mm/sec^2
M205 X8.00 Y8.00 Z0.40 E1.50 ; sets the jerk limits, mm/sec
M205 S0 T0 ; sets the minimum extruding and travel feed rate, mm/sec
M107
M862.3 P "MK3SMMU2S" ; printer model check
M862.1 P0.4 ; nozzle diameter check
M115 U3.8.1 ; tell printer latest fw version
G90 ; use absolute coordinates
M83 ; extruder relative mode
M104 S215 ; set extruder temp
M140 S60 ; set bed temp
Tx
M190 S60 ; wait for bed temp
M109 S215 ; wait for extruder temp
G28 W ; home all without mesh bed level
G80 ; mesh bed leveling

;go outside print area
G1 Y-3.0 F1000.0
G1 Z0.4 F1000.0
; select extruder
Tc
; purge line
G1 X55.0 F2000.0
G1 Z0.3 F1000.0
G92 E0.0
G1 X240.0 E25.0 F2200.0
M73 Q0 S408
M73 P0 R398
G1 Y-2.0 F1000.0
G1 X55.0 E25 F1400.0
G1 Z0.20 F1000.0
G1 X5.0 E4.0 F1000.0

M221 S95
G92 E0.0
G21 ; set units to millimeters
G90 ; use absolute coordinates
M83 ; use relative distances for extrusion
M900 K30 ; Filament gcode
;BEFORE_LAYER_CHANGE
G92 E0.0
;0.2


G1 E-0.80000 F2100.00000
G1 Z0.600 F10800.000
;AFTER_LAYER_CHANGE
;0.2
G1 X70.484 Y52.455
G1 Z0.200
G1 E0.80000 F2100.00000
M204 S1000
G1 F1200.000
G1 X71.262 Y51.916 E0.02966
G1 X72.184 Y51.723 E0.02954
G1 X177.804 Y51.723 E3.31164
G1 X178.706 Y51.902 E0.02884
G1 X179.470 Y52.408 E0.02872
G1 X179.985 Y53.165 E0.02872
G1 X180.177 Y54.065 E0.02884
G1 X180.177 Y161.915 E3.38158
G1 X180.003 Y162.792 E0.02802
G1 X179.516 Y163.545 E0.02813
G1 X178.731 Y164.087 E0.02989
G1 X177.800 Y164.277 E0.02981
G1 X72.185 Y164.277 E3.31149
G1 X71.308 Y164.103 E0.02802
G1 X70.555 Y163.616 E0.02813
G1 X70.013 Y162.831 E0.02989
G1 X69.823 Y161.900 E0.02981
G1 X69.823 Y54.085 E3.38047
G1 X69.997 Y53.208 E0.02802
G1 X70.452 Y52.505 E0.02625
G1 F8640.000
G1 X71.262 Y51.916 E-0.23128
G1 X72.184 Y51.723 E-0.21755
G1 X73.531 Y51.723 E-0.31117
G1 E-0.04000 F2100.00000
G1 Z0.800 F10800.000
G1 X72.987 Y109.887
G1 Z0.200
G1 E0.80000 F2100.00000
G1 F1200.000
G1 X177.013 Y109.887 E3.26166
G1 X177.013 Y161.113 E1.60615
G1 X72.987 Y161.113 E3.26166
G1 X72.987 Y109.947 E1.60427
G1 X72.610 Y109.510 F10800.000
G1 F1200.000
G1 X177.390 Y109.510 E3.28530
G1 X177.390 Y161.490 E1.62980
G1 X72.610 Y161.490 E3.28530
M73 Q0 S407
M73 P0 R397
G1 X72.610 Y109.570 E1.62792
G1 X73.005 Y109.571 F10800.000
G1 F8640.000
G1 X75.901 Y109.568 E-0.76000
G1 E-0.04000 F2100.00000
G1 Z0.800 F10800.000
G1 X176.900 Y110.764
G1 Z0.200
G1 E0.80000 F2100.00000
G1 F1200.000
G1 X176.306 Y110.170 E0.02637
G1 X175.772 Y110.170 E0.01677
G1 X176.730 Y111.128 E0.04255
G1 X176.730 Y111.662 E0.01677
G1 X175.238 Y110.170 E0.06626
G1 X174.704 Y110.170 E0.01677
G1 X176.730 Y112.196 E0.08998
G1 X176.730 Y112.730 E0.01677
G1 X174.170 Y110.170 E0.11369
G1 X173.636 Y110.170 E0.01677
G1 X176.730 Y113.264 E0.13741
G1 X176.730 Y113.798 E0.01677
G1 X173.102 Y110.170 E0.16112
G1 X172.568 Y110.170 E0.01677
G1 X176.730 Y114.332 E0.18484
G1 X176.730 Y114.866 E0.01677
G1 X172.034 Y110.170 E0.20855
G1 X171.500 Y110.170 E0.01677
G1 X176.730 Y115.400 E0.23227
G1 X176.730 Y115.934 E0.01677
G1 X170.966 Y110.170 E0.25598
G1 X170.432 Y110.170 E0.01677
G1 X176.730 Y116.468 E0.27970
G1 X176.730 Y117.003 E0.01677
G1 X169.897 Y110.170 E0.30341
G1 X169.363 Y110.170 E0.01677
G1 X176.730 Y117.537 E0.32713
G1 X176.730 Y118.071 E0.01677
G1 X168.829 Y110.170 E0.35084
G1 X168.295 Y110.170 E0.01677
G1 X176.730 Y118.605 E0.37456
G1 X176.730 Y119.139 E0.01677
G1 X167.761 Y110.170 E0.39827
G1 X167.227 Y110.170 E0.01677
G1 X176.730 Y119.673 E0.42199
G1 X176.730 Y120.207 E0.01677
G1 X166.693 Y110.170 E0.44571
G1 X166.159 Y110.170 E0.01677
G1 X176.730 Y120.741 E0.46942
G1 X176.730 Y121.275 E0.01677
G1 X165.625 Y110.170 E0.49314
G1 X165.091 Y110.170 E0.01677
G1 X176.730 Y121.809 E0.51685
G1 X176.730 Y122.343 E0.01677
G1 X164.557 Y110.170 E0.54057
G1 X164.023 Y110.170 E0.01677
G1 X176.730 Y122.877 E0.56428
G1 X176.730 Y123.411 E0.01677
G1 X163.489 Y110.170 E0.58800
G1 X162.955 Y110.170 E0.01677
G1 X176.730 Y123.945 E0.61171
G1 X176.730 Y124.479 E0.01677
G1 X162.421 Y110.170 E0.63543
G1 X161.887 Y110.170 E0.01677
G1 X176.730 Y125.013 E0.65914
G1 X176.730 Y125.547 E0.01677
G1 X161.353 Y110.170 E0.68286
G1 X160.819 Y110.170 E0.01677
G1 X176.730 Y126.081 E0.70657
G1 X176.730 Y126.615 E0.01677
G1 X160.285 Y110.170 E0.73029
G1 X159.751 Y110.170 E0.01677
G1 X176.730 Y127.149 E0.75400
G1 X176.730 Y127.684 E0.01677
G1 X159.216 Y110.170 E0.77772
G1 X158.682 Y110.170 E0.01677
G1 X176.730 Y128.218 E0.80143
G1 X176.730 Y128.752 E0.01677
G1 X158.148 Y110.170 E0.82515
G1 X157.614 Y110.170 E0.01677
G1 X176.730 Y129.286 E0.84886
G1 X176.730 Y129.820 E0.01677
G1 X157.080 Y110.170 E0.87258
G1 X156.546 Y110.170 E0.01677
G1 X176.730 Y130.354 E0.89629
G1 X176.730 Y130.888 E0.01677
G1 X156.012 Y110.170 E0.92001
G1 X155.478 Y110.170 E0.01677
G1 X176.730 Y131.422 E0.94372
G1 X176.730 Y131.956 E0.01677
G1 X154.944 Y110.170 E0.96744
G1 X154.410 Y110.170 E0.01677
G1 X176.730 Y132.490 E0.99115
G1 X176.730 Y133.024 E0.01677
G1 X153.876 Y110.170 E1.01487
G1 X153.342 Y110.170 E0.01677
G1 X176.730 Y133.558 E1.03859
G1 X176.730 Y134.092 E0.01677
G1 X152.808 Y110.170 E1.06230
G1 X152.274 Y110.170 E0.01677
G1 X176.730 Y134.626 E1.08602
G1 X176.730 Y135.160 E0.01677
G1 X151.740 Y110.170 E1.10973
G1 X151.206 Y110.170 E0.01677
G1 X176.730 Y135.694 E1.13345
G1 X176.730 Y136.228 E0.01677
G1 X150.672 Y110.170 E1.15716
G1 X150.138 Y110.170 E0.01677
G1 X176.730 Y136.762 E1.18088
G1 X176.730 Y137.296 E0.01677
G1 X149.604 Y110.170 E1.20459
G1 X149.070 Y110.170 E0.01677
G1 X176.730 Y137.830 E1.22831
G1 X176.730 Y138.365 E0.01677
G1 X148.535 Y110.170 E1.25202
G1 X148.001 Y110.170 E0.01677
G1 X176.730 Y138.899 E1.27574
M73 Q0 S406
M73 P0 R396
G1 X176.730 Y139.433 E0.01677
G1 X147.467 Y110.170 E1.29945
G1 X146.933 Y110.170 E0.01677
G1 X176.730 Y139.967 E1.32317
G1 X176.730 Y140.501 E0.01677
G1 X146.399 Y110.170 E1.34688
G1 X145.865 Y110.170 E0.01677
G1 X176.730 Y141.035 E1.37060
G1 X176.730 Y141.569 E0.01677
G1 X145.331 Y110.170 E1.39431
G1 X144.797 Y110.170 E0.01677
G1 X176.730 Y142.103 E1.41803
G1 X176.730 Y142.637 E0.01677
G1 X144.263 Y110.170 E1.44174
G1 X143.729 Y110.170 E0.01677
G1 X176.730 Y143.171 E1.46546
G1 X176.730 Y143.705 E0.01677
G1 X143.195 Y110.170 E1.48917
G1 X142.661 Y110.170 E0.01677
G1 X176.730 Y144.239 E1.51289
G1 X176.730 Y144.773 E0.01677
G1 X142.127 Y110.170 E1.53660
G1 X141.593 Y110.170 E0.01677
G1 X176.730 Y145.307 E1.56032
G1 X176.730 Y145.841 E0.01677
G1 X141.059 Y110.170 E1.58404
G1 X140.525 Y110.170 E0.01677
G1 X176.730 Y146.375 E1.60775
G1 X176.730 Y146.909 E0.01677
G1 X139.991 Y110.170 E1.63147
G1 X139.457 Y110.170 E0.01677
G1 X176.730 Y147.443 E1.65518
G1 X176.730 Y147.977 E0.01677
G1 X138.923 Y110.170 E1.67890
G1 X138.389 Y110.170 E0.01677
G1 X176.730 Y148.511 E1.70261
G1 X176.730 Y149.046 E0.01677
G1 X137.854 Y110.170 E1.72633
G1 X137.320 Y110.170 E0.01677
G1 X176.730 Y149.580 E1.75004
G1 X176.730 Y150.114 E0.01677
G1 X136.786 Y110.170 E1.77376
G1 X136.252 Y110.170 E0.01677
G1 X176.730 Y150.648 E1.79747
G1 X176.730 Y151.182 E0.01677
G1 X135.718 Y110.170 E1.82119
G1 X135.184 Y110.170 E0.01677
G1 X176.730 Y151.716 E1.84490
M73 Q0 S404
M73 P0 R394
G1 X176.730 Y152.250 E0.01677
G1 X134.650 Y110.170 E1.86862
G1 X134.116 Y110.170 E0.01677
G1 X176.730 Y152.784 E1.89233
G1 X176.730 Y153.318 E0.01677
G1 X133.582 Y110.170 E1.91605
G1 X133.048 Y110.170 E0.01677
G1 X176.730 Y153.852 E1.93976
G1 X176.730 Y154.386 E0.01677
G1 X132.514 Y110.170 E1.96348
G1 X131.980 Y110.170 E0.01677
G1 X176.730 Y154.920 E1.98719
G1 X176.730 Y155.454 E0.01677
G1 X131.446 Y110.170 E2.01091
G1 X130.912 Y110.170 E0.01677
G1 X176.730 Y155.988 E2.03462
G1 X176.730 Y156.522 E0.01677
G1 X130.378 Y110.170 E2.05834
G1 X129.844 Y110.170 E0.01677
G1 X176.730 Y157.056 E2.08205
G1 X176.730 Y157.590 E0.01677
G1 X129.310 Y110.170 E2.10577
G1 X128.776 Y110.170 E0.01677
G1 X176.730 Y158.124 E2.12949
G1 X176.730 Y158.658 E0.01677
G1 X128.242 Y110.170 E2.15320
G1 X127.708 Y110.170 E0.01677
G1 X176.730 Y159.192 E2.17692
G1 X176.730 Y159.726 E0.01677
G1 X127.174 Y110.170 E2.20063
G1 X126.639 Y110.170 E0.01677
G1 X176.730 Y160.261 E2.22435
G1 X176.730 Y160.795 E0.01677
G1 X126.105 Y110.170 E2.24806
G1 X125.571 Y110.170 E0.01677
G1 X176.232 Y160.830 E2.24964
G1 X175.698 Y160.830 E0.01677
M73 Q1 S403
M73 P1 R393
G1 X125.037 Y110.170 E2.24964
G1 X124.503 Y110.170 E0.01677
G1 X175.164 Y160.830 E2.24964
G1 X174.629 Y160.830 E0.01677
G1 X123.969 Y110.170 E2.24964
G1 X123.435 Y110.170 E0.01677
G1 X174.095 Y160.830 E2.24964
G1 X173.561 Y160.830 E0.01677
G1 X122.901 Y110.170 E2.24964
G1 X122.367 Y110.170 E0.01677
G1 X173.027 Y160.830 E2.24964
G1 X172.493 Y160.830 E0.01677
G1 X121.833 Y110.170 E2.24964
G1 X121.299 Y110.170 E0.01677
G1 X171.959 Y160.830 E2.24964
G1 X171.425 Y160.830 E0.01677
G1 X120.765 Y110.170 E2.24964
G1 X120.231 Y110.170 E0.01677
G1 X170.891 Y160.830 E2.24964
G1 X170.357 Y160.830 E0.01677
G1 X119.697 Y110.170 E2.24964
G1 X119.163 Y110.170 E0.01677
G1 X169.823 Y160.830 E2.24964
G1 X169.289 Y160.830 E0.01677
G1 X118.629 Y110.170 E2.24964
G1 X118.095 Y110.170 E0.01677
G1 X168.755 Y160.830 E2.24964
G1 X168.221 Y160.830 E0.01677
G1 X117.561 Y110.170 E2.24964
G1 X117.027 Y110.170 E0.01677
G1 X167.687 Y160.830 E2.24964
G1 X167.153 Y160.830 E0.01677
G1 X116.493 Y110.170 E2.24964
M73 Q1 S402
M73 P1 R392
G1 X115.958 Y110.170 E0.01677
G1 X166.619 Y160.830 E2.24964
G1 X166.085 Y160.830 E0.01677
G1 X115.424 Y110.170 E2.24964
G1 X114.890 Y110.170 E0.01677
G1 X165.551 Y160.830 E2.24964
G1 X165.017 Y160.830 E0.01677
G1 X114.356 Y110.170 E2.24964
G1 X113.822 Y110.170 E0.01677
G1 X164.483 Y160.830 E2.24964
G1 X163.948 Y160.830 E0.01677
G1 X113.288 Y110.170 E2.24964
G1 X112.754 Y110.170 E0.01677
G1 X163.414 Y160.830 E2.24964
G1 X162.880 Y160.830 E0.01677
G1 X112.220 Y110.170 E2.24964
G1 X111.686 Y110.170 E0.01677
G1 X162.346 Y160.830 E2.24964
G1 X161.812 Y160.830 E0.01677
G1 X111.152 Y110.170 E2.24964
G1 X110.618 Y110.170 E0.01677
G1 X161.278 Y160.830 E2.24964
G1 X160.744 Y160.830 E0.01677
G1 X110.084 Y110.170 E2.24964
G1 X109.550 Y110.170 E0.01677
G1 X160.210 Y160.830 E2.24964
G1 X159.676 Y160.830 E0.01677
G1 X109.016 Y110.170 E2.24964
G1 X108.482 Y110.170 E0.01677
G1 X159.142 Y160.830 E2.24964
G1 X158.608 Y160.830 E0.01677
G1 X107.948 Y110.170 E2.24964
G1 X107.414 Y110.170 E0.01677
G1 X158.074 Y160.830 E2.24964
M73 Q1 S401
M73 P1 R391
G1 X157.540 Y160.830 E0.01677
G1 X106.880 Y110.170 E2.24964
G1 X106.346 Y110.170 E0.01677
G1 X157.006 Y160.830 E2.24964
G1 X156.472 Y160.830 E0.01677
G1 X105.812 Y110.170 E2.24964
G1 X105.277 Y110.170 E0.01677
G1 X155.938 Y160.830 E2.24964
G1 X155.404 Y160.830 E0.01677
G1 X104.743 Y110.170 E2.24964
G1 X104.209 Y110.170 E0.01677
G1 X154.870 Y160.830 E2.24964
G1 X154.336 Y160.830 E0.01677
G1 X103.675 Y110.170 E2.24964
G1 X103.141 Y110.170 E0.01677
G1 X153.802 Y160.830 E2.24964
G1 X153.267 Y160.830 E0.01677
G1 X102.607 Y110.170 E2.24964
G1 X102.073 Y110.170 E0.01677
G1 X152.733 Y160.830 E2.24964
G1 X152.199 Y160.830 E0.01677
G1 X101.539 Y110.170 E2.24964
G1 X101.005 Y110.170 E0.01677
G1 X151.665 Y160.830 E2.24964
G1 X151.131 Y160.830 E0.01677
G1 X100.471 Y110.170 E2.24964
G1 X99.937 Y110.170 E0.01677
G1 X150.597 Y160.830 E2.24964
G1 X150.063 Y160.830 E0.01677
G1 X99.403 Y110.170 E2.24964
G1 X98.869 Y110.170 E0.01677
G1 X149.529 Y160.830 E2.24964
G1 X148.995 Y160.830 E0.01677
G1 X98.335 Y110.170 E2.24964
M73 Q1 S400
M73 P1 R390
G1 X97.801 Y110.170 E0.01677
G1 X148.461 Y160.830 E2.24964
G1 X147.927 Y160.830 E0.01677
G1 X97.267 Y110.170 E2.24964
G1 X96.733 Y110.170 E0.01677
G1 X147.393 Y160.830 E2.24964
G1 X146.859 Y160.830 E0.01677
G1 X96.199 Y110.170 E2.24964
G1 X95.665 Y110.170 E0.01677
G1 X146.325 Y160.830 E2.24964
G1 X145.791 Y160.830 E0.01677
G1 X95.131 Y110.170 E2.24964
G1 X94.596 Y110.170 E0.01677
G1 X145.257 Y160.830 E2.24964
G1 X144.723 Y160.830 E0.01677
G1 X94.062 Y110.170 E2.24964
G1 X93.528 Y110.170 E0.01677
G1 X144.189 Y160.830 E2.24964
G1 X143.655 Y160.830 E0.01677
G1 X92.994 Y110.170 E2.24964
G1 X92.460 Y110.170 E0.01677
G1 X143.121 Y160.830 E2.24964
G1 X142.586 Y160.830 E0.01677
G1 X91.926 Y110.170 E2.24964
G1 X91.392 Y110.170 E0.01677
G1 X142.052 Y160.830 E2.24964
G1 X141.518 Y160.830 E0.01677
G1 X90.858 Y110.170 E2.24964
G1 X90.324 Y110.170 E0.01677
G1 X140.984 Y160.830 E2.24964
G1 X140.450 Y160.830 E0.01677
G1 X89.790 Y110.170 E2.24964
G1 X89.256 Y110.170 E0.01677
G1 X139.916 Y160.830 E2.24964
M73 Q2 S399
M73 P2 R389
G1 X139.382 Y160.830 E0.01677
G1 X88.722 Y110.170 E2.24964
G1 X88.188 Y110.170 E0.01677
G1 X138.848 Y160.830 E2.24964
G1 X138.314 Y160.830 E0.01677
G1 X87.654 Y110.170 E2.24964
G1 X87.120 Y110.170 E0.01677
G1 X137.780 Y160.830 E2.24964
G1 X137.246 Y160.830 E0.01677
G1 X86.586 Y110.170 E2.24964
G1 X86.052 Y110.170 E0.01677
G1 X136.712 Y160.830 E2.24964
G1 X136.178 Y160.830 E0.01677
G1 X85.518 Y110.170 E2.24964
G1 X84.984 Y110.170 E0.01677
G1 X135.644 Y160.830 E2.24964
G1 X135.110 Y160.830 E0.01677
G1 X84.450 Y110.170 E2.24964
G1 X83.915 Y110.170 E0.01677
G1 X134.576 Y160.830 E2.24964
G1 X134.042 Y160.830 E0.01677
G1 X83.381 Y110.170 E2.24964
G1 X82.847 Y110.170 E0.01677
G1 X133.508 Y160.830 E2.24964
G1 X132.974 Y160.830 E0.01677
G1 X82.313 Y110.170 E2.24964
G1 X81.779 Y110.170 E0.01677
G1 X132.440 Y160.830 E2.24964
G1 X131.905 Y160.830 E0.01677
G1 X81.245 Y110.170 E2.24964
G1 X80.711 Y110.170 E0.01677
G1 X131.371 Y160.830 E2.24964
G1 X130.837 Y160.830 E0.01677
G1 X80.177 Y110.170 E2.24964
M73 Q2 S398
M73 P2 R388
G1 X79.643 Y110.170 E0.01677
G1 X130.303 Y160.830 E2.24964
G1 X129.769 Y160.830 E0.01677
G1 X79.109 Y110.170 E2.24964
G1 X78.575 Y110.170 E0.01677
G1 X129.235 Y160.830 E2.24964
G1 X128.701 Y160.830 E0.01677
G1 X78.041 Y110.170 E2.24964
G1 X77.507 Y110.170 E0.01677
G1 X128.167 Y160.830 E2.24964
G1 X127.633 Y160.830 E0.01677
G1 X76.973 Y110.170 E2.24964
G1 X76.439 Y110.170 E0.01677
G1 X127.099 Y160.830 E2.24964
G1 X126.565 Y160.830 E0.01677
G1 X75.905 Y110.170 E2.24964
G1 X75.371 Y110.170 E0.01677
G1 X126.031 Y160.830 E2.24964
G1 X125.497 Y160.830 E0.01677
G1 X74.837 Y110.170 E2.24964
G1 X74.303 Y110.170 E0.01677
G1 X124.963 Y160.830 E2.24964
G1 X124.429 Y160.830 E0.01677
G1 X73.769 Y110.170 E2.24964
G1 X73.270 Y110.170 E0.01566
G1 X73.270 Y110.205 E0.00111
G1 X123.895 Y160.830 E2.24807
G1 X123.361 Y160.830 E0.01677
G1 X73.270 Y110.739 E2.22435
G1 X73.270 Y111.273 E0.01677
G1 X122.827 Y160.830 E2.20064
G1 X122.293 Y160.830 E0.01677
G1 X73.270 Y111.807 E2.17692
G1 X73.270 Y112.341 E0.01677
G1 X121.759 Y160.830 E2.15321
M73 Q2 S397
M73 P2 R387
G1 X121.225 Y160.830 E0.01677
G1 X73.270 Y112.875 E2.12949
G1 X73.270 Y113.410 E0.01677
G1 X120.690 Y160.830 E2.10578
G1 X120.156 Y160.830 E0.01677
G1 X73.270 Y113.944 E2.08206
G1 X73.270 Y114.478 E0.01677
G1 X119.622 Y160.830 E2.05835
G1 X119.088 Y160.830 E0.01677
G1 X73.270 Y115.012 E2.03463
G1 X73.270 Y115.546 E0.01677
G1 X118.554 Y160.830 E2.01092
G1 X118.020 Y160.830 E0.01677
G1 X73.270 Y116.080 E1.98720
G1 X73.270 Y116.614 E0.01677
G1 X117.486 Y160.830 E1.96349
G1 X116.952 Y160.830 E0.01677
G1 X73.270 Y117.148 E1.93977
G1 X73.270 Y117.682 E0.01677
G1 X116.418 Y160.830 E1.91606
G1 X115.884 Y160.830 E0.01677
G1 X73.270 Y118.216 E1.89234
G1 X73.270 Y118.750 E0.01677
G1 X115.350 Y160.830 E1.86862
G1 X114.816 Y160.830 E0.01677
G1 X73.270 Y119.284 E1.84491
G1 X73.270 Y119.818 E0.01677
G1 X114.282 Y160.830 E1.82119
G1 X113.748 Y160.830 E0.01677
G1 X73.270 Y120.352 E1.79748
G1 X73.270 Y120.886 E0.01677
G1 X113.214 Y160.830 E1.77376
G1 X112.680 Y160.830 E0.01677
G1 X73.270 Y121.420 E1.75005
G1 X73.270 Y121.954 E0.01677
