; generated by PrusaSlicer 2.2.0+ on 2020-05-14 at 19:07:47 UTC

; 

; external perimeters extrusion width = 0.60mm
; perimeters extrusion width = 0.50mm
; infill extrusion width = 0.50mm
; solid infill extrusion width = 0.50mm
; top infill extrusion width = 0.45mm
; first layer extrusion width = 0.42mm

M73 P0 R47
M73 Q0 S48
M201 X1000 Y1000 Z1000 E5000 ; sets maximum accelerations, mm/sec^2
M203 X200 Y200 Z12 E120 ; sets maximum feedrates, mm/sec
M204 P1250 R1250 T1250 ; sets acceleration (P, T) and retract acceleration (R), mm/sec^2
M205 X8.00 Y8.00 Z0.40 E4.50 ; sets the jerk limits, mm/sec
M205 S0 T0 ; sets the minimum extruding and travel feed rate, mm/sec
M107
M862.3 P "MK3SMMU2S" ; printer model check
M862.1 P0.4 ; nozzle diameter check
M115 U3.8.1 ; tell printer latest fw version
G90 ; use absolute coordinates
M83 ; extruder relative mode
M104 S215 ; set extruder temp
M140 S60 ; set bed temp
Tx
M190 S60 ; wait for bed temp
M109 S215 ; wait for extruder temp
G28 W ; home all without mesh bed level
G80 ; mesh bed leveling

;go outside print area
G1 Y-3.0 F1000.0
G1 Z0.4 F1000.0
; select extruder
Tc
; purge line
G1 X55.0 F2000.0
G1 Z0.3 F1000.0
G92 E0.0
G1 X240.0 E25.0 F2200.0
M73 Q0 S48
M73 P0 R47
G1 Y-2.0 F1000.0
G1 X55.0 E25 F1400.0
G1 Z0.20 F1000.0
G1 X5.0 E4.0 F1000.0

M221 S95
G92 E0.0
G21 ; set units to millimeters
G90 ; use absolute coordinates
M83 ; use relative distances for extrusion
M900 K30 ; Filament gcode
;BEFORE_LAYER_CHANGE
G92 E0.0
;0.2


G1 E-0.80000 F2100.00000
G1 Z0.600 F10800.000
;AFTER_LAYER_CHANGE
;0.2
G1 X77.743 Y44.255
G1 Z0.200
G1 E0.80000 F2100.00000
M204 S1000
G1 F1200.000
G1 X78.086 Y43.591 E0.02343
G1 X78.459 Y43.190 E0.01716
G1 X78.917 Y42.884 E0.01728
G1 X79.429 Y42.692 E0.01716
G1 X79.976 Y42.623 E0.01728
G1 X170.004 Y42.623 E2.82276
G1 X170.906 Y42.802 E0.02884
G1 X171.670 Y43.308 E0.02872
G1 X172.185 Y44.065 E0.02872
G1 X172.377 Y44.965 E0.02884
G1 X172.377 Y165.008 E3.76386
G1 X172.257 Y165.745 E0.02343
G1 X171.914 Y166.409 E0.02343
G1 X171.536 Y166.815 E0.01740
G1 X171.076 Y167.119 E0.01728
G1 X170.560 Y167.310 E0.01728
G1 X170.013 Y167.377 E0.01728
G1 X79.989 Y167.377 E2.82264
G1 X79.251 Y167.256 E0.02343
G1 X78.591 Y166.914 E0.02331
G1 X78.185 Y166.536 E0.01740
G1 X77.881 Y166.076 E0.01728
G1 X77.689 Y165.556 E0.01740
G1 X77.623 Y165.009 E0.01728
G1 X77.623 Y44.992 E3.76303
G1 X77.733 Y44.314 E0.02155
G1 F8640.000
G1 X78.086 Y43.591 E-0.18576
G1 X78.459 Y43.190 E-0.12637
G1 X78.917 Y42.884 E-0.12724
G1 X79.429 Y42.692 E-0.12637
G1 X79.976 Y42.623 E-0.12724
G1 X80.266 Y42.623 E-0.06701
G1 E-0.04000 F2100.00000
G1 Z0.800 F10800.000
G1 X82.587 Y48.187
G1 Z0.200
G1 E0.80000 F2100.00000
G1 F1200.000
G1 X167.413 Y48.187 E2.65965
G1 X167.413 Y161.813 E3.56266
G1 X82.587 Y161.813 E2.65965
G1 X82.587 Y48.247 E3.56078
G1 X82.210 Y47.810 F10800.000
G1 F1200.000
G1 X167.790 Y47.810 E2.68330
G1 X167.790 Y162.190 E3.58630
M73 Q2 S46
M73 P2 R46
G1 X82.210 Y162.190 E2.68330
G1 X82.210 Y47.870 E3.58442
G1 X82.591 Y47.932 F10800.000
G1 F8640.000
G1 X85.501 Y47.868 E-0.76000
G1 E-0.04000 F2100.00000
G1 Z0.800 F10800.000
G1 X82.700 Y160.937
G1 Z0.200
G1 E0.80000 F2100.00000
G1 F1200.000
G1 X83.294 Y161.530 E0.02634
G1 X83.827 Y161.530 E0.01676
G1 X82.870 Y160.573 E0.04251
G1 X82.870 Y160.039 E0.01676
G1 X84.361 Y161.530 E0.06621
G1 X84.895 Y161.530 E0.01676
G1 X82.870 Y159.505 E0.08991
G1 X82.870 Y158.971 E0.01676
G1 X85.429 Y161.530 E0.11362
G1 X85.963 Y161.530 E0.01676
G1 X82.870 Y158.437 E0.13732
G1 X82.870 Y157.903 E0.01676
G1 X86.497 Y161.530 E0.16102
G1 X87.031 Y161.530 E0.01676
G1 X82.870 Y157.369 E0.18472
G1 X82.870 Y156.835 E0.01676
G1 X87.565 Y161.530 E0.20842
G1 X88.099 Y161.530 E0.01676
G1 X82.870 Y156.301 E0.23212
G1 X82.870 Y155.767 E0.01676
G1 X88.633 Y161.530 E0.25582
G1 X89.166 Y161.530 E0.01676
G1 X82.870 Y155.234 E0.27952
G1 X82.870 Y154.700 E0.01676
G1 X89.700 Y161.530 E0.30323
G1 X90.234 Y161.530 E0.01676
G1 X82.870 Y154.166 E0.32693
G1 X82.870 Y153.632 E0.01676
G1 X90.768 Y161.530 E0.35063
G1 X91.302 Y161.530 E0.01676
G1 X82.870 Y153.098 E0.37433
G1 X82.870 Y152.564 E0.01676
G1 X91.836 Y161.530 E0.39803
G1 X92.370 Y161.530 E0.01676
G1 X82.870 Y152.030 E0.42173
G1 X82.870 Y151.496 E0.01676
G1 X92.904 Y161.530 E0.44543
G1 X93.438 Y161.530 E0.01676
G1 X82.870 Y150.962 E0.46914
G1 X82.870 Y150.429 E0.01676
G1 X93.971 Y161.530 E0.49284
G1 X94.505 Y161.530 E0.01676
G1 X82.870 Y149.895 E0.51654
G1 X82.870 Y149.361 E0.01676
G1 X95.039 Y161.530 E0.54024
G1 X95.573 Y161.530 E0.01676
G1 X82.870 Y148.827 E0.56394
G1 X82.870 Y148.293 E0.01676
G1 X96.107 Y161.530 E0.58764
G1 X96.641 Y161.530 E0.01676
G1 X82.870 Y147.759 E0.61134
G1 X82.870 Y147.225 E0.01676
G1 X97.175 Y161.530 E0.63505
G1 X97.709 Y161.530 E0.01676
G1 X82.870 Y146.691 E0.65875
G1 X82.870 Y146.157 E0.01676
G1 X98.243 Y161.530 E0.68245
G1 X98.776 Y161.530 E0.01676
G1 X82.870 Y145.623 E0.70615
G1 X82.870 Y145.090 E0.01676
G1 X99.310 Y161.530 E0.72985
G1 X99.844 Y161.530 E0.01676
G1 X82.870 Y144.556 E0.75355
G1 X82.870 Y144.022 E0.01676
G1 X100.378 Y161.530 E0.77725
G1 X100.912 Y161.530 E0.01676
G1 X82.870 Y143.488 E0.80096
G1 X82.870 Y142.954 E0.01676
G1 X101.446 Y161.530 E0.82466
G1 X101.980 Y161.530 E0.01676
G1 X82.870 Y142.420 E0.84836
G1 X82.870 Y141.886 E0.01676
G1 X102.514 Y161.530 E0.87206
G1 X103.048 Y161.530 E0.01676
G1 X82.870 Y141.352 E0.89576
G1 X82.870 Y140.818 E0.01676
G1 X103.582 Y161.530 E0.91946
G1 X104.115 Y161.530 E0.01676
G1 X82.870 Y140.285 E0.94316
G1 X82.870 Y139.751 E0.01676
G1 X104.649 Y161.530 E0.96687
G1 X105.183 Y161.530 E0.01676
G1 X82.870 Y139.217 E0.99057
G1 X82.870 Y138.683 E0.01676
G1 X105.717 Y161.530 E1.01427
G1 X106.251 Y161.530 E0.01676
G1 X82.870 Y138.149 E1.03797
G1 X82.870 Y137.615 E0.01676
G1 X106.785 Y161.530 E1.06167
G1 X107.319 Y161.530 E0.01676
G1 X82.870 Y137.081 E1.08537
G1 X82.870 Y136.547 E0.01676
G1 X107.853 Y161.530 E1.10907
G1 X108.387 Y161.530 E0.01676
G1 X82.870 Y136.013 E1.13278
G1 X82.870 Y135.480 E0.01676
G1 X108.920 Y161.530 E1.15648
G1 X109.454 Y161.530 E0.01676
G1 X82.870 Y134.946 E1.18018
M73 Q4 S45
M73 P4 R45
G1 X82.870 Y134.412 E0.01676
G1 X109.988 Y161.530 E1.20388
G1 X110.522 Y161.530 E0.01676
G1 X82.870 Y133.878 E1.22758
G1 X82.870 Y133.344 E0.01676
G1 X111.056 Y161.530 E1.25128
G1 X111.590 Y161.530 E0.01676
G1 X82.870 Y132.810 E1.27498
G1 X82.870 Y132.276 E0.01676
G1 X112.124 Y161.530 E1.29869
G1 X112.658 Y161.530 E0.01676
G1 X82.870 Y131.742 E1.32239
G1 X82.870 Y131.208 E0.01676
G1 X113.192 Y161.530 E1.34609
G1 X113.726 Y161.530 E0.01676
G1 X82.870 Y130.674 E1.36979
G1 X82.870 Y130.141 E0.01676
G1 X114.259 Y161.530 E1.39349
G1 X114.793 Y161.530 E0.01676
G1 X82.870 Y129.607 E1.41719
G1 X82.870 Y129.073 E0.01676
G1 X115.327 Y161.530 E1.44089
G1 X115.861 Y161.530 E0.01676
G1 X82.870 Y128.539 E1.46459
G1 X82.870 Y128.005 E0.01676
G1 X116.395 Y161.530 E1.48830
G1 X116.929 Y161.530 E0.01676
G1 X82.870 Y127.471 E1.51200
G1 X82.870 Y126.937 E0.01676
G1 X117.463 Y161.530 E1.53570
G1 X117.997 Y161.530 E0.01676
G1 X82.870 Y126.403 E1.55940
G1 X82.870 Y125.869 E0.01676
G1 X118.531 Y161.530 E1.58310
G1 X119.064 Y161.530 E0.01676
G1 X82.870 Y125.336 E1.60680
G1 X82.870 Y124.802 E0.01676
G1 X119.598 Y161.530 E1.63050
G1 X120.132 Y161.530 E0.01676
G1 X82.870 Y124.268 E1.65421
G1 X82.870 Y123.734 E0.01676
G1 X120.666 Y161.530 E1.67791
G1 X121.200 Y161.530 E0.01676
G1 X82.870 Y123.200 E1.70161
G1 X82.870 Y122.666 E0.01676
G1 X121.734 Y161.530 E1.72531
G1 X122.268 Y161.530 E0.01676
G1 X82.870 Y122.132 E1.74901
G1 X82.870 Y121.598 E0.01676
G1 X122.802 Y161.530 E1.77271
M73 Q6 S44
M73 P6 R44
G1 X123.336 Y161.530 E0.01676
G1 X82.870 Y121.064 E1.79641
G1 X82.870 Y120.530 E0.01676
G1 X123.870 Y161.530 E1.82012
G1 X124.403 Y161.530 E0.01676
G1 X82.870 Y119.997 E1.84382
G1 X82.870 Y119.463 E0.01676
G1 X124.937 Y161.530 E1.86752
G1 X125.471 Y161.530 E0.01676
G1 X82.870 Y118.929 E1.89122
G1 X82.870 Y118.395 E0.01676
G1 X126.005 Y161.530 E1.91492
G1 X126.539 Y161.530 E0.01676
G1 X82.870 Y117.861 E1.93862
G1 X82.870 Y117.327 E0.01676
G1 X127.073 Y161.530 E1.96232
G1 X127.607 Y161.530 E0.01676
G1 X82.870 Y116.793 E1.98603
G1 X82.870 Y116.259 E0.01676
G1 X128.141 Y161.530 E2.00973
G1 X128.675 Y161.530 E0.01676
G1 X82.870 Y115.725 E2.03343
G1 X82.870 Y115.192 E0.01676
G1 X129.208 Y161.530 E2.05713
G1 X129.742 Y161.530 E0.01676
G1 X82.870 Y114.658 E2.08083
G1 X82.870 Y114.124 E0.01676
G1 X130.276 Y161.530 E2.10453
G1 X130.810 Y161.530 E0.01676
G1 X82.870 Y113.590 E2.12823
G1 X82.870 Y113.056 E0.01676
G1 X131.344 Y161.530 E2.15194
G1 X131.878 Y161.530 E0.01676
G1 X82.870 Y112.522 E2.17564
G1 X82.870 Y111.988 E0.01676
G1 X132.412 Y161.530 E2.19934
G1 X132.946 Y161.530 E0.01676
G1 X82.870 Y111.454 E2.22304
M73 Q8 S43
M73 P8 R43
G1 X82.870 Y110.920 E0.01676
G1 X133.480 Y161.530 E2.24674
G1 X134.013 Y161.530 E0.01676
G1 X82.870 Y110.386 E2.27044
G1 X82.870 Y109.853 E0.01676
G1 X134.547 Y161.530 E2.29414
G1 X135.081 Y161.530 E0.01676
G1 X82.870 Y109.319 E2.31785
G1 X82.870 Y108.785 E0.01676
G1 X135.615 Y161.530 E2.34155
G1 X136.149 Y161.530 E0.01676
G1 X82.870 Y108.251 E2.36525
G1 X82.870 Y107.717 E0.01676
G1 X136.683 Y161.530 E2.38895
G1 X137.217 Y161.530 E0.01676
G1 X82.870 Y107.183 E2.41265
G1 X82.870 Y106.649 E0.01676
G1 X137.751 Y161.530 E2.43635
G1 X138.285 Y161.530 E0.01676
G1 X82.870 Y106.115 E2.46005
G1 X82.870 Y105.581 E0.01676
G1 X138.819 Y161.530 E2.48375
G1 X139.352 Y161.530 E0.01676
G1 X82.870 Y105.048 E2.50746
G1 X82.870 Y104.514 E0.01676
G1 X139.886 Y161.530 E2.53116
G1 X140.420 Y161.530 E0.01676
G1 X82.870 Y103.980 E2.55486
G1 X82.870 Y103.446 E0.01676
G1 X140.954 Y161.530 E2.57856
G1 X141.488 Y161.530 E0.01676
G1 X82.870 Y102.912 E2.60226
M73 Q11 S42
M73 P11 R42
G1 X82.870 Y102.378 E0.01676
G1 X142.022 Y161.530 E2.62596
G1 X142.556 Y161.530 E0.01676
G1 X82.870 Y101.844 E2.64966
G1 X82.870 Y101.310 E0.01676
G1 X143.090 Y161.530 E2.67337
G1 X143.624 Y161.530 E0.01676
G1 X82.870 Y100.776 E2.69707
G1 X82.870 Y100.243 E0.01676
G1 X144.157 Y161.530 E2.72077
G1 X144.691 Y161.530 E0.01676
G1 X82.870 Y99.709 E2.74447
G1 X82.870 Y99.175 E0.01676
G1 X145.225 Y161.530 E2.76817
G1 X145.759 Y161.530 E0.01676
G1 X82.870 Y98.641 E2.79187
G1 X82.870 Y98.107 E0.01676
G1 X146.293 Y161.530 E2.81557
G1 X146.827 Y161.530 E0.01676
G1 X82.870 Y97.573 E2.83928
G1 X82.870 Y97.039 E0.01676
G1 X147.361 Y161.530 E2.86298
G1 X147.895 Y161.530 E0.01676
G1 X82.870 Y96.505 E2.88668
G1 X82.870 Y95.971 E0.01676
G1 X148.429 Y161.530 E2.91038
G1 X148.963 Y161.530 E0.01676
G1 X82.870 Y95.437 E2.93408
M73 Q13 S41
M73 P13 R41
G1 X82.870 Y94.904 E0.01676
G1 X149.496 Y161.530 E2.95778
G1 X150.030 Y161.530 E0.01676
G1 X82.870 Y94.370 E2.98148
G1 X82.870 Y93.836 E0.01676
G1 X150.564 Y161.530 E3.00519
G1 X151.098 Y161.530 E0.01676
G1 X82.870 Y93.302 E3.02889
G1 X82.870 Y92.768 E0.01676
G1 X151.632 Y161.530 E3.05259
G1 X152.166 Y161.530 E0.01676
G1 X82.870 Y92.234 E3.07629
G1 X82.870 Y91.700 E0.01676
G1 X152.700 Y161.530 E3.09999
G1 X153.234 Y161.530 E0.01676
G1 X82.870 Y91.166 E3.12369
G1 X82.870 Y90.632 E0.01676
G1 X153.768 Y161.530 E3.14739
G1 X154.301 Y161.530 E0.01676
G1 X82.870 Y90.099 E3.17110
G1 X82.870 Y89.565 E0.01676
G1 X154.835 Y161.530 E3.19480
G1 X155.369 Y161.530 E0.01676
G1 X82.870 Y89.031 E3.21850
G1 X82.870 Y88.497 E0.01676
G1 X155.903 Y161.530 E3.24220
M73 Q15 S40
M73 P15 R40
G1 X156.437 Y161.530 E0.01676
G1 X82.870 Y87.963 E3.26590
G1 X82.870 Y87.429 E0.01676
G1 X156.971 Y161.530 E3.28960
G1 X157.505 Y161.530 E0.01676
G1 X82.870 Y86.895 E3.31330
G1 X82.870 Y86.361 E0.01676
G1 X158.039 Y161.530 E3.33701
G1 X158.573 Y161.530 E0.01676
G1 X82.870 Y85.827 E3.36071
G1 X82.870 Y85.293 E0.01676
G1 X159.107 Y161.530 E3.38441
G1 X159.640 Y161.530 E0.01676
G1 X82.870 Y84.760 E3.40811
G1 X82.870 Y84.226 E0.01676
G1 X160.174 Y161.530 E3.43181
G1 X160.708 Y161.530 E0.01676
G1 X82.870 Y83.692 E3.45551
G1 X82.870 Y83.158 E0.01676
G1 X161.242 Y161.530 E3.47921
G1 X161.776 Y161.530 E0.01676
G1 X82.870 Y82.624 E3.50292
G1 X82.870 Y82.090 E0.01676
G1 X162.310 Y161.530 E3.52662
M73 Q17 S39
M73 P17 R39
G1 X162.844 Y161.530 E0.01676
G1 X82.870 Y81.556 E3.55032
G1 X82.870 Y81.022 E0.01676
G1 X163.378 Y161.530 E3.57402
G1 X163.912 Y161.530 E0.01676
G1 X82.870 Y80.488 E3.59772
G1 X82.870 Y79.955 E0.01676
G1 X164.445 Y161.530 E3.62142
G1 X164.979 Y161.530 E0.01676
G1 X82.870 Y79.421 E3.64512
G1 X82.870 Y78.887 E0.01676
G1 X165.513 Y161.530 E3.66882
G1 X166.047 Y161.530 E0.01676
G1 X82.870 Y78.353 E3.69253
G1 X82.870 Y77.819 E0.01676
G1 X166.581 Y161.530 E3.71623
G1 X167.115 Y161.530 E0.01676
G1 X82.870 Y77.285 E3.73993
G1 X82.870 Y76.751 E0.01676
G1 X167.130 Y161.011 E3.74060
G1 X167.130 Y160.478 E0.01676
G1 X82.870 Y76.217 E3.74060
M73 Q20 S38
M73 P20 R38
G1 X82.870 Y75.683 E0.01676
G1 X167.130 Y159.944 E3.74060
G1 X167.130 Y159.410 E0.01676
G1 X82.870 Y75.150 E3.74060
G1 X82.870 Y74.616 E0.01676
G1 X167.130 Y158.876 E3.74060
G1 X167.130 Y158.342 E0.01676
G1 X82.870 Y74.082 E3.74060
G1 X82.870 Y73.548 E0.01676
G1 X167.130 Y157.808 E3.74060
G1 X167.130 Y157.274 E0.01676
G1 X82.870 Y73.014 E3.74060
G1 X82.870 Y72.480 E0.01676
G1 X167.130 Y156.740 E3.74060
G1 X167.130 Y156.206 E0.01676
G1 X82.870 Y71.946 E3.74060
G1 X82.870 Y71.412 E0.01676
G1 X167.130 Y155.672 E3.74060
G1 X167.130 Y155.139 E0.01676
G1 X82.870 Y70.878 E3.74060
G1 X82.870 Y70.344 E0.01676
G1 X167.130 Y154.605 E3.74060
M73 Q22 S37
M73 P22 R37
G1 X167.130 Y154.071 E0.01676
G1 X82.870 Y69.811 E3.74060
G1 X82.870 Y69.277 E0.01676
G1 X167.130 Y153.537 E3.74060
G1 X167.130 Y153.003 E0.01676
G1 X82.870 Y68.743 E3.74060
G1 X82.870 Y68.209 E0.01676
G1 X167.130 Y152.469 E3.74060
G1 X167.130 Y151.935 E0.01676
G1 X82.870 Y67.675 E3.74060
G1 X82.870 Y67.141 E0.01676
G1 X167.130 Y151.401 E3.74060
G1 X167.130 Y150.867 E0.01676
G1 X82.870 Y66.607 E3.74060
G1 X82.870 Y66.073 E0.01676
G1 X167.130 Y150.334 E3.74060
G1 X167.130 Y149.800 E0.01676
G1 X82.870 Y65.539 E3.74060
G1 X82.870 Y65.006 E0.01676
G1 X167.130 Y149.266 E3.74060
G1 X167.130 Y148.732 E0.01676
G1 X82.870 Y64.472 E3.74060
M73 Q24 S36
M73 P24 R36
G1 X82.870 Y63.938 E0.01676
G1 X167.130 Y148.198 E3.74060
G1 X167.130 Y147.664 E0.01676
G1 X82.870 Y63.404 E3.74060
G1 X82.870 Y62.870 E0.01676
G1 X167.130 Y147.130 E3.74060
G1 X167.130 Y146.596 E0.01676
G1 X82.870 Y62.336 E3.74060
G1 X82.870 Y61.802 E0.01676
G1 X167.130 Y146.062 E3.74060
G1 X167.130 Y145.529 E0.01676
G1 X82.870 Y61.268 E3.74060
G1 X82.870 Y60.734 E0.01676
G1 X167.130 Y144.995 E3.74060
G1 X167.130 Y144.461 E0.01676
G1 X82.870 Y60.200 E3.74060
G1 X82.870 Y59.667 E0.01676
G1 X167.130 Y143.927 E3.74060
G1 X167.130 Y143.393 E0.01676
G1 X82.870 Y59.133 E3.74060
G1 X82.870 Y58.599 E0.01676
G1 X167.130 Y142.859 E3.74060
M73 Q26 S35
M73 P27 R35
G1 X167.130 Y142.325 E0.01676
G1 X82.870 Y58.065 E3.74060
G1 X82.870 Y57.531 E0.01676
G1 X167.130 Y141.791 E3.74060
G1 X167.130 Y141.257 E0.01676
G1 X82.870 Y56.997 E3.74060
G1 X82.870 Y56.463 E0.01676
G1 X167.130 Y140.723 E3.74060
G1 X167.130 Y140.190 E0.01676
G1 X82.870 Y55.929 E3.74060
G1 X82.870 Y55.395 E0.01676
G1 X167.130 Y139.656 E3.74060
G1 X167.130 Y139.122 E0.01676
G1 X82.870 Y54.862 E3.74060
G1 X82.870 Y54.328 E0.01676
G1 X167.130 Y138.588 E3.74060
G1 X167.130 Y138.054 E0.01676
G1 X82.870 Y53.794 E3.74060
G1 X82.870 Y53.260 E0.01676
G1 X167.130 Y137.520 E3.74060
G1 X167.130 Y136.986 E0.01676
G1 X82.870 Y52.726 E3.74060
M73 Q29 S34
M73 P29 R33
G1 X82.870 Y52.192 E0.01676
G1 X167.130 Y136.452 E3.74060
G1 X167.130 Y135.918 E0.01676
G1 X82.870 Y51.658 E3.74060
G1 X82.870 Y51.124 E0.01676
G1 X167.130 Y135.385 E3.74060
G1 X167.130 Y134.851 E0.01676
G1 X82.870 Y50.590 E3.74060
G1 X82.870 Y50.056 E0.01676
G1 X167.130 Y134.317 E3.74060
G1 X167.130 Y133.783 E0.01676
G1 X82.870 Y49.523 E3.74060
G1 X82.870 Y48.989 E0.01676
G1 X167.130 Y133.249 E3.74060
G1 X167.130 Y132.715 E0.01676
G1 X82.885 Y48.470 E3.73994
G1 X83.419 Y48.470 E0.01676
G1 X167.130 Y132.181 E3.71623
G1 X167.130 Y131.647 E0.01676
G1 X83.953 Y48.470 E3.69253
G1 X84.487 Y48.470 E0.01676
G1 X167.130 Y131.113 E3.66883
M73 Q31 S33
M73 P31 R32
