; generated by PrusaSlicer 2.2.0+ on 2021-03-03 at 13:48:19 UTC

; 

; external perimeters extrusion width = 0.45mm
; perimeters extrusion width = 0.45mm
; infill extrusion width = 0.45mm
; solid infill extrusion width = 0.45mm
; top infill extrusion width = 0.40mm
; first layer extrusion width = 0.42mm

M73 P0 R105
M73 Q0 S106
M201 X1000 Y1000 Z200 E5000 ; sets maximum accelerations, mm/sec^2
M203 X200 Y200 Z12 E120 ; sets maximum feedrates, mm/sec
M204 P1250 R1250 T1250 ; sets acceleration (P, T) and retract acceleration (R), mm/sec^2
M205 X8.00 Y8.00 Z0.40 E4.50 ; sets the jerk limits, mm/sec
M205 S0 T0 ; sets the minimum extruding and travel feed rate, mm/sec
M107
M862.3 P "MK3SMMU2S" ; printer model check
M862.1 P0.4 ; nozzle diameter check
M115 U3.9.1 ; tell printer latest fw version
G90 ; use absolute coordinates
M83 ; extruder relative mode
M104 S215 ; set extruder temp
M140 S60 ; set bed temp
Tx
M190 S60 ; wait for bed temp
M109 S215 ; wait for extruder temp
G28 W ; home all without mesh bed level
G80 ; mesh bed leveling

;go outside print area
G1 Y-3.0 F1000.0
G1 Z0.4 F1000.0
; select extruder
Tc
; purge line
G1 X55.0 F2000.0
G1 Z0.3 F1000.0
G92 E0.0
G1 X240.0 E25.0 F2200.0
M73 Q0 S105
M73 P0 R105
G1 Y-2.0 F1000.0
G1 X55.0 E25 F1400.0
G1 Z0.20 F1000.0
G1 X5.0 E4.0 F1000.0

M221 S95
G92 E0.0

; Don't change E values below. Excessive value can damage the printer.
M907 E430 ; set extruder motor current
G21 ; set units to millimeters
G90 ; use absolute coordinates
M83 ; use relative distances for extrusion
M900 K0.05 ; Filament gcode LA 1.5
M900 K30 ; Filament gcode LA 1.0
;BEFORE_LAYER_CHANGE
G92 E0.0
;0.2


G1 E-0.80000 F2100.00000
G1 Z0.600 F10800.000
;AFTER_LAYER_CHANGE
;0.2
G1 X141.807 Y135.362
G1 Z0.200
G1 E0.80000 F2100.00000
M204 S1000
G1 F1200.000
G1 X139.939 Y135.629 E0.05916
G1 X127.945 Y134.179 E0.37881
G1 X119.854 Y131.341 E0.26884
G1 X111.563 Y128.063 E0.27954
G1 X110.152 Y127.293 E0.05038
G1 X108.983 Y126.451 E0.04519
G1 X107.641 Y125.192 E0.05769
G1 X106.730 Y124.084 E0.04495
G1 X105.966 Y122.889 E0.04447
G1 X105.275 Y121.463 E0.04971
G1 X104.741 Y119.861 E0.05294
G1 X104.439 Y118.258 E0.05115
G1 X104.347 Y116.758 E0.04710
G1 X104.347 Y93.242 E0.73733
G1 X104.446 Y91.683 E0.04899
G1 X104.743 Y90.133 E0.04949
G1 X105.230 Y88.640 E0.04925
G1 X105.962 Y87.118 E0.05294
G1 X106.822 Y85.798 E0.04940
G1 X107.728 Y84.709 E0.04442
G1 X108.762 Y83.732 E0.04459
G1 X110.119 Y82.728 E0.05293
G1 X111.416 Y82.008 E0.04650
G1 X119.852 Y78.659 E0.28461
G1 X128.062 Y75.787 E0.27273
G1 X140.116 Y74.371 E0.38053
G1 X141.839 Y74.649 E0.05472
G1 X143.001 Y75.222 E0.04062
G1 X143.475 Y75.572 E0.01846
G1 X144.386 Y76.523 E0.04132
G1 X144.997 Y77.657 E0.04036
G1 X145.192 Y78.208 E0.01835
G1 X145.377 Y79.379 E0.03717
G1 X145.387 Y130.408 E1.59996
G1 X145.204 Y131.736 E0.04203
G1 X145.017 Y132.302 E0.01870
G1 X144.391 Y133.470 E0.04156
G1 X143.480 Y134.423 E0.04132
G1 X142.998 Y134.780 E0.01882
G1 X141.861 Y135.336 E0.03968
G1 F8640.000
G1 X139.939 Y135.629 E-0.44887
G1 X138.601 Y135.467 E-0.31113
G1 E-0.04000 F2100.00000
G1 Z0.800 F10800.000
G1 X140.696 Y132.349
G1 Z0.200
G1 E0.80000 F2100.00000
G1 F1200.000
G1 X140.662 Y132.354 E0.00109
G1 X140.662 Y128.446 E0.12256
G1 X141.322 Y128.744 E0.02271
G1 X141.769 Y129.192 E0.01986
G1 X142.061 Y129.765 E0.02016
G1 X142.162 Y130.400 E0.02016
G1 X142.061 Y131.035 E0.02016
G1 X141.769 Y131.608 E0.02016
G1 X141.322 Y132.056 E0.01986
G1 X140.751 Y132.324 E0.01978
G1 X140.285 Y132.789 F10800.000
G1 F1200.000
G1 X140.285 Y128.011 E0.14982
G1 X140.806 Y128.085 E0.01649
G1 X141.542 Y128.431 E0.02550
G1 X142.078 Y128.968 E0.02379
G1 X142.424 Y129.647 E0.02390
G1 X142.544 Y130.400 E0.02390
G1 X142.424 Y131.153 E0.02390
G1 X142.078 Y131.832 E0.02390
G1 X141.542 Y132.369 E0.02379
G1 X140.806 Y132.715 E0.02550
G1 X140.344 Y132.781 E0.01461
G1 X140.447 Y132.423 F10800.000
G1 F8640.000
G1 X140.303 Y129.490 E-0.76000
G1 E-0.04000 F2100.00000
G1 Z0.800 F10800.000
G1 X141.938 Y129.773
G1 Z0.200
G1 E0.80000 F2100.00000
G1 F1200.000
G1 X141.135 Y128.969 E0.03720
G1 X140.945 Y128.880 E0.00686
G1 X140.945 Y129.336 E0.01492
G1 X141.850 Y130.241 E0.04191
G1 X141.876 Y130.400 E0.00525
G1 X141.818 Y130.765 E0.01210
G1 X140.945 Y129.892 E0.04040
G1 X140.945 Y130.449 E0.01821
G1 X141.672 Y131.176 E0.03365
G1 X141.538 Y131.439 E0.00967
G1 X141.458 Y131.519 E0.00368
G1 X140.945 Y131.005 E0.02377
G1 X140.945 Y131.562 E0.01821
G1 X141.300 Y131.917 E0.01644
G1 F8640.000
G1 X140.945 Y131.562 E-0.11600
G1 X140.945 Y131.005 E-0.12851
G1 X141.458 Y131.519 E-0.16769
G1 X141.538 Y131.439 E-0.02596
G1 X141.672 Y131.176 E-0.06825
G1 X140.945 Y130.449 E-0.23747
G1 X140.945 Y130.379 E-0.01611
G1 E-0.04000 F2100.00000
G1 Z0.800 F10800.000
G1 X127.483 Y121.300
G1 Z0.200
G1 E0.80000 F2100.00000
G1 F1200.000
G1 X126.612 Y122.354 E0.04287
G1 X125.615 Y123.290 E0.04288
G1 X124.509 Y124.094 E0.04287
G1 X123.310 Y124.752 E0.04287
G1 X122.039 Y125.256 E0.04287
G1 X120.714 Y125.596 E0.04287
G1 X119.358 Y125.767 E0.04287
G1 X117.790 Y125.767 E0.04914
G1 X116.434 Y125.596 E0.04287
G1 X115.109 Y125.256 E0.04288
G1 X113.838 Y124.752 E0.04287
G1 X112.640 Y124.094 E0.04287
G1 X111.533 Y123.290 E0.04287
G1 X110.537 Y122.354 E0.04287
G1 X109.665 Y121.300 E0.04287
G1 X108.932 Y120.146 E0.04287
G1 X108.350 Y118.908 E0.04287
G1 X107.928 Y117.608 E0.04287
G1 X107.671 Y116.265 E0.04287
G1 X107.587 Y114.925 E0.04210
G1 X107.587 Y95.075 E0.62237
G1 X107.671 Y93.735 E0.04210
G1 X107.928 Y92.392 E0.04287
G1 X108.350 Y91.092 E0.04287
G1 X108.932 Y89.854 E0.04287
G1 X109.665 Y88.700 E0.04287
G1 X110.537 Y87.646 E0.04287
G1 X111.533 Y86.710 E0.04287
G1 X112.640 Y85.906 E0.04287
G1 X113.838 Y85.248 E0.04287
G1 X115.109 Y84.744 E0.04287
G1 X116.434 Y84.404 E0.04287
G1 X117.790 Y84.233 E0.04287
G1 X119.358 Y84.233 E0.04914
G1 X120.714 Y84.404 E0.04287
G1 X122.039 Y84.744 E0.04287
G1 X123.310 Y85.248 E0.04287
G1 X124.509 Y85.906 E0.04287
G1 X125.615 Y86.710 E0.04287
G1 X126.612 Y87.646 E0.04287
G1 X127.473 Y88.687 E0.04236
G1 X128.216 Y89.854 E0.04337
G1 X128.798 Y91.092 E0.04289
G1 X129.221 Y92.392 E0.04287
G1 X129.477 Y93.735 E0.04287
G1 X129.561 Y95.075 E0.04210
G1 X129.561 Y114.925 E0.62237
G1 X129.477 Y116.265 E0.04210
G1 X129.221 Y117.608 E0.04287
G1 X128.798 Y118.908 E0.04287
G1 X128.216 Y120.146 E0.04287
G1 X127.515 Y121.250 E0.04099
G1 X127.197 Y121.047 F10800.000
G1 F1200.000
G1 X126.336 Y122.095 E0.04252
G1 X125.374 Y122.999 E0.04139
G1 X124.306 Y123.775 E0.04138
G1 X123.149 Y124.410 E0.04138
G1 X121.922 Y124.896 E0.04139
G1 X120.644 Y125.225 E0.04139
G1 X119.334 Y125.390 E0.04139
G1 X117.814 Y125.390 E0.04766
G1 X116.505 Y125.225 E0.04139
G1 X115.226 Y124.896 E0.04139
G1 X113.999 Y124.410 E0.04138
G1 X112.842 Y123.775 E0.04139
G1 X111.774 Y122.999 E0.04139
G1 X110.812 Y122.095 E0.04139
G1 X109.971 Y121.078 E0.04139
G1 X109.263 Y119.964 E0.04139
G1 X108.701 Y118.769 E0.04139
G1 X108.294 Y117.514 E0.04139
G1 X108.046 Y116.217 E0.04139
G1 X107.964 Y114.913 E0.04098
G1 X107.964 Y95.087 E0.62162
G1 X108.046 Y93.783 E0.04098
G1 X108.294 Y92.486 E0.04139
G1 X108.701 Y91.231 E0.04139
G1 X109.263 Y90.036 E0.04139
G1 X109.971 Y88.922 E0.04139
G1 X110.812 Y87.905 E0.04139
G1 X111.774 Y87.001 E0.04139
G1 X112.842 Y86.225 E0.04139
G1 X113.999 Y85.590 E0.04139
G1 X115.226 Y85.104 E0.04139
G1 X116.505 Y84.775 E0.04139
G1 X117.814 Y84.610 E0.04139
G1 X119.334 Y84.610 E0.04766
G1 X120.644 Y84.775 E0.04139
G1 X121.922 Y85.104 E0.04139
G1 X123.149 Y85.590 E0.04139
G1 X124.306 Y86.225 E0.04139
G1 X125.374 Y87.001 E0.04139
G1 X126.336 Y87.905 E0.04139
G1 X127.167 Y88.909 E0.04088
G1 X127.885 Y90.036 E0.04189
G1 X128.447 Y91.231 E0.04139
G1 X128.855 Y92.486 E0.04139
G1 X129.102 Y93.783 E0.04139
G1 X129.184 Y95.087 E0.04098
G1 X129.184 Y114.913 E0.62162
G1 X129.102 Y116.217 E0.04098
G1 X128.855 Y117.514 E0.04139
G1 X128.447 Y118.769 E0.04139
G1 X127.885 Y119.964 E0.04139
G1 X127.229 Y120.997 E0.03837
G1 X127.361 Y121.412 F10800.000
G1 F8640.000
G1 X126.336 Y122.095 E-0.32685
G1 X125.374 Y122.999 E-0.30483
G1 X124.924 Y123.325 E-0.12832
G1 E-0.04000 F2100.00000
G1 Z0.800 F10800.000
G1 X129.737 Y130.338
G1 Z0.200
G1 E0.80000 F2100.00000
G1 F1200.000
G1 X128.799 Y130.338 E0.02942
G1 X115.176 Y125.915 E0.44907
G1 X113.946 Y125.605 E0.03980
G1 X112.860 Y125.175 E0.03662
G1 X111.835 Y124.612 E0.03666
G1 X110.889 Y123.925 E0.03666
G1 X110.036 Y123.124 E0.03666
G1 X109.291 Y122.223 E0.03666
G1 X108.665 Y121.236 E0.03666
G1 X108.167 Y120.178 E0.03666
G1 X107.805 Y119.066 E0.03666
G1 X107.586 Y117.917 E0.03666
G1 X107.511 Y116.725 E0.03744
G1 X107.511 Y93.275 E0.73527
G1 X107.586 Y92.083 E0.03744
G1 X107.805 Y90.934 E0.03666
G1 X108.167 Y89.822 E0.03666
G1 X108.665 Y88.764 E0.03666
G1 X109.291 Y87.777 E0.03666
G1 X110.036 Y86.876 E0.03666
G1 X110.889 Y86.075 E0.03666
G1 X111.835 Y85.388 E0.03666
G1 X112.860 Y84.825 E0.03666
G1 X113.946 Y84.395 E0.03662
G1 X115.176 Y84.085 E0.03979
G1 X128.799 Y79.662 E0.44908
G1 X129.737 Y79.662 E0.02942
G1 X129.737 Y130.278 E1.58703
G1 X130.114 Y130.715 F10800.000
G1 F1200.000
G1 X128.739 Y130.715 E0.04312
G1 X115.072 Y126.278 E0.45054
G1 X113.830 Y125.965 E0.04017
G1 X112.699 Y125.517 E0.03814
G1 X111.632 Y124.931 E0.03815
G1 X110.648 Y124.216 E0.03815
G1 X109.761 Y123.383 E0.03815
G1 X108.985 Y122.445 E0.03815
G1 X108.333 Y121.418 E0.03815
G1 X107.815 Y120.317 E0.03815
G1 X107.439 Y119.160 E0.03815
G1 X107.211 Y117.964 E0.03815
G1 X107.134 Y116.737 E0.03856
G1 X107.134 Y93.263 E0.73602
G1 X107.211 Y92.036 E0.03856
G1 X107.439 Y90.840 E0.03815
G1 X107.815 Y89.683 E0.03815
G1 X108.333 Y88.582 E0.03815
G1 X108.985 Y87.555 E0.03815
G1 X109.761 Y86.617 E0.03815
G1 X110.648 Y85.784 E0.03815
G1 X111.632 Y85.069 E0.03815
G1 X112.699 Y84.483 E0.03815
G1 X113.830 Y84.035 E0.03814
G1 X115.072 Y83.722 E0.04016
G1 X128.739 Y79.285 E0.45055
G1 X130.114 Y79.285 E0.04312
G1 X130.114 Y130.655 E1.61068
G1 X129.766 Y130.518 F10800.000
G1 F8640.000
G1 X128.739 Y130.715 E-0.31782
G1 X126.918 Y130.124 E-0.44218
G1 E-0.04000 F2100.00000
G1 Z0.800 F10800.000
G1 X129.624 Y119.142
G1 Z0.200
G1 E0.80000 F2100.00000
G1 F1200.000
G1 X129.168 Y118.686 E0.02055
G1 X129.027 Y119.087 E0.01352
G1 X129.454 Y119.514 E0.01925
G1 X129.454 Y120.056 E0.01725
G1 X128.853 Y119.455 E0.02706
G1 X128.680 Y119.823 E0.01296
G1 X129.454 Y120.597 E0.03486
G1 X129.454 Y121.139 E0.01725
G1 X128.507 Y120.192 E0.04267
G1 X128.306 Y120.532 E0.01259
G1 X129.454 Y121.681 E0.05173
G1 X129.454 Y122.222 E0.01725
G1 X128.095 Y120.863 E0.06120
G1 X127.885 Y121.195 E0.01250
G1 X129.454 Y122.764 E0.07066
G1 X129.454 Y123.305 E0.01725
G1 X127.669 Y121.520 E0.08041
G1 X127.423 Y121.816 E0.01225
G1 X129.454 Y123.847 E0.09146
G1 X129.454 Y124.389 E0.01725
G1 X127.178 Y122.113 E0.10250
G1 X126.933 Y122.409 E0.01225
G1 X129.454 Y124.930 E0.11354
G1 X129.454 Y125.472 E0.01725
G1 X126.670 Y122.687 E0.12540
G1 X126.390 Y122.949 E0.01220
G1 X129.454 Y126.013 E0.13798
G1 X129.454 Y126.555 E0.01725
G1 X126.111 Y123.212 E0.15056
G1 X125.832 Y123.474 E0.01220
G1 X129.454 Y127.097 E0.16314
G1 X129.454 Y127.638 E0.01725
G1 X125.523 Y123.706 E0.17706
G1 X125.209 Y123.934 E0.01235
G1 X129.454 Y128.180 E0.19119
G1 X129.454 Y128.721 E0.01725
G1 X124.895 Y124.162 E0.20531
G1 X124.573 Y124.381 E0.01242
G1 X129.454 Y129.263 E0.21984
G1 X129.454 Y129.805 E0.01725
G1 X124.223 Y124.573 E0.23558
G1 X123.874 Y124.765 E0.01270
G1 X129.163 Y130.055 E0.23822
G1 X128.843 Y130.055 E0.01019
G1 X128.515 Y129.949 E0.01099
G1 X123.524 Y124.958 E0.22477
G1 X123.146 Y125.121 E0.01311
G1 X127.713 Y129.688 E0.20567
G1 X126.911 Y129.428 E0.02685
G1 X122.758 Y125.275 E0.18703
G1 X122.370 Y125.429 E0.01329
G1 X126.109 Y129.168 E0.16838
G1 X125.308 Y128.907 E0.02685
G1 X121.967 Y125.566 E0.15046
G1 X121.536 Y125.677 E0.01417
G1 X124.506 Y128.647 E0.13375
G1 X123.704 Y128.387 E0.02685
G1 X121.105 Y125.788 E0.11704
G1 X120.663 Y125.887 E0.01442
G1 X122.902 Y128.126 E0.10083
G1 X122.100 Y127.866 E0.02685
G1 X120.182 Y125.948 E0.08637
G1 X119.701 Y126.009 E0.01543
G1 X121.298 Y127.606 E0.07191
G1 X120.496 Y127.345 E0.02685
G1 X119.201 Y126.050 E0.05833
G1 X118.659 Y126.050 E0.01725
G1 X119.694 Y127.085 E0.04660
G1 X118.892 Y126.824 E0.02685
G1 X118.117 Y126.050 E0.03488
G1 X117.773 Y126.050 E0.01098
G1 X117.547 Y126.021 E0.00723
G1 X118.090 Y126.564 E0.02444
G1 X117.288 Y126.304 E0.02685
G1 X116.732 Y125.747 E0.02505
G1 X116.530 Y125.806 F10800.000
G1 F1200.000
G1 X116.341 Y125.930 E0.00520
G1 X115.266 Y125.617 E0.02577
G1 X114.376 Y125.347 E0.01900
G1 X113.847 Y125.161 E0.01756
G1 X113.227 Y125.199 F10800.000
G1 F1200.000
G1 X112.023 Y123.995 E0.06405
G1 X111.353 Y123.508 E0.03118
G1 X110.330 Y122.548 E0.05279
G1 X109.436 Y121.467 E0.05279
G1 X109.334 Y121.305 E0.00719
G1 X108.792 Y120.764 E0.02883
G1 X108.762 Y120.780 E0.00125
G1 X108.913 Y121.099 E0.01329
G1 X109.520 Y122.057 E0.04266
G1 X109.883 Y122.495 E0.02140
G1 X111.915 Y124.527 E0.10812
G1 F8640.000
G1 X109.883 Y122.495 E-0.66352
G1 X109.617 Y122.173 E-0.09648
G1 E-0.04000 F2100.00000
G1 Z0.800 F10800.000
G1 X108.714 Y120.483
G1 Z0.200
G1 E0.80000 F2100.00000
G1 F1200.000
G1 X108.496 Y120.047 E0.01348
G1 X108.360 Y119.704 E0.01020
G1 X108.224 Y119.361 E0.00868
G1 X108.088 Y119.018 E0.00726
G1 X107.986 Y118.629 E0.00638
G1 X107.892 Y118.263 E0.00450
G1 X107.798 Y117.896 E0.00304
G1 F8640.000
G1 X107.892 Y118.263 E-0.08731
G1 E-0.71269 F2100.00000
G1 Z0.800 F10800.000
G1 X129.390 Y118.213
G1 Z0.200
G1 E0.80000 F2100.00000
G1 F1200.000
G1 X129.418 Y118.035 E0.00413
G1 X129.446 Y117.856 E0.00350
G1 X129.474 Y117.678 E0.00286
G1 X129.501 Y117.403 E0.00341
G1 X129.526 Y117.137 E0.00218
G1 F8640.000
G1 X129.501 Y117.403 E-0.06164
G1 E-0.73836 F2100.00000
G1 Z0.800 F10800.000
G1 X129.526 Y92.863
G1 Z0.200
G1 E0.80000 F2100.00000
M73 Q1 S104
M73 P1 R104
G1 F1200.000
G1 X129.446 Y92.144 E0.00591
G1 X129.390 Y91.787 E0.00700
G1 X128.873 Y90.986 F10800.000
G1 F1200.000
G1 X129.388 Y91.501 E0.02284
G1 X129.454 Y91.490 E0.00209
G1 X129.454 Y91.033 E0.01433
G1 X128.753 Y90.332 E0.03108
G1 X128.464 Y89.717 E0.02132
G1 X128.100 Y89.146 E0.02124
G1 X129.624 Y90.670 E0.06757
G1 F8640.000
G1 X128.100 Y89.146 E-0.49762
G1 X128.464 Y89.717 E-0.15642
G1 X128.659 Y90.132 E-0.10596
G1 E-0.04000 F2100.00000
G1 Z0.800 F10800.000
G1 X129.624 Y80.537
G1 Z0.200
G1 E0.80000 F2100.00000
G1 F1200.000
G1 X129.031 Y79.945 E0.02628
G1 X128.843 Y79.945 E0.00589
G1 X128.583 Y80.029 E0.00860
G1 X129.454 Y80.901 E0.03865
G1 X129.454 Y81.434 E0.01672
G1 X128.180 Y80.160 E0.05650
G1 X127.778 Y80.291 E0.01327
G1 X129.454 Y81.968 E0.07435
G1 X129.454 Y82.501 E0.01672
G1 X127.375 Y80.421 E0.09220
G1 X126.972 Y80.552 E0.01327
G1 X129.454 Y83.034 E0.11005
G1 X129.454 Y83.567 E0.01672
G1 X126.570 Y80.683 E0.12790
G1 X126.167 Y80.814 E0.01327
G1 X129.454 Y84.101 E0.14576
G1 X129.454 Y84.634 E0.01672
G1 X125.765 Y80.944 E0.16361
G1 X125.362 Y81.075 E0.01327
G1 X129.454 Y85.167 E0.18146
G1 X129.454 Y85.700 E0.01672
G1 X124.960 Y81.206 E0.19931
G1 X124.557 Y81.336 E0.01327
G1 X129.454 Y86.234 E0.21716
G1 X129.454 Y86.767 E0.01672
G1 X124.154 Y81.467 E0.23501
G1 X123.752 Y81.598 E0.01327
G1 X129.454 Y87.300 E0.25287
G1 X129.454 Y87.834 E0.01672
G1 X123.349 Y81.728 E0.27072
G1 X122.947 Y81.859 E0.01327
G1 X129.454 Y88.367 E0.28857
G1 X129.454 Y88.900 E0.01672
G1 X122.544 Y81.990 E0.30642
G1 X122.141 Y82.121 E0.01327
G1 X129.454 Y89.433 E0.32427
G1 X129.454 Y89.967 E0.01672
G1 X121.739 Y82.251 E0.34212
G1 X121.336 Y82.382 E0.01327
G1 X124.574 Y85.620 E0.14356
G1 X123.400 Y84.979 E0.04193
G1 X120.934 Y82.513 E0.10936
G1 X120.531 Y82.643 E0.01327
G1 X122.517 Y84.630 E0.08807
G1 X122.127 Y84.475 E0.01318
G1 X121.727 Y84.372 E0.01295
G1 X120.129 Y82.774 E0.07086
G1 X119.726 Y82.905 E0.01327
G1 X121.009 Y84.188 E0.05690
G1 X120.768 Y84.126 E0.00782
G1 X120.363 Y84.075 E0.01280
G1 X119.323 Y83.036 E0.04608
G1 X118.921 Y83.166 E0.01327
G1 X119.752 Y83.998 E0.03687
G1 X119.376 Y83.950 E0.01190
G1 X119.171 Y83.950 E0.00641
G1 X118.518 Y83.297 E0.02896
G1 X118.116 Y83.428 E0.01327
G1 X118.638 Y83.950 E0.02317
