; generated by PrusaSlicer 2.2.0+ on 2020-09-09 at 21:32:29 UTC

; 

; external perimeters extrusion width = 0.45mm
; perimeters extrusion width = 0.45mm
; infill extrusion width = 0.45mm
; solid infill extrusion width = 0.45mm
; top infill extrusion width = 0.40mm
; first layer extrusion width = 0.42mm

M73 P0 R138
M73 Q0 S141
M201 X1000 Y1000 Z1000 E5000 ; sets maximum accelerations, mm/sec^2
M203 X200 Y200 Z12 E120 ; sets maximum feedrates, mm/sec
M204 P1250 R1250 T1250 ; sets acceleration (P, T) and retract acceleration (R), mm/sec^2
M205 X8.00 Y8.00 Z0.40 E4.50 ; sets the jerk limits, mm/sec
M205 S0 T0 ; sets the minimum extruding and travel feed rate, mm/sec
M107
M862.3 P "MK3SMMU2S" ; printer model check
M862.1 P0.4 ; nozzle diameter check
M115 U3.8.1 ; tell printer latest fw version
G90 ; use absolute coordinates
M83 ; extruder relative mode
M104 S215 ; set extruder temp
M140 S60 ; set bed temp
Tx
M190 S60 ; wait for bed temp
M109 S215 ; wait for extruder temp
G28 W ; home all without mesh bed level
G80 ; mesh bed leveling

;go outside print area
G1 Y-3.0 F1000.0
G1 Z0.4 F1000.0
; select extruder
Tc
; purge line
G1 X55.0 F2000.0
G1 Z0.3 F1000.0
G92 E0.0
G1 X240.0 E25.0 F2200.0
M73 Q0 S141
M73 P0 R137
G1 Y-2.0 F1000.0
G1 X55.0 E25 F1400.0
G1 Z0.20 F1000.0
G1 X5.0 E4.0 F1000.0

M221 S95
G92 E0.0
G21 ; set units to millimeters
G90 ; use absolute coordinates
M83 ; use relative distances for extrusion
M900 K0.06 ; Filament gcode LA 1.5
M900 K30 ; Filament gcode LA 1.0
;BEFORE_LAYER_CHANGE
G92 E0.0
;0.2


G1 E-0.80000 F2100.00000
G1 Z0.600 F10800.000
;AFTER_LAYER_CHANGE
;0.2
G1 X65.679 Y73.283
G1 Z0.200
G1 E0.80000 F2100.00000
M204 S1000
G1 F1200.000
G1 X67.863 Y72.948 E0.06928
G1 X184.726 Y72.948 E3.66416
G1 X186.271 Y73.111 E0.04872
G1 X187.736 Y73.585 E0.04829
G1 X189.086 Y74.358 E0.04876
G1 X190.165 Y75.313 E0.04519
G1 X191.156 Y76.636 E0.05183
G1 X191.758 Y77.946 E0.04520
G1 X191.893 Y78.418 E0.01538
G1 X192.176 Y80.291 E0.05941
G1 X192.176 Y146.563 E2.07793
G1 X191.957 Y148.219 E0.05236
G1 X191.535 Y149.477 E0.04161
G1 X190.888 Y150.624 E0.04126
G1 X189.755 Y151.947 E0.05464
G1 X188.524 Y152.860 E0.04805
G1 X186.925 Y153.568 E0.05482
G1 X184.741 Y153.902 E0.06927
G1 X67.832 Y153.902 E3.66559
G1 X66.281 Y153.728 E0.04895
G1 X64.633 Y153.148 E0.05478
G1 X63.497 Y152.477 E0.04138
G1 X62.499 Y151.596 E0.04171
G1 X61.468 Y150.247 E0.05325
G1 X60.760 Y148.648 E0.05482
G1 X60.425 Y146.480 E0.06880
G1 X60.426 Y80.325 E2.07423
G1 X60.601 Y78.797 E0.04824
G1 X61.183 Y77.151 E0.05475
G1 X61.851 Y76.020 E0.04117
G1 X62.731 Y75.023 E0.04171
G1 X64.081 Y73.991 E0.05326
G1 X65.624 Y73.307 E0.05292
G1 F8640.000
G1 X67.863 Y72.948 E-0.52360
G1 X68.887 Y72.948 E-0.23640
G1 E-0.04000 F2100.00000
G1 Z0.800 F10800.000
G1 X66.538 Y76.335
G1 Z0.200
G1 E0.80000 F2100.00000
G1 F1200.000
G1 X67.944 Y76.113 E0.04464
G1 X184.704 Y76.115 E3.66092
G1 X185.614 Y76.211 E0.02869
G1 X186.466 Y76.488 E0.02811
G1 X187.243 Y76.936 E0.02811
G1 X187.909 Y77.536 E0.02811
G1 X188.436 Y78.261 E0.02811
G1 X188.792 Y79.061 E0.02745
G1 X189.015 Y80.467 E0.04464
G1 X189.015 Y146.404 E2.06740
G1 X188.917 Y147.337 E0.02941
G1 X188.640 Y148.190 E0.02811
G1 X188.191 Y148.966 E0.02811
G1 X187.592 Y149.633 E0.02811
G1 X186.866 Y150.160 E0.02811
G1 X186.066 Y150.516 E0.02746
G1 X184.660 Y150.738 E0.04464
G1 X67.923 Y150.738 E3.66020
G1 X66.990 Y150.640 E0.02941
G1 X66.138 Y150.363 E0.02811
G1 X65.361 Y149.915 E0.02811
G1 X64.695 Y149.315 E0.02811
G1 X64.168 Y148.590 E0.02811
G1 X63.812 Y147.790 E0.02746
G1 X63.589 Y146.384 E0.04464
G1 X63.589 Y80.447 E2.06740
G1 X63.687 Y79.514 E0.02941
G1 X63.964 Y78.661 E0.02811
G1 X64.413 Y77.885 E0.02811
G1 X65.012 Y77.218 E0.02811
G1 X65.738 Y76.691 E0.02811
G1 X66.483 Y76.360 E0.02558
G1 X66.330 Y76.015 F10800.000
G1 F1200.000
G1 X66.430 Y75.971 E0.00344
G1 X67.914 Y75.735 E0.04713
G1 X184.723 Y75.738 E3.66247
G1 X185.692 Y75.840 E0.03055
G1 X186.621 Y76.141 E0.03060
G1 X187.466 Y76.629 E0.03060
G1 X188.191 Y77.282 E0.03060
G1 X188.765 Y78.072 E0.03060
G1 X189.157 Y78.953 E0.03025
G1 X189.392 Y80.438 E0.04713
G1 X189.392 Y146.424 E2.06895
M73 Q0 S140
M73 P0 R136
G1 X189.288 Y147.416 E0.03127
G1 X188.986 Y148.344 E0.03060
G1 X188.498 Y149.189 E0.03060
G1 X187.845 Y149.914 E0.03059
G1 X187.056 Y150.488 E0.03060
G1 X186.174 Y150.880 E0.03026
G1 X184.690 Y151.115 E0.04713
G1 X67.903 Y151.115 E3.66175
G1 X66.912 Y151.011 E0.03127
G1 X65.983 Y150.710 E0.03060
G1 X65.138 Y150.222 E0.03060
G1 X64.413 Y149.569 E0.03059
G1 X63.840 Y148.779 E0.03060
G1 X63.447 Y147.898 E0.03026
G1 X63.212 Y146.413 E0.04713
G1 X63.212 Y80.427 E2.06895
G1 X63.316 Y79.435 E0.03127
G1 X63.618 Y78.507 E0.03060
G1 X64.106 Y77.662 E0.03060
G1 X64.759 Y76.937 E0.03059
G1 X65.548 Y76.363 E0.03060
G1 X66.275 Y76.040 E0.02494
G1 X66.421 Y76.076 F10800.000
G1 F8640.000
G1 X66.430 Y75.971 E-0.03917
G1 X67.914 Y75.735 E-0.34706
G1 X69.533 Y75.735 E-0.37377
G1 E-0.04000 F2100.00000
G1 Z0.800 F10800.000
G1 X188.711 Y79.272
G1 Z0.200
G1 E0.80000 F2100.00000
G1 F1200.000
G1 X186.107 Y76.668 E0.11550
G1 X185.554 Y76.489 E0.01824
G1 X185.375 Y76.470 E0.00565
G1 X188.607 Y79.702 E0.14336
G1 X188.708 Y80.336 E0.02013
G1 X184.779 Y76.407 E0.17426
G1 X184.236 Y76.398 E0.01704
G1 X188.732 Y80.894 E0.19944
G1 X188.732 Y81.427 E0.01673
G1 X183.703 Y76.398 E0.22310
G1 X183.169 Y76.398 E0.01673
G1 X188.732 Y81.961 E0.24677
G1 X188.732 Y82.494 E0.01673
G1 X182.636 Y76.398 E0.27044
G1 X182.102 Y76.398 E0.01673
G1 X188.732 Y83.028 E0.29410
G1 X188.732 Y83.561 E0.01673
G1 X181.569 Y76.398 E0.31777
G1 X181.035 Y76.398 E0.01673
G1 X188.732 Y84.095 E0.34143
G1 X188.732 Y84.628 E0.01673
G1 X180.502 Y76.398 E0.36510
G1 X179.968 Y76.398 E0.01673
G1 X188.732 Y85.162 E0.38877
G1 X188.732 Y85.695 E0.01673
G1 X179.435 Y76.398 E0.41243
G1 X178.901 Y76.398 E0.01673
G1 X188.732 Y86.228 E0.43610
G1 X188.732 Y86.762 E0.01673
G1 X178.368 Y76.398 E0.45977
G1 X177.834 Y76.398 E0.01673
G1 X188.732 Y87.295 E0.48343
G1 X188.732 Y87.829 E0.01673
G1 X177.301 Y76.398 E0.50710
G1 X176.767 Y76.398 E0.01673
G1 X188.732 Y88.362 E0.53077
G1 X188.732 Y88.896 E0.01673
G1 X176.234 Y76.398 E0.55443
G1 X175.700 Y76.398 E0.01673
G1 X188.732 Y89.429 E0.57810
G1 X188.732 Y89.963 E0.01673
G1 X175.167 Y76.398 E0.60177
G1 X174.633 Y76.398 E0.01673
G1 X188.732 Y90.496 E0.62543
G1 X188.732 Y91.030 E0.01673
G1 X174.100 Y76.398 E0.64910
G1 X173.566 Y76.398 E0.01673
G1 X188.732 Y91.563 E0.67277
G1 X188.732 Y92.097 E0.01673
G1 X173.033 Y76.397 E0.69643
G1 X172.499 Y76.397 E0.01673
G1 X188.732 Y92.630 E0.72010
G1 X188.732 Y93.164 E0.01673
G1 X171.966 Y76.397 E0.74376
G1 X171.432 Y76.397 E0.01673
G1 X188.732 Y93.697 E0.76743
G1 X188.732 Y94.231 E0.01673
G1 X170.899 Y76.397 E0.79110
G1 X170.365 Y76.397 E0.01673
G1 X188.732 Y94.764 E0.81476
G1 X188.732 Y95.298 E0.01673
G1 X169.832 Y76.397 E0.83843
G1 X169.298 Y76.397 E0.01673
G1 X188.732 Y95.831 E0.86210
G1 X188.732 Y96.365 E0.01673
G1 X168.765 Y76.397 E0.88576
G1 X168.231 Y76.397 E0.01673
G1 X188.732 Y96.898 E0.90943
G1 X188.732 Y97.432 E0.01673
G1 X167.698 Y76.397 E0.93310
G1 X167.164 Y76.397 E0.01673
G1 X188.732 Y97.965 E0.95676
G1 X188.732 Y98.499 E0.01673
G1 X166.631 Y76.397 E0.98043
G1 X166.097 Y76.397 E0.01673
G1 X188.732 Y99.032 E1.00410
G1 X188.732 Y99.566 E0.01673
G1 X165.564 Y76.397 E1.02776
G1 X165.030 Y76.397 E0.01673
G1 X188.732 Y100.099 E1.05143
G1 X188.732 Y100.633 E0.01673
G1 X164.497 Y76.397 E1.07510
G1 X163.963 Y76.397 E0.01673
G1 X188.732 Y101.166 E1.09876
G1 X188.732 Y101.700 E0.01673
G1 X163.430 Y76.397 E1.12243
G1 X162.896 Y76.397 E0.01673
G1 X188.732 Y102.233 E1.14610
G1 X188.732 Y102.767 E0.01673
G1 X162.363 Y76.397 E1.16976
G1 X161.829 Y76.397 E0.01673
G1 X188.732 Y103.300 E1.19343
M73 Q1 S139
M73 P1 R135
G1 X188.732 Y103.834 E0.01673
G1 X161.296 Y76.397 E1.21709
G1 X160.762 Y76.397 E0.01673
G1 X188.732 Y104.367 E1.24076
G1 X188.732 Y104.901 E0.01673
G1 X160.229 Y76.397 E1.26443
G1 X159.695 Y76.397 E0.01673
G1 X188.732 Y105.434 E1.28809
G1 X188.732 Y105.968 E0.01673
G1 X159.162 Y76.397 E1.31176
G1 X158.628 Y76.397 E0.01673
G1 X188.732 Y106.501 E1.33543
G1 X188.732 Y107.035 E0.01673
G1 X158.095 Y76.397 E1.35909
G1 X157.561 Y76.397 E0.01673
G1 X188.732 Y107.568 E1.38276
G1 X188.732 Y108.102 E0.01673
G1 X157.028 Y76.397 E1.40643
G1 X156.494 Y76.397 E0.01673
G1 X188.732 Y108.635 E1.43009
G1 X188.732 Y109.169 E0.01673
G1 X155.960 Y76.397 E1.45376
G1 X155.427 Y76.397 E0.01673
G1 X188.732 Y109.702 E1.47743
G1 X188.732 Y110.236 E0.01673
G1 X154.893 Y76.397 E1.50109
G1 X154.360 Y76.397 E0.01673
G1 X188.732 Y110.769 E1.52476
G1 X188.732 Y111.303 E0.01673
G1 X153.826 Y76.397 E1.54843
G1 X153.293 Y76.397 E0.01673
G1 X188.732 Y111.836 E1.57209
G1 X188.732 Y112.370 E0.01673
G1 X152.759 Y76.397 E1.59576
G1 X152.226 Y76.397 E0.01673
G1 X188.732 Y112.903 E1.61943
G1 X188.732 Y113.437 E0.01673
G1 X151.692 Y76.397 E1.64309
G1 X151.159 Y76.397 E0.01673
G1 X188.732 Y113.970 E1.66676
G1 X188.732 Y114.504 E0.01673
G1 X150.625 Y76.397 E1.69042
G1 X150.092 Y76.397 E0.01673
G1 X188.732 Y115.037 E1.71409
G1 X188.732 Y115.571 E0.01673
G1 X149.558 Y76.397 E1.73776
G1 X149.025 Y76.397 E0.01673
G1 X188.732 Y116.104 E1.76142
G1 X188.732 Y116.638 E0.01673
G1 X148.491 Y76.397 E1.78509
M73 Q2 S138
M73 P2 R134
G1 X147.958 Y76.397 E0.01673
G1 X188.732 Y117.171 E1.80876
G1 X188.732 Y117.705 E0.01673
G1 X147.424 Y76.397 E1.83242
G1 X146.891 Y76.397 E0.01673
G1 X188.732 Y118.238 E1.85609
G1 X188.732 Y118.772 E0.01673
G1 X146.357 Y76.397 E1.87976
G1 X145.824 Y76.397 E0.01673
G1 X188.732 Y119.305 E1.90342
G1 X188.732 Y119.839 E0.01673
G1 X145.290 Y76.397 E1.92709
G1 X144.757 Y76.397 E0.01673
G1 X188.732 Y120.372 E1.95076
G1 X188.732 Y120.906 E0.01673
G1 X144.223 Y76.397 E1.97442
G1 X143.690 Y76.397 E0.01673
G1 X188.732 Y121.439 E1.99809
G1 X188.732 Y121.973 E0.01673
G1 X143.156 Y76.397 E2.02176
G1 X142.623 Y76.397 E0.01673
G1 X188.732 Y122.506 E2.04542
G1 X188.732 Y123.040 E0.01673
G1 X142.089 Y76.397 E2.06909
G1 X141.556 Y76.397 E0.01673
G1 X188.732 Y123.573 E2.09275
G1 X188.732 Y124.107 E0.01673
G1 X141.022 Y76.397 E2.11642
G1 X140.489 Y76.397 E0.01673
G1 X188.732 Y124.640 E2.14009
G1 X188.732 Y125.174 E0.01673
G1 X139.955 Y76.397 E2.16375
G1 X139.422 Y76.397 E0.01673
G1 X188.732 Y125.707 E2.18742
G1 X188.732 Y126.241 E0.01673
G1 X138.888 Y76.397 E2.21109
G1 X138.355 Y76.397 E0.01673
G1 X188.732 Y126.774 E2.23475
M73 Q3 S137
M73 P3 R133
G1 X188.732 Y127.308 E0.01673
G1 X137.821 Y76.397 E2.25842
G1 X137.288 Y76.397 E0.01673
G1 X188.732 Y127.841 E2.28209
G1 X188.732 Y128.375 E0.01673
G1 X136.754 Y76.397 E2.30575
G1 X136.221 Y76.397 E0.01673
G1 X188.732 Y128.908 E2.32942
G1 X188.732 Y129.442 E0.01673
G1 X135.687 Y76.397 E2.35309
G1 X135.154 Y76.397 E0.01673
G1 X188.732 Y129.975 E2.37675
G1 X188.732 Y130.509 E0.01673
G1 X134.620 Y76.397 E2.40042
G1 X134.087 Y76.397 E0.01673
G1 X188.732 Y131.042 E2.42409
G1 X188.732 Y131.576 E0.01673
G1 X133.553 Y76.397 E2.44775
G1 X133.020 Y76.397 E0.01673
G1 X188.732 Y132.109 E2.47142
G1 X188.732 Y132.643 E0.01673
G1 X132.486 Y76.397 E2.49509
G1 X131.953 Y76.397 E0.01673
G1 X188.732 Y133.176 E2.51875
G1 X188.732 Y133.710 E0.01673
G1 X131.419 Y76.397 E2.54242
G1 X130.886 Y76.397 E0.01673
G1 X188.732 Y134.243 E2.56608
G1 X188.732 Y134.777 E0.01673
G1 X130.352 Y76.397 E2.58975
G1 X129.819 Y76.397 E0.01673
G1 X188.732 Y135.310 E2.61342
M73 Q3 S136
M73 P3 R132
G1 X188.732 Y135.844 E0.01673
G1 X129.285 Y76.397 E2.63708
G1 X128.752 Y76.397 E0.01673
G1 X188.732 Y136.377 E2.66075
G1 X188.732 Y136.911 E0.01673
G1 X128.218 Y76.397 E2.68442
G1 X127.685 Y76.397 E0.01673
G1 X188.732 Y137.444 E2.70808
G1 X188.732 Y137.978 E0.01673
G1 X127.151 Y76.397 E2.73175
G1 X126.618 Y76.397 E0.01673
G1 X188.732 Y138.511 E2.75542
G1 X188.732 Y139.045 E0.01673
G1 X126.084 Y76.397 E2.77908
G1 X125.551 Y76.397 E0.01673
G1 X188.732 Y139.578 E2.80275
G1 X188.732 Y140.111 E0.01673
G1 X125.017 Y76.397 E2.82642
G1 X124.484 Y76.396 E0.01673
G1 X188.732 Y140.645 E2.85008
G1 X188.732 Y141.178 E0.01673
G1 X123.950 Y76.396 E2.87375
G1 X123.417 Y76.396 E0.01673
G1 X188.732 Y141.712 E2.89742
G1 X188.732 Y142.245 E0.01673
G1 X122.883 Y76.396 E2.92108
G1 X122.350 Y76.396 E0.01673
G1 X188.732 Y142.779 E2.94475
M73 Q4 S135
M73 P4 R131
G1 X188.732 Y143.312 E0.01673
G1 X121.816 Y76.396 E2.96841
G1 X121.283 Y76.396 E0.01673
G1 X188.732 Y143.846 E2.99208
G1 X188.732 Y144.379 E0.01673
G1 X120.749 Y76.396 E3.01575
G1 X120.216 Y76.396 E0.01673
G1 X188.732 Y144.913 E3.03941
G1 X188.732 Y145.446 E0.01673
G1 X119.682 Y76.396 E3.06308
G1 X119.149 Y76.396 E0.01673
G1 X188.732 Y145.980 E3.08675
G1 X188.720 Y146.502 E0.01637
G1 X118.615 Y76.396 E3.10989
G1 X118.082 Y76.396 E0.01673
G1 X188.670 Y146.984 E3.13131
G1 X188.639 Y147.278 E0.00926
G1 X188.587 Y147.436 E0.00521
G1 X117.548 Y76.396 E3.15133
G1 X117.015 Y76.396 E0.01673
G1 X188.457 Y147.838 E3.16919
G1 X188.380 Y148.074 E0.00777
G1 X188.299 Y148.214 E0.00508
G1 X116.481 Y76.396 E3.18587
G1 X115.948 Y76.396 E0.01673
G1 X188.104 Y148.553 E3.20087
G1 X187.961 Y148.799 E0.00893
G1 X187.893 Y148.875 E0.00321
G1 X115.414 Y76.396 E3.21519
M73 Q5 S133
M73 P5 R130
G1 X114.881 Y76.396 E0.01673
G1 X187.640 Y149.156 E3.22764
G1 X187.384 Y149.434 E0.01184
G1 X114.347 Y76.396 E3.23996
G1 X113.814 Y76.396 E0.01673
G1 X187.075 Y149.658 E3.24992
G1 X186.766 Y149.883 E0.01198
G1 X113.280 Y76.396 E3.25988
G1 X112.747 Y76.396 E0.01673
G1 X186.405 Y150.055 E3.26753
G1 X186.036 Y150.219 E0.01268
G1 X112.213 Y76.396 E3.27482
G1 X111.679 Y76.396 E0.01673
G1 X185.588 Y150.305 E3.27862
G1 X185.128 Y150.378 E0.01463
G1 X111.146 Y76.396 E3.28185
G1 X110.612 Y76.396 E0.01673
G1 X184.667 Y150.451 E3.28509
G1 X184.138 Y150.456 E0.01659
G1 X110.079 Y76.396 E3.28530
G1 X109.545 Y76.396 E0.01673
G1 X183.605 Y150.456 E3.28530
G1 X183.071 Y150.456 E0.01673
G1 X109.012 Y76.396 E3.28530
M73 Q6 S132
M73 P6 R129
G1 X108.478 Y76.396 E0.01673
G1 X182.538 Y150.456 E3.28530
G1 X182.004 Y150.456 E0.01673
G1 X107.945 Y76.396 E3.28530
G1 X107.411 Y76.396 E0.01673
G1 X181.471 Y150.456 E3.28530
G1 X180.937 Y150.456 E0.01673
G1 X106.878 Y76.396 E3.28530
G1 X106.344 Y76.396 E0.01673
G1 X180.404 Y150.456 E3.28530
G1 X179.870 Y150.456 E0.01673
G1 X105.811 Y76.396 E3.28530
G1 X105.277 Y76.396 E0.01673
G1 X179.337 Y150.456 E3.28530
G1 X178.803 Y150.456 E0.01673
G1 X104.744 Y76.396 E3.28530
G1 X104.210 Y76.396 E0.01673
G1 X178.270 Y150.456 E3.28530
G1 X177.736 Y150.456 E0.01673
G1 X103.677 Y76.396 E3.28530
G1 X103.143 Y76.396 E0.01673
G1 X177.203 Y150.456 E3.28530
G1 X176.669 Y150.456 E0.01673
G1 X102.610 Y76.396 E3.28530
M73 Q6 S131
M73 P6 R128
G1 X102.076 Y76.396 E0.01673
G1 X176.136 Y150.456 E3.28530
G1 X175.602 Y150.456 E0.01673
G1 X101.543 Y76.396 E3.28530
G1 X101.009 Y76.396 E0.01673
G1 X175.069 Y150.456 E3.28530
G1 X174.535 Y150.456 E0.01673
G1 X100.476 Y76.396 E3.28530
G1 X99.942 Y76.396 E0.01673
G1 X174.002 Y150.456 E3.28531
G1 X173.468 Y150.456 E0.01673
G1 X99.409 Y76.396 E3.28531
G1 X98.875 Y76.396 E0.01673
G1 X172.935 Y150.456 E3.28531
G1 X172.401 Y150.456 E0.01673
G1 X98.342 Y76.396 E3.28531
G1 X97.808 Y76.396 E0.01673
G1 X171.868 Y150.456 E3.28531
G1 X171.334 Y150.456 E0.01673
G1 X97.275 Y76.396 E3.28531
G1 X96.741 Y76.396 E0.01673
G1 X170.801 Y150.456 E3.28531
G1 X170.267 Y150.456 E0.01673
G1 X96.208 Y76.396 E3.28531
M73 Q7 S130
M73 P7 R127
G1 X95.674 Y76.396 E0.01673
G1 X169.734 Y150.456 E3.28531
G1 X169.200 Y150.456 E0.01673
G1 X95.141 Y76.396 E3.28531
G1 X94.607 Y76.396 E0.01673
G1 X168.667 Y150.456 E3.28531
G1 X168.133 Y150.456 E0.01673
G1 X94.074 Y76.396 E3.28531
G1 X93.540 Y76.396 E0.01673
G1 X167.600 Y150.456 E3.28531
G1 X167.067 Y150.456 E0.01673
G1 X93.007 Y76.396 E3.28531
G1 X92.473 Y76.396 E0.01673
G1 X166.533 Y150.456 E3.28531
G1 X166.000 Y150.456 E0.01673
G1 X91.940 Y76.396 E3.28531
G1 X91.406 Y76.396 E0.01673
G1 X165.466 Y150.456 E3.28531
G1 X164.933 Y150.456 E0.01673
G1 X90.873 Y76.396 E3.28531
G1 X90.339 Y76.396 E0.01673
G1 X164.399 Y150.456 E3.28531
G1 X163.866 Y150.456 E0.01673
G1 X89.806 Y76.396 E3.28531
M73 Q8 S129
M73 P8 R126
G1 X89.272 Y76.396 E0.01673
