; generated by PrusaSlicer 2.2.0+ on 2020-09-08 at 23:28:02 UTC

; 

; external perimeters extrusion width = 0.45mm
; perimeters extrusion width = 0.45mm
; infill extrusion width = 0.45mm
; solid infill extrusion width = 0.45mm
; top infill extrusion width = 0.40mm
; first layer extrusion width = 0.42mm

M73 P0 R138
M73 Q0 S142
M201 X1000 Y1000 Z1000 E5000 ; sets maximum accelerations, mm/sec^2
M203 X200 Y200 Z12 E120 ; sets maximum feedrates, mm/sec
M204 P1250 R1250 T1250 ; sets acceleration (P, T) and retract acceleration (R), mm/sec^2
M205 X8.00 Y8.00 Z0.40 E4.50 ; sets the jerk limits, mm/sec
M205 S0 T0 ; sets the minimum extruding and travel feed rate, mm/sec
M107
M862.3 P "MK3SMMU2S" ; printer model check
M862.1 P0.4 ; nozzle diameter check
M115 U3.8.1 ; tell printer latest fw version
G90 ; use absolute coordinates
M83 ; extruder relative mode
M104 S215 ; set extruder temp
M140 S60 ; set bed temp
Tx
M190 S60 ; wait for bed temp
M109 S215 ; wait for extruder temp
G28 W ; home all without mesh bed level
G80 ; mesh bed leveling

;go outside print area
G1 Y-3.0 F1000.0
G1 Z0.4 F1000.0
; select extruder
Tc
; purge line
G1 X55.0 F2000.0
G1 Z0.3 F1000.0
G92 E0.0
G1 X240.0 E25.0 F2200.0
M73 Q0 S142
M73 P0 R138
G1 Y-2.0 F1000.0
G1 X55.0 E25 F1400.0
G1 Z0.20 F1000.0
G1 X5.0 E4.0 F1000.0

M221 S95
G92 E0.0
G21 ; set units to millimeters
G90 ; use absolute coordinates
M83 ; use relative distances for extrusion
M900 K0.06 ; Filament gcode LA 1.5
M900 K30 ; Filament gcode LA 1.0
;BEFORE_LAYER_CHANGE
G92 E0.0
;0.2


G1 E-0.80000 F2100.00000
G1 Z0.600 F10800.000
;AFTER_LAYER_CHANGE
;0.2
G1 X62.150 Y73.039
G1 Z0.200
G1 E0.80000 F2100.00000
M204 S1000
G1 F1200.000
G1 X62.797 Y72.948 E0.02048
G1 X189.806 Y72.948 E3.98227
G1 X190.708 Y73.128 E0.02884
G1 X191.472 Y73.633 E0.02872
G1 X191.987 Y74.390 E0.02872
G1 X192.179 Y75.290 E0.02884
G1 X192.179 Y151.560 E2.39138
G1 X192.095 Y152.150 E0.01870
G1 X191.870 Y152.698 E0.01858
G1 X191.515 Y153.173 E0.01858
G1 X191.051 Y153.548 E0.01870
G1 X190.454 Y153.811 E0.02048
G1 X189.807 Y153.903 E0.02048
G1 X62.787 Y153.902 E3.98263
G1 X62.192 Y153.823 E0.01882
G1 X61.639 Y153.599 E0.01870
G1 X61.157 Y153.241 E0.01882
G1 X60.780 Y152.775 E0.01882
G1 X60.517 Y152.181 E0.02036
G1 X60.425 Y151.538 E0.02036
G1 X60.425 Y75.303 E2.39031
G1 X60.506 Y74.712 E0.01870
G1 X60.731 Y74.159 E0.01870
G1 X61.089 Y73.678 E0.01882
G1 X61.553 Y73.303 E0.01870
G1 X62.096 Y73.064 E0.01860
G1 F8640.000
G1 X62.797 Y72.948 E-0.16417
G1 X65.378 Y72.948 E-0.59583
G1 E-0.04000 F2100.00000
G1 Z0.800 F10800.000
G1 X63.589 Y76.113
G1 Z0.200
G1 E0.80000 F2100.00000
G1 F1200.000
G1 X189.015 Y76.113 E3.93264
G1 X189.015 Y150.738 E2.33984
G1 X63.589 Y150.738 E3.93264
G1 X63.589 Y76.173 E2.33796
G1 X63.212 Y75.735 F10800.000
G1 F1200.000
G1 X189.392 Y75.735 E3.95629
G1 X189.392 Y151.115 E2.36349
M73 Q0 S140
M73 P0 R137
G1 X63.212 Y151.115 E3.95629
G1 X63.212 Y75.795 E2.36161
G1 X63.606 Y75.807 F10800.000
G1 F8640.000
G1 X66.503 Y75.794 E-0.76000
G1 E-0.04000 F2100.00000
G1 Z0.800 F10800.000
G1 X188.902 Y76.989
G1 Z0.200
G1 E0.80000 F2100.00000
G1 F1200.000
G1 X188.308 Y76.395 E0.02635
G1 X187.774 Y76.395 E0.01676
G1 X188.732 Y77.353 E0.04252
G1 X188.732 Y77.887 E0.01676
G1 X187.241 Y76.395 E0.06622
G1 X186.707 Y76.395 E0.01676
G1 X188.732 Y78.421 E0.08992
G1 X188.732 Y78.955 E0.01676
G1 X186.173 Y76.395 E0.11362
G1 X185.639 Y76.395 E0.01676
G1 X188.732 Y79.489 E0.13732
G1 X188.732 Y80.022 E0.01676
G1 X185.105 Y76.395 E0.16102
G1 X184.571 Y76.395 E0.01676
G1 X188.732 Y80.556 E0.18472
G1 X188.732 Y81.090 E0.01676
G1 X184.037 Y76.395 E0.20842
G1 X183.503 Y76.395 E0.01676
G1 X188.732 Y81.624 E0.23212
G1 X188.732 Y82.158 E0.01676
G1 X182.969 Y76.395 E0.25582
G1 X182.436 Y76.395 E0.01676
G1 X188.732 Y82.692 E0.27952
G1 X188.732 Y83.226 E0.01676
G1 X181.902 Y76.395 E0.30323
G1 X181.368 Y76.395 E0.01676
G1 X188.732 Y83.760 E0.32693
G1 X188.732 Y84.294 E0.01676
G1 X180.834 Y76.395 E0.35063
G1 X180.300 Y76.395 E0.01676
G1 X188.732 Y84.827 E0.37433
G1 X188.732 Y85.361 E0.01676
G1 X179.766 Y76.395 E0.39803
G1 X179.232 Y76.395 E0.01676
G1 X188.732 Y85.895 E0.42173
G1 X188.732 Y86.429 E0.01676
G1 X178.698 Y76.395 E0.44543
G1 X178.164 Y76.395 E0.01676
G1 X188.732 Y86.963 E0.46913
G1 X188.732 Y87.497 E0.01676
G1 X177.631 Y76.395 E0.49283
G1 X177.097 Y76.395 E0.01676
G1 X188.732 Y88.031 E0.51653
G1 X188.732 Y88.565 E0.01676
G1 X176.563 Y76.395 E0.54023
G1 X176.029 Y76.395 E0.01676
G1 X188.732 Y89.099 E0.56394
G1 X188.732 Y89.632 E0.01676
G1 X175.495 Y76.395 E0.58764
G1 X174.961 Y76.395 E0.01676
G1 X188.732 Y90.166 E0.61134
G1 X188.732 Y90.700 E0.01676
G1 X174.427 Y76.395 E0.63504
G1 X173.893 Y76.395 E0.01676
G1 X188.732 Y91.234 E0.65874
G1 X188.732 Y91.768 E0.01676
G1 X173.359 Y76.395 E0.68244
G1 X172.826 Y76.395 E0.01676
G1 X188.732 Y92.302 E0.70614
G1 X188.732 Y92.836 E0.01676
G1 X172.292 Y76.395 E0.72984
G1 X171.758 Y76.395 E0.01676
G1 X188.732 Y93.370 E0.75354
G1 X188.732 Y93.904 E0.01676
G1 X171.224 Y76.395 E0.77724
G1 X170.690 Y76.395 E0.01676
G1 X188.732 Y94.437 E0.80094
G1 X188.732 Y94.971 E0.01676
G1 X170.156 Y76.395 E0.82465
G1 X169.622 Y76.395 E0.01676
G1 X188.732 Y95.505 E0.84835
G1 X188.732 Y96.039 E0.01676
G1 X169.088 Y76.395 E0.87205
G1 X168.554 Y76.395 E0.01676
G1 X188.732 Y96.573 E0.89575
G1 X188.732 Y97.107 E0.01676
G1 X168.021 Y76.395 E0.91945
G1 X167.487 Y76.395 E0.01676
G1 X188.732 Y97.641 E0.94315
G1 X188.732 Y98.175 E0.01676
G1 X166.953 Y76.395 E0.96685
G1 X166.419 Y76.395 E0.01676
G1 X188.732 Y98.709 E0.99055
G1 X188.732 Y99.242 E0.01676
G1 X165.885 Y76.395 E1.01425
G1 X165.351 Y76.395 E0.01676
G1 X188.732 Y99.776 E1.03795
G1 X188.732 Y100.310 E0.01676
G1 X164.817 Y76.395 E1.06165
G1 X164.283 Y76.395 E0.01676
G1 X188.732 Y100.844 E1.08536
G1 X188.732 Y101.378 E0.01676
G1 X163.749 Y76.395 E1.10906
G1 X163.216 Y76.395 E0.01676
G1 X188.732 Y101.912 E1.13276
G1 X188.732 Y102.446 E0.01676
G1 X162.682 Y76.395 E1.15646
G1 X162.148 Y76.395 E0.01676
G1 X188.732 Y102.980 E1.18016
M73 Q1 S139
M73 P1 R136
G1 X188.732 Y103.514 E0.01676
G1 X161.614 Y76.395 E1.20386
G1 X161.080 Y76.395 E0.01676
G1 X188.732 Y104.047 E1.22756
G1 X188.732 Y104.581 E0.01676
G1 X160.546 Y76.395 E1.25126
G1 X160.012 Y76.395 E0.01676
G1 X188.732 Y105.115 E1.27496
G1 X188.732 Y105.649 E0.01676
G1 X159.478 Y76.395 E1.29866
G1 X158.944 Y76.395 E0.01676
G1 X188.732 Y106.183 E1.32236
G1 X188.732 Y106.717 E0.01676
G1 X158.411 Y76.395 E1.34606
G1 X157.877 Y76.395 E0.01676
G1 X188.732 Y107.251 E1.36977
G1 X188.732 Y107.785 E0.01676
G1 X157.343 Y76.395 E1.39347
G1 X156.809 Y76.395 E0.01676
G1 X188.732 Y108.319 E1.41717
G1 X188.732 Y108.852 E0.01676
G1 X156.275 Y76.395 E1.44087
G1 X155.741 Y76.395 E0.01676
G1 X188.732 Y109.386 E1.46457
G1 X188.732 Y109.920 E0.01676
G1 X155.207 Y76.395 E1.48827
G1 X154.673 Y76.395 E0.01676
G1 X188.732 Y110.454 E1.51197
G1 X188.732 Y110.988 E0.01676
G1 X154.139 Y76.395 E1.53567
G1 X153.606 Y76.395 E0.01676
G1 X188.732 Y111.522 E1.55937
G1 X188.732 Y112.056 E0.01676
G1 X153.072 Y76.395 E1.58307
G1 X152.538 Y76.395 E0.01676
G1 X188.732 Y112.590 E1.60677
G1 X188.732 Y113.124 E0.01676
G1 X152.004 Y76.395 E1.63048
G1 X151.470 Y76.395 E0.01676
G1 X188.732 Y113.657 E1.65418
G1 X188.732 Y114.191 E0.01676
G1 X150.936 Y76.395 E1.67788
G1 X150.402 Y76.395 E0.01676
G1 X188.732 Y114.725 E1.70158
G1 X188.732 Y115.259 E0.01676
G1 X149.868 Y76.395 E1.72528
G1 X149.334 Y76.395 E0.01676
G1 X188.732 Y115.793 E1.74898
G1 X188.732 Y116.327 E0.01676
G1 X148.801 Y76.395 E1.77268
M73 Q2 S138
M73 P2 R135
G1 X148.267 Y76.395 E0.01676
G1 X188.732 Y116.861 E1.79638
G1 X188.732 Y117.395 E0.01676
G1 X147.733 Y76.395 E1.82008
G1 X147.199 Y76.395 E0.01676
G1 X188.732 Y117.929 E1.84378
G1 X188.732 Y118.462 E0.01676
G1 X146.665 Y76.395 E1.86748
G1 X146.131 Y76.395 E0.01676
G1 X188.732 Y118.996 E1.89119
G1 X188.732 Y119.530 E0.01676
G1 X145.597 Y76.395 E1.91489
G1 X145.063 Y76.395 E0.01676
G1 X188.732 Y120.064 E1.93859
G1 X188.732 Y120.598 E0.01676
G1 X144.529 Y76.395 E1.96229
G1 X143.996 Y76.395 E0.01676
G1 X188.732 Y121.132 E1.98599
G1 X188.732 Y121.666 E0.01676
G1 X143.462 Y76.395 E2.00969
G1 X142.928 Y76.395 E0.01676
G1 X188.732 Y122.200 E2.03339
G1 X188.732 Y122.734 E0.01676
G1 X142.394 Y76.395 E2.05709
G1 X141.860 Y76.395 E0.01676
G1 X188.732 Y123.267 E2.08079
G1 X188.732 Y123.801 E0.01676
G1 X141.326 Y76.395 E2.10449
G1 X140.792 Y76.395 E0.01676
G1 X188.732 Y124.335 E2.12819
G1 X188.732 Y124.869 E0.01676
G1 X140.258 Y76.395 E2.15190
G1 X139.724 Y76.395 E0.01676
G1 X188.732 Y125.403 E2.17560
G1 X188.732 Y125.937 E0.01676
G1 X139.191 Y76.395 E2.19930
G1 X138.657 Y76.395 E0.01676
G1 X188.732 Y126.471 E2.22300
M73 Q2 S137
M73 P3 R134
G1 X188.732 Y127.005 E0.01676
G1 X138.123 Y76.395 E2.24670
G1 X137.589 Y76.395 E0.01676
G1 X188.732 Y127.539 E2.27040
G1 X188.732 Y128.072 E0.01676
G1 X137.055 Y76.395 E2.29410
G1 X136.521 Y76.395 E0.01676
G1 X188.732 Y128.606 E2.31780
G1 X188.732 Y129.140 E0.01676
G1 X135.987 Y76.395 E2.34150
G1 X135.453 Y76.395 E0.01676
G1 X188.732 Y129.674 E2.36520
G1 X188.732 Y130.208 E0.01676
G1 X134.919 Y76.395 E2.38890
G1 X134.386 Y76.395 E0.01676
G1 X188.732 Y130.742 E2.41261
G1 X188.732 Y131.276 E0.01676
G1 X133.852 Y76.395 E2.43631
G1 X133.318 Y76.395 E0.01676
G1 X188.732 Y131.810 E2.46001
G1 X188.732 Y132.344 E0.01676
G1 X132.784 Y76.395 E2.48371
G1 X132.250 Y76.395 E0.01676
G1 X188.732 Y132.877 E2.50741
G1 X188.732 Y133.411 E0.01676
G1 X131.716 Y76.395 E2.53111
G1 X131.182 Y76.395 E0.01676
G1 X188.732 Y133.945 E2.55481
G1 X188.732 Y134.479 E0.01676
G1 X130.648 Y76.395 E2.57851
G1 X130.114 Y76.395 E0.01676
G1 X188.732 Y135.013 E2.60221
M73 Q3 S136
M73 P3 R133
G1 X188.732 Y135.547 E0.01676
G1 X129.581 Y76.395 E2.62591
G1 X129.047 Y76.395 E0.01676
G1 X188.732 Y136.081 E2.64961
G1 X188.732 Y136.615 E0.01676
G1 X128.513 Y76.395 E2.67332
G1 X127.979 Y76.395 E0.01676
G1 X188.732 Y137.149 E2.69702
G1 X188.732 Y137.682 E0.01676
G1 X127.445 Y76.395 E2.72072
G1 X126.911 Y76.395 E0.01676
G1 X188.732 Y138.216 E2.74442
G1 X188.732 Y138.750 E0.01676
G1 X126.377 Y76.395 E2.76812
G1 X125.843 Y76.395 E0.01676
G1 X188.732 Y139.284 E2.79182
G1 X188.732 Y139.818 E0.01676
G1 X125.309 Y76.395 E2.81552
G1 X124.776 Y76.395 E0.01676
G1 X188.732 Y140.352 E2.83922
G1 X188.732 Y140.886 E0.01676
G1 X124.242 Y76.395 E2.86292
G1 X123.708 Y76.395 E0.01676
G1 X188.732 Y141.420 E2.88662
G1 X188.732 Y141.954 E0.01676
G1 X123.174 Y76.395 E2.91032
G1 X122.640 Y76.395 E0.01676
G1 X188.732 Y142.487 E2.93402
M73 Q4 S135
M73 P4 R132
G1 X188.732 Y143.021 E0.01676
G1 X122.106 Y76.395 E2.95773
G1 X121.572 Y76.395 E0.01676
G1 X188.732 Y143.555 E2.98143
G1 X188.732 Y144.089 E0.01676
G1 X121.038 Y76.395 E3.00513
G1 X120.504 Y76.395 E0.01676
G1 X188.732 Y144.623 E3.02883
G1 X188.732 Y145.157 E0.01676
G1 X119.971 Y76.395 E3.05253
G1 X119.437 Y76.395 E0.01676
G1 X188.732 Y145.691 E3.07623
G1 X188.732 Y146.225 E0.01676
G1 X118.903 Y76.395 E3.09993
G1 X118.369 Y76.395 E0.01676
G1 X188.732 Y146.759 E3.12363
G1 X188.732 Y147.292 E0.01676
G1 X117.835 Y76.395 E3.14733
G1 X117.301 Y76.395 E0.01676
G1 X188.732 Y147.826 E3.17103
G1 X188.732 Y148.360 E0.01676
G1 X116.767 Y76.395 E3.19473
G1 X116.233 Y76.395 E0.01676
G1 X188.732 Y148.894 E3.21844
G1 X188.732 Y149.428 E0.01676
G1 X115.700 Y76.395 E3.24214
M73 Q5 S134
M73 P5 R131
G1 X115.166 Y76.395 E0.01676
G1 X188.732 Y149.962 E3.26584
G1 X188.732 Y150.456 E0.01550
G1 X188.692 Y150.456 E0.00126
G1 X114.632 Y76.395 E3.28776
G1 X114.098 Y76.395 E0.01676
G1 X188.158 Y150.456 E3.28776
G1 X187.624 Y150.456 E0.01676
G1 X113.564 Y76.395 E3.28776
G1 X113.030 Y76.395 E0.01676
G1 X187.090 Y150.456 E3.28776
G1 X186.556 Y150.456 E0.01676
G1 X112.496 Y76.395 E3.28776
G1 X111.962 Y76.395 E0.01676
G1 X186.023 Y150.456 E3.28776
G1 X185.489 Y150.456 E0.01676
G1 X111.428 Y76.395 E3.28776
G1 X110.895 Y76.395 E0.01676
G1 X184.955 Y150.456 E3.28776
G1 X184.421 Y150.456 E0.01676
G1 X110.361 Y76.395 E3.28776
G1 X109.827 Y76.395 E0.01676
G1 X183.887 Y150.456 E3.28776
G1 X183.353 Y150.456 E0.01676
G1 X109.293 Y76.395 E3.28776
M73 Q5 S133
M73 P6 R130
G1 X108.759 Y76.395 E0.01676
G1 X182.819 Y150.456 E3.28776
G1 X182.285 Y150.456 E0.01676
G1 X108.225 Y76.395 E3.28776
G1 X107.691 Y76.395 E0.01676
G1 X181.751 Y150.456 E3.28776
G1 X181.218 Y150.456 E0.01676
G1 X107.157 Y76.395 E3.28776
G1 X106.623 Y76.395 E0.01676
G1 X180.684 Y150.456 E3.28776
G1 X180.150 Y150.456 E0.01676
G1 X106.090 Y76.395 E3.28776
G1 X105.556 Y76.395 E0.01676
G1 X179.616 Y150.456 E3.28776
G1 X179.082 Y150.456 E0.01676
G1 X105.022 Y76.395 E3.28776
G1 X104.488 Y76.395 E0.01676
G1 X178.548 Y150.456 E3.28776
G1 X178.014 Y150.456 E0.01676
G1 X103.954 Y76.395 E3.28776
G1 X103.420 Y76.395 E0.01676
G1 X177.480 Y150.456 E3.28776
G1 X176.946 Y150.456 E0.01676
G1 X102.886 Y76.395 E3.28776
M73 Q6 S132
M73 P6 R129
G1 X102.352 Y76.395 E0.01676
G1 X176.413 Y150.456 E3.28776
G1 X175.879 Y150.456 E0.01676
G1 X101.818 Y76.395 E3.28776
G1 X101.285 Y76.395 E0.01676
G1 X175.345 Y150.456 E3.28776
G1 X174.811 Y150.456 E0.01676
G1 X100.751 Y76.395 E3.28776
G1 X100.217 Y76.395 E0.01676
G1 X174.277 Y150.456 E3.28776
G1 X173.743 Y150.456 E0.01676
G1 X99.683 Y76.395 E3.28776
G1 X99.149 Y76.395 E0.01676
G1 X173.209 Y150.456 E3.28776
G1 X172.675 Y150.456 E0.01676
G1 X98.615 Y76.395 E3.28776
G1 X98.081 Y76.395 E0.01676
G1 X172.141 Y150.456 E3.28776
G1 X171.608 Y150.456 E0.01676
G1 X97.547 Y76.395 E3.28776
G1 X97.013 Y76.395 E0.01676
G1 X171.074 Y150.456 E3.28776
G1 X170.540 Y150.456 E0.01676
G1 X96.480 Y76.395 E3.28776
M73 Q7 S131
M73 P7 R128
G1 X95.946 Y76.395 E0.01676
G1 X170.006 Y150.456 E3.28776
G1 X169.472 Y150.456 E0.01676
G1 X95.412 Y76.395 E3.28776
G1 X94.878 Y76.395 E0.01676
G1 X168.938 Y150.456 E3.28776
G1 X168.404 Y150.456 E0.01676
G1 X94.344 Y76.395 E3.28776
G1 X93.810 Y76.395 E0.01676
G1 X167.870 Y150.456 E3.28776
G1 X167.336 Y150.456 E0.01676
G1 X93.276 Y76.395 E3.28776
G1 X92.742 Y76.395 E0.01676
G1 X166.803 Y150.456 E3.28776
G1 X166.269 Y150.456 E0.01676
G1 X92.208 Y76.395 E3.28776
G1 X91.675 Y76.395 E0.01676
G1 X165.735 Y150.456 E3.28776
G1 X165.201 Y150.456 E0.01676
G1 X91.141 Y76.395 E3.28776
G1 X90.607 Y76.395 E0.01676
G1 X164.667 Y150.456 E3.28776
G1 X164.133 Y150.456 E0.01676
G1 X90.073 Y76.395 E3.28776
M73 Q8 S130
M73 P8 R127
G1 X89.539 Y76.395 E0.01676
G1 X163.599 Y150.456 E3.28776
G1 X163.065 Y150.456 E0.01676
G1 X89.005 Y76.395 E3.28776
G1 X88.471 Y76.395 E0.01676
G1 X162.531 Y150.456 E3.28776
G1 X161.998 Y150.456 E0.01676
G1 X87.937 Y76.395 E3.28776
G1 X87.403 Y76.395 E0.01676
G1 X161.464 Y150.456 E3.28776
G1 X160.930 Y150.456 E0.01676
G1 X86.870 Y76.395 E3.28776
G1 X86.336 Y76.395 E0.01676
G1 X160.396 Y150.456 E3.28776
G1 X159.862 Y150.456 E0.01676
G1 X85.802 Y76.395 E3.28776
G1 X85.268 Y76.395 E0.01676
G1 X159.328 Y150.456 E3.28776
G1 X158.794 Y150.456 E0.01676
G1 X84.734 Y76.395 E3.28776
G1 X84.200 Y76.395 E0.01676
G1 X158.260 Y150.456 E3.28776
G1 X157.726 Y150.456 E0.01676
G1 X83.666 Y76.395 E3.28776
M73 Q8 S129
M73 P9 R126
G1 X83.132 Y76.395 E0.01676
G1 X157.193 Y150.456 E3.28776
G1 X156.659 Y150.456 E0.01676
G1 X82.598 Y76.395 E3.28776
G1 X82.065 Y76.395 E0.01676
G1 X156.125 Y150.456 E3.28776
G1 X155.591 Y150.456 E0.01676
G1 X81.531 Y76.395 E3.28776
G1 X80.997 Y76.395 E0.01676
G1 X155.057 Y150.456 E3.28776
G1 X154.523 Y150.456 E0.01676
G1 X80.463 Y76.395 E3.28776
G1 X79.929 Y76.395 E0.01676
G1 X153.989 Y150.456 E3.28776
G1 X153.455 Y150.456 E0.01676
G1 X79.395 Y76.395 E3.28776
G1 X78.861 Y76.395 E0.01676
G1 X152.921 Y150.456 E3.28776
G1 X152.388 Y150.456 E0.01676
G1 X78.327 Y76.395 E3.28776
G1 X77.793 Y76.395 E0.01676
G1 X151.854 Y150.456 E3.28776
G1 X151.320 Y150.456 E0.01676
G1 X77.260 Y76.395 E3.28776
M73 Q9 S128
M73 P9 R125
G1 X76.726 Y76.395 E0.01676
G1 X150.786 Y150.456 E3.28776
G1 X150.252 Y150.456 E0.01676
G1 X76.192 Y76.395 E3.28776
G1 X75.658 Y76.395 E0.01676
G1 X149.718 Y150.456 E3.28776
G1 X149.184 Y150.456 E0.01676
G1 X75.124 Y76.395 E3.28776
G1 X74.590 Y76.395 E0.01676
G1 X148.650 Y150.456 E3.28776
G1 X148.116 Y150.456 E0.01676
G1 X74.056 Y76.395 E3.28776
