; generated by PrusaSlicer 2.2.0+ on 2020-05-07 at 21:57:48 UTC

; 

; external perimeters extrusion width = 0.60mm
; perimeters extrusion width = 0.50mm
; infill extrusion width = 0.50mm
; solid infill extrusion width = 0.50mm
; top infill extrusion width = 0.45mm
; first layer extrusion width = 0.42mm

M73 P0 R119
M73 Q0 S120
M201 X1000 Y1000 Z1000 E5000 ; sets maximum accelerations, mm/sec^2
M203 X200 Y200 Z12 E120 ; sets maximum feedrates, mm/sec
M204 P1250 R1250 T1250 ; sets acceleration (P, T) and retract acceleration (R), mm/sec^2
M205 X8.00 Y8.00 Z0.40 E4.50 ; sets the jerk limits, mm/sec
M205 S0 T0 ; sets the minimum extruding and travel feed rate, mm/sec
M107
M862.3 P "MK3SMMU2S" ; printer model check
M862.1 P0.4 ; nozzle diameter check
M115 U3.8.1 ; tell printer latest fw version
G90 ; use absolute coordinates
M83 ; extruder relative mode
M104 S215 ; set extruder temp
M140 S60 ; set bed temp
Tx
M190 S60 ; wait for bed temp
M109 S215 ; wait for extruder temp
G28 W ; home all without mesh bed level
G80 ; mesh bed leveling

;go outside print area
G1 Y-3.0 F1000.0
G1 Z0.4 F1000.0
; select extruder
Tc
; purge line
G1 X55.0 F2000.0
G1 Z0.3 F1000.0
G92 E0.0
G1 X240.0 E25.0 F2200.0
M73 Q0 S120
M73 P0 R119
G1 Y-2.0 F1000.0
G1 X55.0 E25 F1400.0
G1 Z0.20 F1000.0
G1 X5.0 E4.0 F1000.0

M221 S95
G92 E0.0
G21 ; set units to millimeters
G90 ; use absolute coordinates
M83 ; use relative distances for extrusion
M900 K30 ; Filament gcode
;BEFORE_LAYER_CHANGE
G92 E0.0
;0.2


G1 E-0.80000 F2100.00000
G1 Z0.600 F10800.000
;AFTER_LAYER_CHANGE
;0.2
G1 X12.935 Y31.001
G1 Z0.200
G1 E0.80000 F2100.00000
M204 S1000
G1 F1200.000
G1 X13.891 Y30.017 E0.04302
G1 X15.113 Y29.285 E0.04467
G1 X16.280 Y28.941 E0.03813
G1 X37.430 Y26.143 E0.66891
G1 X67.482 Y26.128 E0.94225
G1 X127.576 Y28.130 E1.88526
G1 X227.287 Y32.624 E3.12953
G1 X228.727 Y32.975 E0.04647
G1 X229.991 Y33.742 E0.04637
G1 X230.740 Y34.513 E0.03372
G1 X231.268 Y35.381 E0.03183
G1 X231.466 Y35.838 E0.01562
G1 X231.713 Y36.793 E0.03095
G1 X235.742 Y67.523 E0.97175
G1 X235.739 Y141.121 E2.30760
G1 X231.720 Y171.708 E0.96728
G1 X231.370 Y172.956 E0.04065
G1 X230.625 Y174.163 E0.04445
G1 X229.859 Y174.908 E0.03352
G1 X229.006 Y175.427 E0.03131
G1 X228.558 Y175.627 E0.01538
G1 X227.666 Y175.866 E0.02895
G1 X127.650 Y195.866 E3.19802
G1 X37.573 Y193.869 E2.82500
G1 X16.456 Y191.095 E0.66778
G1 X15.121 Y190.719 E0.04350
G1 X13.814 Y189.916 E0.04811
G1 X12.974 Y189.051 E0.03780
G1 X12.355 Y188.017 E0.03779
G1 X11.961 Y186.758 E0.04136
G1 X11.887 Y186.193 E0.01787
G1 X11.887 Y33.829 E4.77725
G1 X11.940 Y33.334 E0.01562
G1 X12.207 Y32.335 E0.03241
G1 X12.906 Y31.053 E0.04578
G1 F8640.000
G1 X13.891 Y30.017 E-0.33020
G1 X15.113 Y29.285 E-0.32897
G1 X15.532 Y29.161 E-0.10083
G1 E-0.04000 F2100.00000
G1 Z0.800 F10800.000
G1 X30.783 Y91.426
G1 Z0.200
G1 E0.80000 F2100.00000
G1 F1200.000
G1 X31.159 Y91.164 E0.01436
G1 X31.572 Y91.012 E0.01381
G1 X31.836 Y90.970 E0.00837
G1 X32.256 Y90.983 E0.01319
G1 X32.496 Y91.039 E0.00770
G1 X40.726 Y93.981 E0.27406
G1 X40.948 Y94.096 E0.00784
G1 X41.293 Y94.370 E0.01382
G1 X41.567 Y94.738 E0.01439
G1 X41.739 Y95.164 E0.01440
G1 X41.793 Y95.579 E0.01313
G1 X41.790 Y124.754 E0.91475
G1 X41.736 Y125.172 E0.01320
G1 X41.564 Y125.596 E0.01437
G1 X41.301 Y125.948 E0.01378
G1 X41.103 Y126.128 E0.00838
G1 X40.742 Y126.347 E0.01325
G1 X32.482 Y129.295 E0.27499
G1 X32.051 Y129.364 E0.01369
G1 X31.613 Y129.322 E0.01378
G1 X31.356 Y129.245 E0.00841
G1 X30.985 Y129.052 E0.01314
G1 X30.790 Y128.896 E0.00781
G1 X30.618 Y128.719 E0.00773
G1 X30.378 Y128.352 E0.01375
G1 X30.239 Y127.933 E0.01385
G1 X30.208 Y127.685 E0.00783
G1 X30.215 Y92.944 E1.08929
G1 X30.199 Y92.635 E0.00969
G1 X30.282 Y92.209 E0.01361
G1 X30.375 Y91.978 E0.00779
G1 X30.497 Y91.761 E0.00781
G1 X30.744 Y91.472 E0.01193
G1 X30.716 Y92.142 F10800.000
G1 F1200.000
G1 X30.808 Y91.978 E0.00590
G1 X31.038 Y91.708 E0.01114
G1 X31.334 Y91.501 E0.01132
G1 X31.668 Y91.378 E0.01114
G1 X31.860 Y91.348 E0.00609
G1 X32.207 Y91.359 E0.01090
G1 X32.389 Y91.401 E0.00585
G1 X40.575 Y94.328 E0.27258
G1 X40.742 Y94.414 E0.00589
G1 X41.020 Y94.635 E0.01113
G1 X41.236 Y94.925 E0.01132
G1 X41.371 Y95.260 E0.01136
G1 X41.416 Y95.604 E0.01085
G1 X41.413 Y124.730 E0.91322
G1 X41.368 Y125.075 E0.01092
G1 X41.233 Y125.410 E0.01132
G1 X41.021 Y125.693 E0.01110
G1 X40.877 Y125.824 E0.00610
G1 X40.579 Y126.005 E0.01092
G1 X32.388 Y128.928 E0.27268
G1 X32.039 Y128.984 E0.01110
G1 X31.686 Y128.951 E0.01112
G1 X31.499 Y128.894 E0.00612
G1 X31.191 Y128.734 E0.01087
G1 X31.044 Y128.617 E0.00590
G1 X30.914 Y128.483 E0.00586
G1 X30.721 Y128.186 E0.01110
G1 X30.608 Y127.849 E0.01115
G1 X30.585 Y127.662 E0.00592
G1 X30.592 Y92.934 E1.08886
G1 X30.578 Y92.662 E0.00854
G1 X30.645 Y92.316 E0.01103
G1 X30.693 Y92.198 E0.00401
G1 X30.606 Y91.989 F10800.000
G1 F8640.000
G1 X30.808 Y91.978 E-0.05724
G1 X31.038 Y91.708 E-0.08201
G1 X31.334 Y91.501 E-0.08336
G1 X31.668 Y91.378 E-0.08205
G1 X31.860 Y91.348 E-0.04486
G1 X32.207 Y91.359 E-0.08028
G1 X32.389 Y91.401 E-0.04312
G1 X33.560 Y91.820 E-0.28709
G1 E-0.04000 F2100.00000
G1 Z0.800 F10800.000
G1 X35.693 Y31.001
G1 Z0.200
G1 E0.80000 F2100.00000
G1 F1200.000
G1 X33.102 Y31.341 E0.08194
G1 X34.479 Y41.826 E0.33157
M73 Q0 S119
G1 X39.312 Y41.190 E0.15285
M73 P0 R118
G1 X39.941 Y41.190 E0.01970
G1 X40.497 Y41.339 E0.01806
G1 X40.995 Y41.627 E0.01804
G1 X41.403 Y42.034 E0.01807
G1 X41.690 Y42.533 E0.01805
G1 X41.840 Y43.089 E0.01805
G1 X41.840 Y43.665 E0.01807
G1 X41.690 Y44.221 E0.01805
G1 X41.403 Y44.720 E0.01805
G1 X40.995 Y45.127 E0.01807
G1 X40.497 Y45.415 E0.01804
G1 X39.941 Y45.564 E0.01806
G1 X39.364 Y45.564 E0.01808
G1 X38.808 Y45.415 E0.01806
G1 X38.309 Y45.127 E0.01804
G1 X37.902 Y44.720 E0.01807
G1 X37.614 Y44.221 E0.01805
G1 X37.259 Y42.899 E0.04294
G1 X34.664 Y43.240 E0.08207
G1 X36.041 Y53.724 E0.33153
G1 X40.878 Y53.087 E0.15298
G1 X41.506 Y53.087 E0.01968
G1 X42.063 Y53.236 E0.01807
G1 X42.562 Y53.525 E0.01807
G1 X42.969 Y53.931 E0.01804
G1 X43.256 Y54.431 E0.01806
G1 X43.406 Y54.987 E0.01806
G1 X43.406 Y55.562 E0.01804
G1 X43.256 Y56.119 E0.01808
G1 X42.969 Y56.618 E0.01804
G1 X42.562 Y57.025 E0.01806
G1 X42.063 Y57.313 E0.01804
G1 X41.506 Y57.462 E0.01808
G1 X40.931 Y57.462 E0.01804
G1 X40.374 Y57.313 E0.01806
G1 X39.875 Y57.025 E0.01806
G1 X39.469 Y56.618 E0.01804
G1 X39.180 Y56.119 E0.01807
G1 X38.825 Y54.795 E0.04297
G1 X36.226 Y55.139 E0.08220
G1 X37.603 Y65.622 E0.33152
G1 X42.445 Y64.985 E0.15314
G1 X43.073 Y64.985 E0.01968
G1 X43.629 Y65.134 E0.01805
G1 X44.128 Y65.422 E0.01805
G1 X44.535 Y65.829 E0.01807
G1 X44.823 Y66.328 E0.01804
G1 X44.972 Y66.884 E0.01806
G1 X44.972 Y67.461 E0.01807
G1 X44.823 Y68.016 E0.01804
G1 X44.535 Y68.516 E0.01808
G1 X44.128 Y68.923 E0.01806
G1 X43.629 Y69.211 E0.01805
G1 X43.073 Y69.360 E0.01805
G1 X42.498 Y69.360 E0.01804
G1 X41.941 Y69.211 E0.01808
G1 X41.442 Y68.923 E0.01804
G1 X41.035 Y68.516 E0.01806
G1 X40.746 Y68.016 E0.01808
G1 X40.393 Y66.694 E0.04293
G1 X37.788 Y67.036 E0.08238
G1 X40.521 Y87.849 E0.65817
G1 X43.911 Y89.254 E0.11507
G1 X44.368 Y89.603 E0.01804
G1 X44.718 Y90.061 E0.01805
G1 X44.939 Y90.593 E0.01806
G1 X45.021 Y91.215 E0.01970
G1 X45.021 Y128.785 E1.17795
G1 X44.939 Y129.407 E0.01970
G1 X44.718 Y129.939 E0.01806
G1 X44.368 Y130.397 E0.01805
G1 X43.911 Y130.746 E0.01804
G1 X40.521 Y132.151 E0.11507
G1 X37.788 Y152.964 E0.65817
G1 X40.393 Y153.306 E0.08238
G1 X40.746 Y151.984 E0.04293
G1 X41.035 Y151.484 E0.01808
G1 X41.442 Y151.077 E0.01806
G1 X41.941 Y150.789 E0.01804
G1 X42.498 Y150.640 E0.01808
G1 X43.073 Y150.640 E0.01804
G1 X43.629 Y150.789 E0.01805
G1 X44.128 Y151.077 E0.01805
G1 X44.535 Y151.484 E0.01806
G1 X44.823 Y151.984 E0.01808
G1 X44.972 Y152.539 E0.01804
G1 X44.972 Y153.116 E0.01807
G1 X44.823 Y153.672 E0.01806
G1 X44.535 Y154.171 E0.01804
G1 X44.128 Y154.578 E0.01807
G1 X43.629 Y154.866 E0.01805
G1 X43.073 Y155.015 E0.01805
G1 X42.445 Y155.015 E0.01968
G1 X37.603 Y154.378 E0.15314
G1 X36.226 Y164.861 E0.33152
G1 X38.825 Y165.205 E0.08220
G1 X39.180 Y163.881 E0.04297
G1 X39.469 Y163.382 E0.01807
G1 X39.875 Y162.975 E0.01804
G1 X40.374 Y162.687 E0.01806
G1 X40.931 Y162.538 E0.01806
G1 X41.506 Y162.538 E0.01804
G1 X42.063 Y162.687 E0.01808
G1 X42.562 Y162.975 E0.01804
G1 X42.969 Y163.382 E0.01806
G1 X43.256 Y163.881 E0.01804
G1 X43.406 Y164.438 E0.01808
G1 X43.406 Y165.013 E0.01804
G1 X43.256 Y165.569 E0.01806
G1 X42.969 Y166.069 E0.01806
G1 X42.562 Y166.475 E0.01804
G1 X42.063 Y166.764 E0.01807
G1 X41.506 Y166.913 E0.01807
G1 X40.878 Y166.913 E0.01968
G1 X36.041 Y166.276 E0.15298
G1 X34.664 Y176.760 E0.33153
G1 X37.259 Y177.101 E0.08207
G1 X37.614 Y175.779 E0.04294
G1 X37.902 Y175.280 E0.01805
G1 X38.309 Y174.873 E0.01807
G1 X38.808 Y174.585 E0.01804
G1 X39.364 Y174.436 E0.01806
G1 X39.941 Y174.436 E0.01808
G1 X40.497 Y174.585 E0.01806
G1 X40.995 Y174.873 E0.01804
G1 X41.403 Y175.280 E0.01807
G1 X41.690 Y175.779 E0.01805
G1 X41.840 Y176.335 E0.01805
G1 X41.840 Y176.911 E0.01807
G1 X41.690 Y177.467 E0.01805
G1 X41.403 Y177.966 E0.01805
G1 X40.995 Y178.373 E0.01807
G1 X40.497 Y178.661 E0.01804
G1 X39.941 Y178.810 E0.01806
G1 X39.312 Y178.810 E0.01970
G1 X34.479 Y178.174 E0.15285
G1 X33.102 Y188.659 E0.33157
G1 X35.693 Y188.999 E0.08194
G1 X36.048 Y187.677 E0.04294
G1 X36.336 Y187.177 E0.01808
G1 X36.743 Y186.770 E0.01805
G1 X37.242 Y186.482 E0.01804
G1 X37.799 Y186.333 E0.01808
G1 X38.374 Y186.333 E0.01804
G1 X38.930 Y186.482 E0.01805
G1 X39.429 Y186.770 E0.01805
G1 X39.836 Y187.177 E0.01806
G1 X40.124 Y187.677 E0.01808
G1 X40.273 Y188.232 E0.01804
G1 X40.273 Y188.809 E0.01807
G1 X40.124 Y189.365 E0.01806
G1 X39.836 Y189.864 E0.01804
G1 X39.429 Y190.271 E0.01807
G1 X38.930 Y190.559 E0.01805
G1 X38.374 Y190.708 E0.01805
G1 X37.746 Y190.708 E0.01968
G1 X16.999 Y187.976 E0.65612
G1 X16.394 Y187.814 E0.01966
G1 X15.895 Y187.526 E0.01805
G1 X15.487 Y187.119 E0.01808
G1 X15.199 Y186.620 E0.01804
G1 X15.051 Y186.064 E0.01806
G1 X15.051 Y185.487 E0.01807
G1 X15.199 Y184.932 E0.01804
G1 X15.487 Y184.433 E0.01806
G1 X15.895 Y184.026 E0.01805
G1 X16.394 Y183.737 E0.01808
G1 X16.950 Y183.588 E0.01804
G1 X17.526 Y183.588 E0.01807
G1 X18.082 Y183.737 E0.01804
G1 X18.581 Y184.026 E0.01808
G1 X18.988 Y184.433 E0.01805
G1 X19.276 Y184.932 E0.01806
G1 X19.425 Y185.487 E0.01804
G1 X19.425 Y186.857 E0.04294
G1 X22.359 Y187.244 E0.09279
G1 X23.735 Y176.759 E0.33157
G1 X18.567 Y176.079 E0.16343
G1 X17.960 Y175.917 E0.01970
G1 X17.461 Y175.628 E0.01806
G1 X17.054 Y175.221 E0.01807
G1 X16.766 Y174.722 E0.01805
G1 X16.617 Y174.166 E0.01805
G1 X16.617 Y173.591 E0.01804
G1 X16.766 Y173.034 E0.01808
G1 X17.054 Y172.535 E0.01804
G1 X17.461 Y172.128 E0.01807
G1 X17.960 Y171.840 E0.01804
G1 X18.516 Y171.691 E0.01806
G1 X19.093 Y171.691 E0.01807
G1 X19.648 Y171.840 E0.01804
G1 X20.147 Y172.128 E0.01806
G1 X20.554 Y172.535 E0.01805
G1 X20.843 Y173.034 E0.01807
G1 X20.992 Y173.591 E0.01807
G1 X20.992 Y174.960 E0.04294
G1 X23.921 Y175.346 E0.09263
G1 X25.297 Y164.861 E0.33156
G1 X20.133 Y164.181 E0.16330
G1 X19.526 Y164.019 E0.01969
G1 X19.027 Y163.731 E0.01806
G1 X18.621 Y163.324 E0.01804
G1 X18.332 Y162.825 E0.01807
G1 X18.183 Y162.268 E0.01807
G1 X18.183 Y161.693 E0.01805
G1 X18.332 Y161.136 E0.01807
G1 X18.621 Y160.637 E0.01807
G1 X19.027 Y160.230 E0.01804
G1 X19.526 Y159.942 E0.01806
G1 X20.083 Y159.793 E0.01806
G1 X20.658 Y159.793 E0.01804
G1 X21.215 Y159.942 E0.01808
G1 X21.714 Y160.230 E0.01804
G1 X22.121 Y160.637 E0.01806
G1 X22.408 Y161.136 E0.01804
G1 X22.558 Y161.693 E0.01808
G1 X22.558 Y163.062 E0.04294
G1 X25.483 Y163.447 E0.09250
G1 X26.859 Y152.963 E0.33152
G1 X21.699 Y152.283 E0.16319
G1 X21.093 Y152.121 E0.01966
G1 X20.594 Y151.833 E0.01805
G1 X20.186 Y151.426 E0.01808
G1 X19.898 Y150.927 E0.01804
G1 X19.750 Y150.371 E0.01806
G1 X19.750 Y149.794 E0.01807
G1 X19.898 Y149.239 E0.01804
G1 X20.186 Y148.740 E0.01806
G1 X20.594 Y148.333 E0.01805
G1 X21.093 Y148.044 E0.01808
G1 X21.649 Y147.895 E0.01804
G1 X22.224 Y147.895 E0.01804
G1 X22.781 Y148.044 E0.01807
G1 X23.280 Y148.333 E0.01807
G1 X23.687 Y148.740 E0.01805
G1 X23.975 Y149.239 E0.01806
G1 X24.124 Y149.794 E0.01804
G1 X24.124 Y151.164 E0.04295
G1 X27.045 Y151.549 E0.09238
G1 X29.294 Y134.414 E0.54187
G1 X28.136 Y134.371 E0.03633
G1 X27.945 Y134.332 E0.00611
G1 X27.752 Y134.248 E0.00661
G1 X27.600 Y134.117 E0.00628
G1 X27.502 Y133.969 E0.00555
G1 X27.425 Y133.793 E0.00604
G1 X27.328 Y133.377 E0.01340
G1 X27.298 Y133.042 E0.01054
G1 X27.298 Y86.958 E1.44493
G1 X27.328 Y86.623 E0.01054
G1 X27.425 Y86.207 E0.01340
G1 X27.502 Y86.031 E0.00604
G1 X27.600 Y85.883 E0.00555
G1 X27.752 Y85.752 E0.00628
G1 X27.945 Y85.668 E0.00661
G1 X28.136 Y85.629 E0.00611
G1 X29.294 Y85.586 E0.03633
G1 X27.045 Y68.451 E0.54187
G1 X24.124 Y68.836 E0.09238
G1 X24.124 Y70.206 E0.04295
G1 X23.975 Y70.761 E0.01804
G1 X23.687 Y71.260 E0.01806
G1 X23.280 Y71.667 E0.01805
G1 X22.781 Y71.956 E0.01807
G1 X22.224 Y72.105 E0.01807
G1 X21.649 Y72.105 E0.01804
G1 X21.093 Y71.956 E0.01804
G1 X20.594 Y71.667 E0.01808
G1 X20.186 Y71.260 E0.01805
G1 X19.898 Y70.761 E0.01806
G1 X19.750 Y70.206 E0.01804
G1 X19.750 Y69.629 E0.01807
G1 X19.898 Y69.073 E0.01806
G1 X20.186 Y68.574 E0.01804
G1 X20.594 Y68.167 E0.01808
G1 X21.093 Y67.879 E0.01805
G1 X21.699 Y67.717 E0.01966
G1 X26.859 Y67.037 E0.16319
G1 X25.483 Y56.553 E0.33152
G1 X22.558 Y56.938 E0.09250
G1 X22.558 Y58.307 E0.04294
G1 X22.408 Y58.864 E0.01808
G1 X22.121 Y59.363 E0.01804
G1 X21.714 Y59.770 E0.01806
G1 X21.215 Y60.058 E0.01804
G1 X20.658 Y60.207 E0.01808
G1 X20.083 Y60.207 E0.01804
G1 X19.526 Y60.058 E0.01806
G1 X19.027 Y59.770 E0.01806
G1 X18.621 Y59.363 E0.01804
G1 X18.332 Y58.864 E0.01807
G1 X18.183 Y58.307 E0.01807
G1 X18.183 Y57.732 E0.01805
G1 X18.332 Y57.175 E0.01807
G1 X18.621 Y56.676 E0.01807
G1 X19.027 Y56.269 E0.01804
G1 X19.526 Y55.981 E0.01806
G1 X20.133 Y55.819 E0.01969
G1 X25.297 Y55.139 E0.16330
G1 X23.921 Y44.655 E0.33152
G1 X20.992 Y45.039 E0.09263
G1 X20.992 Y46.409 E0.04295
G1 X20.843 Y46.966 E0.01807
G1 X20.554 Y47.465 E0.01807
G1 X20.147 Y47.872 E0.01805
G1 X19.648 Y48.160 E0.01806
G1 X19.093 Y48.309 E0.01804
G1 X18.516 Y48.309 E0.01807
G1 X17.960 Y48.160 E0.01806
G1 X17.461 Y47.872 E0.01804
G1 X17.054 Y47.465 E0.01807
G1 X16.766 Y46.966 E0.01804
G1 X16.617 Y46.409 E0.01808
G1 X16.617 Y45.834 E0.01804
G1 X16.766 Y45.278 E0.01805
G1 X17.054 Y44.779 E0.01805
G1 X17.461 Y44.372 E0.01807
G1 X17.960 Y44.083 E0.01806
G1 X18.567 Y43.921 E0.01970
G1 X23.735 Y43.241 E0.16343
G1 X22.359 Y32.756 E0.33157
G1 X19.425 Y33.143 E0.09279
G1 X19.425 Y34.513 E0.04294
G1 X19.276 Y35.068 E0.01804
G1 X18.988 Y35.567 E0.01806
G1 X18.581 Y35.974 E0.01805
G1 X18.082 Y36.263 E0.01808
G1 X17.526 Y36.412 E0.01804
G1 X16.950 Y36.412 E0.01807
G1 X16.394 Y36.263 E0.01804
G1 X15.895 Y35.974 E0.01808
G1 X15.487 Y35.567 E0.01805
G1 X15.199 Y35.068 E0.01806
G1 X15.051 Y34.513 E0.01804
G1 X15.051 Y33.936 E0.01807
G1 X15.199 Y33.380 E0.01806
G1 X15.487 Y32.881 E0.01804
G1 X15.895 Y32.474 E0.01808
G1 X16.394 Y32.186 E0.01805
G1 X16.999 Y32.024 E0.01966
G1 X37.746 Y29.292 E0.65612
G1 X38.374 Y29.292 E0.01968
G1 X38.930 Y29.441 E0.01805
G1 X39.429 Y29.729 E0.01805
G1 X39.836 Y30.136 E0.01807
G1 X40.124 Y30.635 E0.01804
G1 X40.273 Y31.191 E0.01806
G1 X40.273 Y31.768 E0.01807
G1 X40.124 Y32.323 E0.01804
G1 X39.836 Y32.823 E0.01808
G1 X39.429 Y33.230 E0.01806
G1 X38.930 Y33.518 E0.01805
G1 X38.374 Y33.667 E0.01805
G1 X37.799 Y33.667 E0.01804
G1 X37.242 Y33.518 E0.01808
G1 X36.743 Y33.230 E0.01804
G1 X36.336 Y32.823 E0.01805
G1 X36.048 Y32.323 E0.01808
G1 X35.709 Y31.059 E0.04106
G1 X35.415 Y31.418 F10800.000
G1 F1200.000
G1 X33.525 Y31.666 E0.05976
G1 X34.804 Y41.403 E0.30792
G1 X39.288 Y40.813 E0.14180
G1 X39.990 Y40.813 E0.02202
G1 X40.643 Y40.987 E0.02118
G1 X41.227 Y41.325 E0.02116
G1 X41.705 Y41.803 E0.02118
G1 X42.042 Y42.387 E0.02116
G1 X42.217 Y43.039 E0.02116
G1 X42.217 Y43.715 E0.02119
G1 X42.042 Y44.367 E0.02116
G1 X41.705 Y44.951 E0.02116
G1 X41.227 Y45.429 E0.02118
G1 X40.643 Y45.767 E0.02116
G1 X39.990 Y45.941 E0.02118
