; generated by PrusaSlicer 2.2.0+ on 2020-05-08 at 01:23:12 UTC

; 

; external perimeters extrusion width = 0.60mm
; perimeters extrusion width = 0.50mm
; infill extrusion width = 0.50mm
; solid infill extrusion width = 0.50mm
; top infill extrusion width = 0.45mm
; first layer extrusion width = 0.42mm

M73 P0 R109
M73 Q0 S109
M201 X1000 Y1000 Z1000 E5000 ; sets maximum accelerations, mm/sec^2
M203 X200 Y200 Z12 E120 ; sets maximum feedrates, mm/sec
M204 P1250 R1250 T1250 ; sets acceleration (P, T) and retract acceleration (R), mm/sec^2
M205 X8.00 Y8.00 Z0.40 E4.50 ; sets the jerk limits, mm/sec
M205 S0 T0 ; sets the minimum extruding and travel feed rate, mm/sec
M107
M862.3 P "MK3SMMU2S" ; printer model check
M862.1 P0.4 ; nozzle diameter check
M115 U3.8.1 ; tell printer latest fw version
G90 ; use absolute coordinates
M83 ; extruder relative mode
M104 S215 ; set extruder temp
M140 S60 ; set bed temp
Tx
M190 S60 ; wait for bed temp
M109 S215 ; wait for extruder temp
G28 W ; home all without mesh bed level
G80 ; mesh bed leveling

;go outside print area
G1 Y-3.0 F1000.0
G1 Z0.4 F1000.0
; select extruder
Tc
; purge line
G1 X55.0 F2000.0
G1 Z0.3 F1000.0
G92 E0.0
G1 X240.0 E25.0 F2200.0
M73 Q0 S109
M73 P0 R109
G1 Y-2.0 F1000.0
G1 X55.0 E25 F1400.0
G1 Z0.20 F1000.0
G1 X5.0 E4.0 F1000.0

M221 S95
G92 E0.0
G21 ; set units to millimeters
G90 ; use absolute coordinates
M83 ; use relative distances for extrusion
M900 K30 ; Filament gcode
;BEFORE_LAYER_CHANGE
G92 E0.0
;0.2


G1 E-0.80000 F2100.00000
G1 Z0.600 F10800.000
;AFTER_LAYER_CHANGE
;0.2
G1 X15.220 Y24.980
G1 Z0.200
G1 E0.80000 F2100.00000
M204 S1000
G1 F1200.000
G1 X16.421 Y24.286 E0.04349
G1 X17.718 Y23.929 E0.04219
G1 X38.901 Y21.154 E0.66987
G1 X227.208 Y21.153 E5.90421
G1 X227.733 Y21.213 E0.01657
G1 X228.840 Y21.525 E0.03607
G1 X230.231 Y22.360 E0.05088
G1 X230.954 Y23.083 E0.03205
G1 X231.246 Y23.482 E0.01550
G1 X231.784 Y24.457 E0.03492
G1 X232.099 Y25.563 E0.03606
G1 X236.862 Y61.766 E1.14488
G1 X236.911 Y123.861 E1.94697
G1 X236.859 Y148.371 E0.76848
G1 X232.128 Y184.342 E1.13755
G1 X231.793 Y185.571 E0.03994
G1 X231.240 Y186.578 E0.03604
G1 X230.926 Y186.998 E0.01645
G1 X230.081 Y187.815 E0.03684
G1 X228.800 Y188.541 E0.04616
G1 X227.728 Y188.839 E0.03489
G1 X227.218 Y188.897 E0.01609
G1 X38.904 Y188.897 E5.90445
G1 X17.640 Y186.108 E0.67243
G1 X16.453 Y185.778 E0.03863
G1 X15.447 Y185.224 E0.03602
G1 X15.034 Y184.912 E0.01621
G1 X14.220 Y184.070 E0.03672
G1 X13.494 Y182.792 E0.04610
G1 X13.196 Y181.716 E0.03499
G1 X13.138 Y181.210 E0.01597
G1 X13.138 Y28.843 E4.77737
G1 X13.215 Y28.259 E0.01846
G1 X13.625 Y26.973 E0.04234
G1 X14.253 Y25.938 E0.03795
G1 X15.177 Y25.023 E0.04079
G1 F8640.000
G1 X16.421 Y24.286 E-0.33372
G1 X17.718 Y23.929 E-0.31072
G1 X18.214 Y23.864 E-0.11556
G1 E-0.04000 F2100.00000
G1 Z0.800 F10800.000
G1 X32.034 Y86.451
G1 Z0.200
G1 E0.80000 F2100.00000
G1 F1200.000
G1 X32.410 Y86.190 E0.01436
G1 X32.823 Y86.037 E0.01381
G1 X33.087 Y85.995 E0.00837
G1 X33.507 Y86.008 E0.01319
G1 X33.747 Y86.064 E0.00770
G1 X41.977 Y89.007 E0.27406
G1 X42.199 Y89.121 E0.00784
G1 X42.544 Y89.396 E0.01382
G1 X42.818 Y89.763 E0.01439
G1 X42.990 Y90.189 E0.01440
G1 X43.044 Y90.604 E0.01313
G1 X43.041 Y119.779 E0.91475
G1 X42.987 Y120.197 E0.01320
G1 X42.815 Y120.621 E0.01437
G1 X42.552 Y120.974 E0.01378
G1 X42.354 Y121.153 E0.00838
G1 X41.993 Y121.372 E0.01325
G1 X33.733 Y124.321 E0.27499
G1 X33.302 Y124.389 E0.01369
G1 X32.864 Y124.348 E0.01378
G1 X32.607 Y124.270 E0.00841
G1 X32.236 Y124.077 E0.01314
G1 X32.041 Y123.922 E0.00781
G1 X31.870 Y123.744 E0.00773
G1 X31.630 Y123.377 E0.01375
G1 X31.490 Y122.958 E0.01385
G1 X31.459 Y122.710 E0.00783
G1 X31.466 Y87.969 E1.08929
G1 X31.450 Y87.660 E0.00969
G1 X31.533 Y87.234 E0.01361
G1 X31.626 Y87.004 E0.00779
G1 X31.748 Y86.787 E0.00781
G1 X31.995 Y86.497 E0.01193
G1 X31.967 Y87.167 F10800.000
G1 F1200.000
G1 X32.059 Y87.003 E0.00590
G1 X32.289 Y86.733 E0.01114
G1 X32.586 Y86.527 E0.01132
G1 X32.919 Y86.404 E0.01114
G1 X33.111 Y86.373 E0.00609
G1 X33.458 Y86.384 E0.01090
G1 X33.640 Y86.426 E0.00585
G1 X41.826 Y89.353 E0.27258
G1 X41.993 Y89.439 E0.00589
G1 X42.271 Y89.660 E0.01113
G1 X42.487 Y89.950 E0.01132
G1 X42.623 Y90.286 E0.01136
G1 X42.667 Y90.629 E0.01085
G1 X42.664 Y119.755 E0.91322
G1 X42.620 Y120.100 E0.01092
G1 X42.484 Y120.435 E0.01132
G1 X42.272 Y120.719 E0.01110
G1 X42.128 Y120.849 E0.00610
G1 X41.830 Y121.030 E0.01092
G1 X33.639 Y123.954 E0.27268
G1 X33.290 Y124.009 E0.01110
G1 X32.937 Y123.976 E0.01112
G1 X32.750 Y123.920 E0.00612
G1 X32.442 Y123.760 E0.01087
G1 X32.295 Y123.642 E0.00590
G1 X32.166 Y123.508 E0.00586
G1 X31.972 Y123.212 E0.01110
G1 X31.859 Y122.874 E0.01115
G1 X31.836 Y122.687 E0.00592
G1 X31.843 Y87.959 E1.08886
G1 X31.829 Y87.687 E0.00854
G1 X31.896 Y87.342 E0.01103
G1 X31.944 Y87.223 E0.00401
G1 X31.857 Y87.014 F10800.000
G1 F8640.000
G1 X32.059 Y87.003 E-0.05724
G1 X32.289 Y86.733 E-0.08201
G1 X32.586 Y86.527 E-0.08336
G1 X32.919 Y86.404 E-0.08205
G1 X33.111 Y86.373 E-0.04486
G1 X33.458 Y86.384 E-0.08028
G1 X33.640 Y86.426 E-0.04312
G1 X34.811 Y86.845 E-0.28709
G1 E-0.04000 F2100.00000
G1 Z0.800 F10800.000
G1 X36.944 Y26.026
G1 Z0.200
G1 E0.80000 F2100.00000
M73 Q1 S108
M73 P1 R108
G1 F1200.000
G1 X34.353 Y26.366 E0.08194
G1 X35.730 Y36.851 E0.33157
G1 X40.564 Y36.215 E0.15285
G1 X41.192 Y36.215 E0.01970
G1 X41.748 Y36.364 E0.01806
G1 X42.247 Y36.652 E0.01804
G1 X42.654 Y37.059 E0.01807
G1 X42.942 Y37.558 E0.01805
G1 X43.091 Y38.114 E0.01805
G1 X43.091 Y38.690 E0.01807
G1 X42.942 Y39.246 E0.01805
G1 X42.654 Y39.745 E0.01805
G1 X42.247 Y40.153 E0.01807
G1 X41.748 Y40.441 E0.01804
G1 X41.192 Y40.589 E0.01806
G1 X40.615 Y40.589 E0.01808
G1 X40.059 Y40.441 E0.01806
G1 X39.560 Y40.153 E0.01804
G1 X39.153 Y39.745 E0.01807
G1 X38.865 Y39.246 E0.01805
G1 X38.510 Y37.924 E0.04294
G1 X35.915 Y38.266 E0.08207
G1 X37.292 Y48.749 E0.33153
G1 X42.130 Y48.112 E0.15298
G1 X42.757 Y48.112 E0.01968
G1 X43.314 Y48.262 E0.01807
G1 X43.813 Y48.550 E0.01807
G1 X44.220 Y48.956 E0.01804
G1 X44.508 Y49.456 E0.01806
G1 X44.657 Y50.012 E0.01806
G1 X44.657 Y50.588 E0.01804
G1 X44.508 Y51.145 E0.01808
G1 X44.220 Y51.643 E0.01804
G1 X43.813 Y52.050 E0.01806
G1 X43.314 Y52.338 E0.01804
G1 X42.757 Y52.487 E0.01808
G1 X42.182 Y52.487 E0.01804
G1 X41.626 Y52.338 E0.01806
G1 X41.126 Y52.050 E0.01806
G1 X40.720 Y51.643 E0.01804
G1 X40.431 Y51.144 E0.01807
G1 X40.076 Y49.820 E0.04297
G1 X37.477 Y50.164 E0.08220
G1 X38.854 Y60.647 E0.33152
G1 X43.697 Y60.010 E0.15314
G1 X44.324 Y60.010 E0.01968
G1 X44.880 Y60.160 E0.01805
G1 X45.379 Y60.447 E0.01805
G1 X45.786 Y60.855 E0.01807
G1 X46.074 Y61.353 E0.01804
G1 X46.223 Y61.909 E0.01806
G1 X46.223 Y62.486 E0.01807
G1 X46.074 Y63.042 E0.01804
G1 X45.786 Y63.541 E0.01808
G1 X45.379 Y63.948 E0.01806
G1 X44.880 Y64.236 E0.01805
G1 X44.324 Y64.385 E0.01805
G1 X43.749 Y64.385 E0.01804
G1 X43.192 Y64.236 E0.01808
G1 X42.693 Y63.948 E0.01804
G1 X42.286 Y63.541 E0.01806
G1 X41.998 Y63.042 E0.01808
G1 X41.644 Y61.719 E0.04293
G1 X39.039 Y62.062 E0.08238
G1 X41.772 Y82.874 E0.65817
G1 X45.163 Y84.279 E0.11507
G1 X45.620 Y84.629 E0.01804
G1 X45.969 Y85.086 E0.01805
G1 X46.190 Y85.618 E0.01806
G1 X46.272 Y86.241 E0.01970
G1 X46.272 Y123.810 E1.17795
G1 X46.190 Y124.433 E0.01970
G1 X45.969 Y124.965 E0.01806
G1 X45.620 Y125.422 E0.01805
G1 X45.163 Y125.772 E0.01804
G1 X41.772 Y127.176 E0.11507
G1 X39.039 Y147.989 E0.65817
G1 X41.644 Y148.332 E0.08238
G1 X41.998 Y147.009 E0.04293
G1 X42.286 Y146.509 E0.01808
G1 X42.693 Y146.102 E0.01806
G1 X43.192 Y145.815 E0.01804
G1 X43.749 Y145.665 E0.01808
G1 X44.324 Y145.665 E0.01804
G1 X44.880 Y145.815 E0.01805
G1 X45.379 Y146.102 E0.01805
G1 X45.786 Y146.509 E0.01806
G1 X46.074 Y147.009 E0.01808
G1 X46.223 Y147.565 E0.01804
G1 X46.223 Y148.141 E0.01807
G1 X46.074 Y148.698 E0.01806
G1 X45.786 Y149.196 E0.01804
G1 X45.379 Y149.603 E0.01807
G1 X44.880 Y149.891 E0.01805
G1 X44.324 Y150.040 E0.01805
G1 X43.697 Y150.040 E0.01968
G1 X38.854 Y149.403 E0.15314
G1 X37.477 Y159.886 E0.33152
G1 X40.076 Y160.230 E0.08220
G1 X40.431 Y158.906 E0.04297
G1 X40.720 Y158.407 E0.01807
G1 X41.126 Y158.000 E0.01804
G1 X41.626 Y157.713 E0.01806
G1 X42.182 Y157.563 E0.01806
G1 X42.757 Y157.563 E0.01804
G1 X43.314 Y157.713 E0.01808
G1 X43.813 Y158.000 E0.01804
G1 X44.220 Y158.407 E0.01806
G1 X44.508 Y158.906 E0.01804
G1 X44.657 Y159.463 E0.01808
G1 X44.657 Y160.038 E0.01804
G1 X44.508 Y160.595 E0.01806
G1 X44.220 Y161.094 E0.01806
G1 X43.813 Y161.500 E0.01804
G1 X43.314 Y161.789 E0.01807
G1 X42.757 Y161.938 E0.01807
G1 X42.130 Y161.938 E0.01968
G1 X37.292 Y161.301 E0.15298
G1 X35.915 Y171.785 E0.33153
G1 X38.510 Y172.127 E0.08207
G1 X38.865 Y170.804 E0.04294
G1 X39.153 Y170.305 E0.01805
G1 X39.560 Y169.898 E0.01807
G1 X40.059 Y169.610 E0.01804
G1 X40.615 Y169.461 E0.01806
G1 X41.192 Y169.461 E0.01808
G1 X41.748 Y169.610 E0.01806
G1 X42.247 Y169.898 E0.01804
G1 X42.654 Y170.305 E0.01807
G1 X42.942 Y170.804 E0.01805
G1 X43.091 Y171.360 E0.01805
G1 X43.091 Y171.936 E0.01807
G1 X42.942 Y172.492 E0.01805
G1 X42.654 Y172.991 E0.01805
G1 X42.247 Y173.399 E0.01807
G1 X41.748 Y173.687 E0.01804
G1 X41.192 Y173.835 E0.01806
G1 X40.564 Y173.835 E0.01970
G1 X35.730 Y173.199 E0.15285
G1 X34.353 Y183.684 E0.33157
G1 X36.944 Y184.024 E0.08194
G1 X37.299 Y182.702 E0.04294
G1 X37.587 Y182.202 E0.01808
G1 X37.994 Y181.795 E0.01805
G1 X38.493 Y181.508 E0.01804
G1 X39.050 Y181.358 E0.01808
G1 X39.625 Y181.358 E0.01804
G1 X40.181 Y181.508 E0.01805
G1 X40.680 Y181.795 E0.01805
G1 X41.087 Y182.202 E0.01806
G1 X41.375 Y182.702 E0.01808
G1 X41.524 Y183.258 E0.01804
G1 X41.524 Y183.834 E0.01807
G1 X41.375 Y184.391 E0.01806
G1 X41.087 Y184.889 E0.01804
G1 X40.680 Y185.296 E0.01807
G1 X40.181 Y185.584 E0.01805
G1 X39.625 Y185.733 E0.01805
G1 X38.998 Y185.733 E0.01968
G1 X18.251 Y183.002 E0.65612
G1 X17.645 Y182.840 E0.01966
G1 X17.146 Y182.552 E0.01805
G1 X16.739 Y182.144 E0.01808
G1 X16.451 Y181.646 E0.01804
G1 X16.302 Y181.089 E0.01806
G1 X16.302 Y180.513 E0.01807
G1 X16.451 Y179.957 E0.01804
G1 X16.739 Y179.458 E0.01806
G1 X17.146 Y179.051 E0.01805
G1 X17.645 Y178.762 E0.01808
G1 X18.201 Y178.613 E0.01804
G1 X18.777 Y178.613 E0.01807
G1 X19.333 Y178.762 E0.01804
G1 X19.832 Y179.051 E0.01808
G1 X20.239 Y179.458 E0.01805
G1 X20.527 Y179.957 E0.01806
G1 X20.676 Y180.513 E0.01804
G1 X20.676 Y181.882 E0.04294
G1 X23.610 Y182.270 E0.09279
G1 X24.986 Y171.784 E0.33157
G1 X19.818 Y171.105 E0.16343
G1 X19.211 Y170.942 E0.01970
G1 X18.712 Y170.654 E0.01806
G1 X18.305 Y170.246 E0.01807
G1 X18.017 Y169.747 E0.01805
G1 X17.868 Y169.191 E0.01805
G1 X17.868 Y168.616 E0.01804
G1 X18.017 Y168.059 E0.01808
G1 X18.305 Y167.560 E0.01804
G1 X18.712 Y167.153 E0.01807
G1 X19.211 Y166.865 E0.01804
G1 X19.767 Y166.716 E0.01806
G1 X20.344 Y166.716 E0.01807
G1 X20.899 Y166.865 E0.01804
G1 X21.398 Y167.153 E0.01806
G1 X21.805 Y167.560 E0.01805
G1 X22.094 Y168.059 E0.01807
G1 X22.243 Y168.616 E0.01807
G1 X22.243 Y169.985 E0.04294
G1 X25.172 Y170.371 E0.09263
G1 X26.548 Y159.887 E0.33156
G1 X21.384 Y159.207 E0.16330
G1 X20.778 Y159.044 E0.01969
G1 X20.278 Y158.756 E0.01806
G1 X19.872 Y158.349 E0.01804
G1 X19.583 Y157.850 E0.01807
G1 X19.434 Y157.294 E0.01807
G1 X19.434 Y156.718 E0.01805
G1 X19.583 Y156.161 E0.01807
G1 X19.872 Y155.662 E0.01807
G1 X20.278 Y155.255 E0.01804
G1 X20.778 Y154.968 E0.01806
G1 X21.334 Y154.818 E0.01806
G1 X21.909 Y154.818 E0.01804
G1 X22.466 Y154.968 E0.01808
G1 X22.965 Y155.255 E0.01804
G1 X23.372 Y155.662 E0.01806
G1 X23.660 Y156.161 E0.01804
G1 X23.809 Y156.718 E0.01808
G1 X23.809 Y158.088 E0.04294
G1 X26.734 Y158.472 E0.09250
G1 X28.110 Y147.989 E0.33152
G1 X22.950 Y147.309 E0.16319
G1 X22.344 Y147.147 E0.01966
G1 X21.845 Y146.859 E0.01805
G1 X21.438 Y146.451 E0.01808
G1 X21.150 Y145.953 E0.01804
G1 X21.001 Y145.396 E0.01806
G1 X21.001 Y144.820 E0.01807
G1 X21.150 Y144.264 E0.01804
G1 X21.438 Y143.765 E0.01806
G1 X21.845 Y143.358 E0.01805
G1 X22.344 Y143.069 E0.01808
G1 X22.900 Y142.920 E0.01804
G1 X23.475 Y142.920 E0.01804
G1 X24.032 Y143.070 E0.01807
G1 X24.531 Y143.358 E0.01807
G1 X24.938 Y143.765 E0.01805
G1 X25.226 Y144.264 E0.01806
G1 X25.375 Y144.820 E0.01804
G1 X25.375 Y146.189 E0.04295
G1 X28.296 Y146.575 E0.09238
G1 X30.545 Y129.439 E0.54187
G1 X29.388 Y129.396 E0.03633
G1 X29.197 Y129.357 E0.00611
G1 X29.003 Y129.273 E0.00661
G1 X28.852 Y129.142 E0.00628
G1 X28.753 Y128.995 E0.00555
G1 X28.677 Y128.818 E0.00604
G1 X28.579 Y128.402 E0.01340
G1 X28.549 Y128.067 E0.01054
G1 X28.549 Y81.983 E1.44493
G1 X28.579 Y81.648 E0.01054
G1 X28.677 Y81.232 E0.01340
G1 X28.753 Y81.056 E0.00604
G1 X28.852 Y80.908 E0.00555
G1 X29.003 Y80.778 E0.00628
G1 X29.197 Y80.694 E0.00661
G1 X29.388 Y80.655 E0.00611
G1 X30.545 Y80.611 E0.03633
G1 X28.296 Y63.476 E0.54187
G1 X25.375 Y63.861 E0.09238
G1 X25.375 Y65.231 E0.04295
G1 X25.226 Y65.787 E0.01804
G1 X24.938 Y66.286 E0.01806
G1 X24.531 Y66.692 E0.01805
G1 X24.032 Y66.981 E0.01807
G1 X23.475 Y67.130 E0.01807
G1 X22.900 Y67.130 E0.01804
G1 X22.344 Y66.981 E0.01804
G1 X21.845 Y66.692 E0.01808
G1 X21.438 Y66.286 E0.01805
G1 X21.150 Y65.787 E0.01806
G1 X21.001 Y65.231 E0.01804
G1 X21.001 Y64.654 E0.01807
G1 X21.150 Y64.098 E0.01806
G1 X21.438 Y63.600 E0.01804
G1 X21.845 Y63.192 E0.01808
G1 X22.344 Y62.904 E0.01805
G1 X22.950 Y62.742 E0.01966
G1 X28.110 Y62.062 E0.16319
G1 X26.734 Y51.578 E0.33152
G1 X23.809 Y51.963 E0.09250
G1 X23.809 Y53.333 E0.04294
G1 X23.660 Y53.890 E0.01808
G1 X23.372 Y54.388 E0.01804
G1 X22.965 Y54.795 E0.01806
G1 X22.466 Y55.083 E0.01804
G1 X21.909 Y55.232 E0.01808
G1 X21.334 Y55.232 E0.01804
G1 X20.778 Y55.083 E0.01806
G1 X20.278 Y54.795 E0.01806
G1 X19.872 Y54.388 E0.01804
G1 X19.583 Y53.889 E0.01807
G1 X19.434 Y53.333 E0.01807
G1 X19.434 Y52.757 E0.01805
G1 X19.583 Y52.200 E0.01807
G1 X19.872 Y51.701 E0.01807
G1 X20.278 Y51.294 E0.01804
G1 X20.778 Y51.007 E0.01806
G1 X21.384 Y50.844 E0.01969
G1 X26.548 Y50.164 E0.16330
G1 X25.172 Y39.680 E0.33152
G1 X22.243 Y40.065 E0.09263
G1 X22.243 Y41.435 E0.04295
G1 X22.094 Y41.991 E0.01807
G1 X21.805 Y42.490 E0.01807
G1 X21.398 Y42.898 E0.01805
G1 X20.899 Y43.186 E0.01806
G1 X20.344 Y43.334 E0.01804
G1 X19.767 Y43.334 E0.01807
G1 X19.211 Y43.186 E0.01806
G1 X18.712 Y42.898 E0.01804
G1 X18.305 Y42.490 E0.01807
G1 X18.017 Y41.992 E0.01804
G1 X17.868 Y41.435 E0.01808
G1 X17.868 Y40.859 E0.01804
G1 X18.017 Y40.303 E0.01805
G1 X18.305 Y39.804 E0.01805
G1 X18.712 Y39.397 E0.01807
G1 X19.211 Y39.109 E0.01806
G1 X19.818 Y38.946 E0.01970
G1 X24.986 Y38.266 E0.16343
G1 X23.610 Y27.781 E0.33157
G1 X20.676 Y28.168 E0.09279
G1 X20.676 Y29.538 E0.04294
G1 X20.527 Y30.094 E0.01804
G1 X20.239 Y30.593 E0.01806
G1 X19.832 Y30.999 E0.01805
G1 X19.333 Y31.288 E0.01808
G1 X18.777 Y31.437 E0.01804
G1 X18.201 Y31.437 E0.01807
G1 X17.645 Y31.288 E0.01804
G1 X17.146 Y30.999 E0.01808
G1 X16.739 Y30.593 E0.01805
G1 X16.451 Y30.094 E0.01806
G1 X16.302 Y29.538 E0.01804
G1 X16.302 Y28.961 E0.01807
G1 X16.451 Y28.405 E0.01806
G1 X16.739 Y27.907 E0.01804
G1 X17.146 Y27.499 E0.01808
G1 X17.645 Y27.211 E0.01805
G1 X18.251 Y27.049 E0.01966
G1 X38.998 Y24.317 E0.65612
G1 X39.625 Y24.317 E0.01968
G1 X40.181 Y24.467 E0.01805
G1 X40.680 Y24.754 E0.01805
G1 X41.087 Y25.162 E0.01807
G1 X41.375 Y25.660 E0.01804
G1 X41.524 Y26.216 E0.01806
G1 X41.524 Y26.793 E0.01807
G1 X41.375 Y27.349 E0.01804
G1 X41.087 Y27.848 E0.01808
G1 X40.680 Y28.255 E0.01806
G1 X40.181 Y28.543 E0.01805
G1 X39.625 Y28.692 E0.01805
G1 X39.050 Y28.692 E0.01804
G1 X38.493 Y28.543 E0.01808
G1 X37.994 Y28.255 E0.01804
G1 X37.587 Y27.848 E0.01805
G1 X37.299 Y27.349 E0.01808
G1 X36.960 Y26.084 E0.04106
G1 X36.666 Y26.443 F10800.000
G1 F1200.000
G1 X34.776 Y26.691 E0.05976
G1 X36.055 Y36.428 E0.30792
G1 X40.539 Y35.838 E0.14180
G1 X41.241 Y35.838 E0.02202
G1 X41.894 Y36.012 E0.02118
G1 X42.478 Y36.350 E0.02116
G1 X42.956 Y36.828 E0.02118
G1 X43.293 Y37.412 E0.02116
G1 X43.468 Y38.064 E0.02116
G1 X43.468 Y38.740 E0.02119
G1 X43.293 Y39.392 E0.02116
G1 X42.956 Y39.977 E0.02116
G1 X42.478 Y40.454 E0.02118
G1 X41.894 Y40.792 E0.02116
